;FLAVOR:Marlin
;TIME:5252
;Filament used: 2.38151m
;Layer height: 0.2
;MINX:83.564
;MINY:72.568
;MINZ:0.2
;MAXX:136.453
;MAXY:147.641
;MAXZ:35.8
;TARGET_MACHINE.NAME:Creality Ender-3 S1
;Generated with Cura_SteamEngine 5.11.0
; Ender 3 S1 Start G-code
; M413 S0 ; Disable power loss recovery
G92 E0 ; Reset Extruder

; Prep surfaces before auto home for better accuracy
M140 S55.0
M104 S208.0

G28 ; Home all axes
G1 Z10.0 F3000 ; Move Z Axis up little to prevent scratching of Heat Bed
G1 X0 Y0

M190 S55.0
M109 S208.0

G1 X0.1 Y20 Z0.3 F5000.0 ; Move to start position
G1 X0.1 Y200.0 Z0.3 F1500.0 E15 ; Draw the first line
G1 X0.4 Y200.0 Z0.3 F5000.0 ; Move to side a little
G1 X0.4 Y20 Z0.3 F1500.0 E30 ; Draw the second line
G92 E0 ; Reset Extruder
G1 Z2.0 F3000 ; Move Z Axis up little to prevent scratching of Heat Bed
G1 X5 Y20 Z0.3 F5000.0 ; Move over to prevent blob squish

M82 ;absolute extrusion mode
G92 E0
G92 E0
G1 F2700 E-0.8
;LAYER_COUNT:179
;LAYER:0
M107
G0 F6000 X86.532 Y78.988 Z0.2
;TYPE:SKIRT
G1 F2700 E0
G1 F960 X87.152 Y78.332 E0.03002
G1 X87.651 Y77.876 E0.0525
G1 X88.063 Y77.527 E0.07046
G1 X88.446 Y77.221 E0.08677
G1 X91.111 Y75.213 E0.19775
G1 X91.713 Y74.775 E0.22251
G1 X92.715 Y74.129 E0.26216
G1 X92.978 Y73.984 E0.27215
G1 X93.715 Y73.617 E0.29954
G1 X94.547 Y73.268 E0.32955
G1 X95.543 Y72.952 E0.3643
G1 X96.495 Y72.74 E0.39674
G1 X97.46 Y72.616 E0.4291
G1 X98.435 Y72.577 E0.46155
G1 X99.4 Y72.624 E0.49369
G1 X102.124 Y72.895 E0.58474
G1 X104.634 Y73.081 E0.66845
G1 X107.163 Y73.197 E0.75265
G1 X109.671 Y73.241 E0.83608
G1 X112.164 Y73.214 E0.919
G1 X114.693 Y73.114 E1.00318
G1 X117.183 Y72.947 E1.08619
G1 X119.128 Y72.749 E1.15121
G1 X120.525 Y72.618 E1.19788
G1 X120.616 Y72.62 E1.20091
G1 X121.608 Y72.568 E1.23395
G1 X122.51 Y72.608 E1.26398
G1 X123.545 Y72.748 E1.29872
G1 X124.508 Y72.968 E1.33157
G1 X125.763 Y73.397 E1.37568
G1 X126.413 Y73.682 E1.39929
G1 X127.274 Y74.124 E1.43148
G1 X128.296 Y74.783 E1.47192
G1 X128.956 Y75.262 E1.49905
G1 X131.377 Y77.086 E1.59987
G1 X131.938 Y77.522 E1.6235
G1 X132.906 Y78.377 E1.66645
G1 X133.641 Y79.18 E1.70266
G1 X134.11 Y79.78 E1.72799
G1 X134.324 Y80.078 E1.74019
G1 X134.855 Y80.922 E1.77336
G1 X135.299 Y81.789 E1.80576
G1 X135.686 Y82.747 E1.84012
G1 X135.912 Y83.496 E1.86614
G1 X135.93 Y83.621 E1.87034
G1 X136.065 Y84.131 E1.88789
G1 X136.247 Y85.204 E1.92409
G1 X136.319 Y86.177 E1.95654
G1 X136.304 Y87.149 E1.98887
G1 X136.214 Y88.047 E2.01889
G1 X136.121 Y88.603 E2.03764
G1 X135.995 Y89.224 E2.05871
G1 X135.748 Y90.331 E2.09644
G1 X135.215 Y92.878 E2.18299
G1 X134.766 Y95.361 E2.26691
G1 X134.392 Y97.837 E2.3502
G1 X134.084 Y100.354 E2.43454
G1 X133.85 Y102.847 E2.51782
G1 X133.689 Y105.324 E2.60038
G1 X133.595 Y107.868 E2.68505
G1 X133.572 Y110.41 E2.7696
G1 X133.622 Y112.903 E2.85253
G1 X133.741 Y115.399 E2.93565
G1 X133.932 Y117.9 E3.01907
G1 X134.197 Y120.445 E3.10418
G1 X134.53 Y122.927 E3.18747
G1 X134.93 Y125.392 E3.27053
G1 X135.406 Y127.878 E3.35471
G1 X135.876 Y130.023 E3.42775
G1 X136.128 Y131.109 E3.46483
G1 X136.227 Y131.588 E3.4811
G1 X136.308 Y132.051 E3.49673
G1 X136.423 Y133.014 E3.52899
G1 X136.453 Y133.862 E3.55721
G1 X136.413 Y134.764 E3.58724
G1 X136.273 Y135.799 E3.62198
G1 X136.057 Y136.748 E3.65435
G1 X135.757 Y137.675 E3.68676
G1 X135.372 Y138.579 E3.71944
G1 X134.814 Y139.606 E3.75831
G1 X134.504 Y140.092 E3.77748
G1 X133.939 Y140.877 E3.80965
G1 X133.04 Y141.882 E3.8545
G1 X132.191 Y142.642 E3.8924
G1 X131.821 Y142.938 E3.90816
G1 X129.132 Y144.97 E4.02026
G1 X128.597 Y145.36 E4.04228
G1 X128.109 Y145.697 E4.062
G1 X127.597 Y146.014 E4.08203
G1 X126.778 Y146.458 E4.11302
G1 X125.83 Y146.879 E4.14752
G1 X124.942 Y147.182 E4.17873
G1 X123.954 Y147.424 E4.21256
G1 X122.851 Y147.583 E4.24962
G1 X122.122 Y147.63 E4.27392
G1 X121.219 Y147.632 E4.30395
G1 X120.623 Y147.592 E4.32382
G1 X119.924 Y147.527 E4.34717
G1 X118.359 Y147.357 E4.39953
G1 X115.853 Y147.155 E4.48315
G1 X113.37 Y147.028 E4.56584
G1 X110.834 Y146.968 E4.65021
G1 X108.311 Y146.98 E4.73413
G1 X105.804 Y147.064 E4.81756
G1 X103.285 Y147.218 E4.9015
G1 X100.755 Y147.447 E4.98599
G1 X99.435 Y147.587 E5.03014
G1 X98.986 Y147.621 E5.04512
G1 X98.012 Y147.641 E5.07752
G1 X97.04 Y147.575 E5.10992
G1 X96.079 Y147.423 E5.14228
G1 X95.128 Y147.186 E5.17488
G1 X94.071 Y146.814 E5.21215
G1 X93.724 Y146.67 E5.22465
G1 X92.905 Y146.288 E5.2547
G1 X92.036 Y145.787 E5.28807
G1 X91.48 Y145.408 E5.31045
G1 X90.903 Y144.992 E5.33411
G1 X88.754 Y143.377 E5.42352
G1 X88.07 Y142.847 E5.4523
G1 X87.337 Y142.223 E5.48431
G1 X86.885 Y141.776 E5.50546
G1 X86.64 Y141.519 E5.51727
G1 X86 Y140.784 E5.54968
G1 X85.429 Y139.995 E5.58207
G1 X84.929 Y139.159 E5.61447
G1 X84.507 Y138.287 E5.64669
G1 X84.209 Y137.517 E5.67416
G1 X83.985 Y136.815 E5.69866
G1 X83.754 Y135.838 E5.73205
G1 X83.623 Y134.944 E5.76211
G1 X83.564 Y133.901 E5.79685
G1 X83.595 Y132.964 E5.82803
G1 X83.699 Y132.077 E5.85774
G1 X83.757 Y131.714 E5.86996
G1 X83.878 Y131.078 E5.8915
G1 X84.062 Y130.249 E5.91974
G1 X84.309 Y129.208 E5.95533
G1 X84.82 Y126.739 E6.03919
G1 X85.268 Y124.222 E6.12422
G1 X85.631 Y121.783 E6.20623
G1 X85.934 Y119.269 E6.29045
G1 X86.162 Y116.768 E6.37398
G1 X86.321 Y114.255 E6.45773
G1 X86.408 Y111.734 E6.54163
G1 X86.424 Y109.222 E6.62518
G1 X86.367 Y106.689 E6.70945
G1 X86.244 Y104.211 E6.79197
G1 X86.043 Y101.654 E6.87728
G1 X85.776 Y99.171 E6.96034
G1 X85.441 Y96.705 E7.04311
G1 X85.026 Y94.179 E7.12826
G1 X84.555 Y91.753 E7.21045
G1 X84.165 Y90.042 E7.26882
G1 X83.912 Y88.868 E7.30876
G1 X83.75 Y87.907 E7.34118
G1 X83.675 Y86.936 E7.37357
G1 X83.686 Y85.962 E7.40597
G1 X83.781 Y85 E7.43812
G1 X83.938 Y84.124 E7.46772
G1 X84.222 Y83.062 E7.50428
G1 X84.556 Y82.147 E7.53668
G1 X84.968 Y81.266 E7.56903
G1 X85.419 Y80.484 E7.59905
G1 X85.926 Y79.749 E7.62875
G1 X86.532 Y78.988 E7.66111
G0 F6000 X86.823 Y79.263
G1 F960 X87.443 Y78.607 E7.69113
G1 X87.909 Y78.181 E7.71213
G1 X88.313 Y77.839 E7.72973
G1 X88.687 Y77.54 E7.74566
G1 X91.346 Y75.536 E7.8564
G1 X91.93 Y75.111 E7.88042
G1 X92.909 Y74.479 E7.91918
G1 X93.156 Y74.342 E7.92858
G1 X93.87 Y73.986 E7.95511
G1 X94.702 Y73.637 E7.98512
G1 X95.63 Y73.342 E8.01751
G1 X96.547 Y73.137 E8.04876
G1 X97.477 Y73.016 E8.07995
G1 X98.416 Y72.977 E8.11121
G1 X99.36 Y73.022 E8.14264
G1 X102.094 Y73.294 E8.23403
G1 X104.616 Y73.481 E8.31814
G1 X107.145 Y73.597 E8.40234
G1 X109.668 Y73.641 E8.48627
G1 X112.18 Y73.614 E8.56982
G1 X114.709 Y73.514 E8.654
G1 X117.219 Y73.345 E8.73768
G1 X119.165 Y73.147 E8.80273
G1 X120.562 Y73.016 E8.8494
G1 X120.599 Y73.021 E8.85064
G1 X121.59 Y72.968 E8.88365
G1 X122.492 Y73.008 E8.91368
G1 X123.457 Y73.138 E8.94607
G1 X124.379 Y73.347 E8.97751
G1 X125.603 Y73.764 E9.02052
G1 X126.23 Y74.038 E9.04328
G1 X127.091 Y74.48 E9.07547
G1 X128.079 Y75.119 E9.1146
G1 X128.715 Y75.582 E9.14077
G1 X131.132 Y77.402 E9.2414
G1 X131.673 Y77.822 E9.26418
G1 X132.641 Y78.677 E9.30714
G1 X133.326 Y79.427 E9.34092
G1 X133.785 Y80.013 E9.36568
G1 X133.999 Y80.311 E9.37788
G1 X134.499 Y81.105 E9.40909
G1 X134.928 Y81.94 E9.44031
G1 X135.303 Y82.863 E9.47345
G1 X135.529 Y83.612 E9.49947
G1 X135.534 Y83.685 E9.5019
G1 X135.671 Y84.198 E9.51956
G1 X135.848 Y85.234 E9.55452
G1 X135.919 Y86.171 E9.58577
G1 X135.906 Y87.109 E9.61698
G1 X135.816 Y88.007 E9.64699
G1 X135.729 Y88.524 E9.66443
G1 X135.605 Y89.137 E9.68523
G1 X135.356 Y90.249 E9.72313
G1 X134.823 Y92.796 E9.80968
G1 X134.372 Y95.29 E9.89398
G1 X133.996 Y97.777 E9.97764
G1 X133.687 Y100.305 E10.06234
G1 X133.452 Y102.81 E10.14603
G1 X133.289 Y105.309 E10.22932
G1 X133.195 Y107.853 E10.31399
G1 X133.172 Y110.406 E10.39891
G1 X133.222 Y112.922 E10.48261
G1 X133.342 Y115.429 E10.56608
G1 X133.534 Y117.941 E10.64988
G1 X133.799 Y120.486 E10.73498
G1 X134.135 Y122.991 E10.81905
G1 X134.537 Y125.467 E10.90248
G1 X135.015 Y127.964 E10.98703
G1 X135.486 Y130.114 E11.06024
G1 X135.736 Y131.19 E11.09698
G1 X135.833 Y131.658 E11.11288
G1 X135.911 Y132.099 E11.12777
G1 X136.023 Y133.029 E11.15893
G1 X136.053 Y133.844 E11.18605
G1 X136.013 Y134.746 E11.21608
G1 X135.883 Y135.711 E11.24847
G1 X135.676 Y136.626 E11.27967
G1 X135.389 Y137.519 E11.31087
G1 X135.021 Y138.388 E11.34226
G1 X134.476 Y139.391 E11.38022
G1 X134.179 Y139.858 E11.39863
G1 X133.614 Y140.643 E11.4308
G1 X132.773 Y141.584 E11.47278
G1 X131.941 Y142.33 E11.50994
G1 X131.58 Y142.619 E11.52532
G1 X128.896 Y144.647 E11.63721
G1 X128.37 Y145.031 E11.65887
G1 X127.898 Y145.357 E11.67795
G1 X127.406 Y145.662 E11.6972
G1 X126.587 Y146.106 E11.72819
G1 X125.701 Y146.5 E11.76044
G1 X124.813 Y146.803 E11.79165
G1 X123.897 Y147.028 E11.82302
G1 X122.794 Y147.187 E11.86008
G1 X122.121 Y147.23 E11.88251
G1 X121.218 Y147.232 E11.91255
G1 X120.66 Y147.194 E11.93115
G1 X119.967 Y147.129 E11.9543
G1 X118.398 Y146.959 E12.00679
G1 X115.885 Y146.757 E12.09064
G1 X113.379 Y146.628 E12.1741
G1 X110.841 Y146.568 E12.25854
G1 X108.298 Y146.58 E12.34312
G1 X105.791 Y146.664 E12.42655
G1 X103.258 Y146.819 E12.51096
G1 X100.713 Y147.049 E12.59595
G1 X99.404 Y147.188 E12.63973
G1 X98.977 Y147.221 E12.65398
G1 X98.038 Y147.242 E12.68522
G1 X97.102 Y147.18 E12.71642
G1 X96.175 Y147.035 E12.74762
G1 X95.261 Y146.809 E12.77894
G1 X94.224 Y146.444 E12.8155
G1 X93.893 Y146.307 E12.82742
G1 X93.074 Y145.925 E12.85748
G1 X92.261 Y145.456 E12.88869
G1 X91.714 Y145.084 E12.9107
G1 X91.143 Y144.672 E12.93411
G1 X88.999 Y143.061 E13.02331
G1 X88.329 Y142.542 E13.0515
G1 X87.618 Y141.938 E13.08253
G1 X87.174 Y141.5 E13.10327
G1 X86.941 Y141.256 E13.11449
G1 X86.324 Y140.549 E13.1457
G1 X85.772 Y139.789 E13.17695
G1 X85.289 Y138.984 E13.20817
G1 X84.88 Y138.142 E13.2393
G1 X84.59 Y137.395 E13.26596
G1 X84.366 Y136.693 E13.29046
G1 X84.15 Y135.78 E13.32167
G1 X84.019 Y134.886 E13.35172
G1 X83.964 Y133.914 E13.3841
G1 X83.995 Y132.977 E13.41528
G1 X84.094 Y132.14 E13.44332
G1 X84.15 Y131.788 E13.45517
G1 X84.268 Y131.165 E13.47626
G1 X84.451 Y130.341 E13.50433
G1 X84.701 Y129.289 E13.5403
G1 X85.212 Y126.82 E13.62416
G1 X85.662 Y124.292 E13.70956
G1 X86.027 Y121.842 E13.79195
G1 X86.331 Y119.317 E13.87654
G1 X86.56 Y116.804 E13.96047
G1 X86.721 Y114.269 E14.04495
G1 X86.808 Y111.748 E14.12885
G1 X86.824 Y109.225 E14.21277
G1 X86.767 Y106.669 E14.2978
G1 X86.644 Y104.191 E14.38032
G1 X86.442 Y101.623 E14.466
G1 X86.174 Y99.128 E14.54946
G1 X85.836 Y96.64 E14.63297
G1 X85.421 Y94.114 E14.71811
G1 X84.948 Y91.677 E14.80068
G1 X84.556 Y89.957 E14.85935
G1 X84.306 Y88.801 E14.89869
G1 X84.149 Y87.875 E14.92993
G1 X84.075 Y86.94 E14.96112
G1 X84.084 Y86.001 E14.99236
G1 X84.175 Y85.071 E15.02344
G1 X84.332 Y84.195 E15.05304
G1 X84.598 Y83.198 E15.08736
G1 X84.918 Y82.316 E15.11856
G1 X85.315 Y81.466 E15.14976
G1 X85.766 Y80.684 E15.17979
G1 X86.239 Y79.998 E15.2075
G1 X86.823 Y79.263 E15.23873
G0 F6000 X87.114 Y79.538
G1 F960 X87.734 Y78.882 E15.26875
G1 X88.168 Y78.486 E15.28829
G1 X88.563 Y78.151 E15.30552
G1 X88.928 Y77.859 E15.32106
G1 X91.582 Y75.859 E15.43159
G1 X92.147 Y75.447 E15.45485
G1 X93.103 Y74.829 E15.49271
G1 X93.335 Y74.7 E15.50154
G1 X94.025 Y74.355 E15.5272
G1 X94.857 Y74.006 E15.55721
G1 X95.718 Y73.732 E15.58726
G1 X96.599 Y73.534 E15.61729
G1 X97.494 Y73.416 E15.64732
G1 X98.397 Y73.377 E15.67738
G1 X99.32 Y73.42 E15.70811
G1 X102.064 Y73.693 E15.79983
G1 X104.598 Y73.881 E15.88434
G1 X107.127 Y73.997 E15.96855
G1 X109.665 Y74.041 E16.05297
G1 X112.196 Y74.014 E16.13716
G1 X114.725 Y73.914 E16.22134
G1 X117.258 Y73.743 E16.30578
G1 X119.202 Y73.545 E16.37077
G1 X120.599 Y73.414 E16.41744
G1 X120.6 Y73.421 E16.41768
G1 X121.572 Y73.368 E16.45005
G1 X122.474 Y73.408 E16.48008
G1 X123.369 Y73.528 E16.51012
G1 X124.25 Y73.726 E16.54015
G1 X125.443 Y74.131 E16.58205
G1 X126.07 Y74.405 E16.60481
G1 X126.874 Y74.816 E16.63484
G1 X127.843 Y75.442 E16.67321
G1 X128.474 Y75.902 E16.69919
G1 X130.887 Y77.718 E16.79963
G1 X131.408 Y78.122 E16.82156
G1 X132.376 Y78.977 E16.86452
G1 X133.03 Y79.696 E16.89684
G1 X133.461 Y80.247 E16.92011
G1 X133.661 Y80.524 E16.93147
G1 X134.143 Y81.288 E16.96152
G1 X134.557 Y82.091 E16.99157
G1 X134.932 Y83.014 E17.0247
G1 X135.146 Y83.727 E17.04946
G1 X135.132 Y83.731 E17.04995
G1 X135.277 Y84.266 E17.06838
G1 X135.449 Y85.265 E17.1021
G1 X135.519 Y86.166 E17.13216
G1 X135.508 Y87.069 E17.16219
G1 X135.418 Y87.967 E17.19221
G1 X135.337 Y88.445 E17.20833
G1 X135.215 Y89.049 E17.22883
G1 X134.964 Y90.167 E17.26694
G1 X134.431 Y92.714 E17.35349
G1 X133.979 Y95.219 E17.43815
G1 X133.599 Y97.728 E17.52255
G1 X133.29 Y100.256 E17.60726
G1 X133.054 Y102.773 E17.69134
G1 X132.889 Y105.294 E17.77537
G1 X132.795 Y107.838 E17.86004
G1 X132.772 Y110.402 E17.94532
G1 X132.822 Y112.941 E18.02979
G1 X132.943 Y115.459 E18.11363
G1 X133.136 Y117.983 E18.19783
G1 X133.402 Y120.528 E18.28294
G1 X133.74 Y123.055 E18.36773
G1 X134.144 Y125.542 E18.45153
G1 X134.624 Y128.05 E18.53647
G1 X135.096 Y130.204 E18.60981
G1 X135.344 Y131.272 E18.64627
G1 X135.439 Y131.728 E18.66177
G1 X135.514 Y132.147 E18.67592
G1 X135.623 Y133.044 E18.70598
G1 X135.653 Y133.826 E18.73201
G1 X135.613 Y134.728 E18.76204
G1 X135.493 Y135.623 E18.79207
G1 X135.295 Y136.504 E18.8221
G1 X135.02 Y137.364 E18.85213
G1 X134.669 Y138.197 E18.8822
G1 X134.138 Y139.176 E18.91924
G1 X133.841 Y139.643 E18.93765
G1 X133.315 Y140.377 E18.96768
G1 X132.506 Y141.286 E19.00816
G1 X131.691 Y142.018 E19.04459
G1 X131.339 Y142.3 E19.05959
G1 X128.66 Y144.324 E19.17127
G1 X128.143 Y144.702 E19.19257
G1 X127.687 Y145.017 E19.211
G1 X127.215 Y145.31 E19.22948
G1 X126.396 Y145.754 E19.26047
G1 X125.571 Y146.122 E19.29051
G1 X124.717 Y146.415 E19.32054
G1 X123.84 Y146.632 E19.35059
G1 X122.737 Y146.791 E19.38766
G1 X122.12 Y146.83 E19.40822
G1 X121.217 Y146.832 E19.43825
G1 X120.698 Y146.796 E19.45556
G1 X120.01 Y146.731 E19.47854
G1 X118.437 Y146.561 E19.53116
G1 X115.917 Y146.359 E19.61525
G1 X113.388 Y146.228 E19.69948
G1 X110.848 Y146.168 E19.78398
G1 X108.285 Y146.18 E19.86923
G1 X105.778 Y146.264 E19.95266
G1 X103.231 Y146.42 E20.03753
G1 X100.671 Y146.651 E20.12302
G1 X99.373 Y146.789 E20.16644
G1 X98.967 Y146.821 E20.17998
G1 X98.064 Y146.843 E20.21002
G1 X97.163 Y146.785 E20.24005
G1 X96.27 Y146.647 E20.27011
G1 X95.394 Y146.432 E20.30011
G1 X94.377 Y146.074 E20.33597
G1 X94.062 Y145.944 E20.3473
G1 X93.243 Y145.562 E20.37736
G1 X92.461 Y145.11 E20.4074
G1 X91.948 Y144.76 E20.42806
G1 X91.383 Y144.352 E20.45124
G1 X89.244 Y142.745 E20.54022
G1 X88.588 Y142.237 E20.56782
G1 X87.899 Y141.653 E20.59786
G1 X87.463 Y141.223 E20.61822
G1 X87.242 Y140.992 E20.62886
G1 X86.647 Y140.313 E20.65888
G1 X86.115 Y139.583 E20.68893
G1 X85.649 Y138.809 E20.71898
G1 X85.253 Y137.997 E20.74902
G1 X84.971 Y137.273 E20.77487
G1 X84.755 Y136.6 E20.79838
G1 X84.546 Y135.722 E20.82839
G1 X84.415 Y134.828 E20.85845
G1 X84.364 Y133.926 E20.88849
G1 X84.392 Y133.024 E20.91851
G1 X84.489 Y132.203 E20.94601
G1 X84.543 Y131.862 E20.95749
G1 X84.658 Y131.252 E20.97814
G1 X84.84 Y130.434 E21.00601
G1 X85.093 Y129.37 E21.04238
G1 X85.604 Y126.901 E21.12624
G1 X86.056 Y124.362 E21.21202
G1 X86.423 Y121.901 E21.29478
G1 X86.728 Y119.365 E21.37973
G1 X86.958 Y116.84 E21.46406
G1 X87.121 Y114.283 E21.54928
G1 X87.208 Y111.762 E21.63318
G1 X87.224 Y109.228 E21.71746
G1 X87.167 Y106.649 E21.80326
G1 X87.044 Y104.171 E21.88578
G1 X86.841 Y101.592 E21.97182
G1 X86.572 Y99.085 E22.05569
G1 X86.231 Y96.575 E22.13994
G1 X85.816 Y94.049 E22.22508
G1 X85.341 Y91.601 E22.30802
G1 X84.947 Y89.872 E22.367
G1 X84.7 Y88.734 E22.40573
G1 X84.548 Y87.843 E22.43579
G1 X84.475 Y86.943 E22.46582
G1 X84.482 Y86.04 E22.49586
G1 X84.569 Y85.141 E22.5259
G1 X84.719 Y84.297 E22.55441
G1 X84.974 Y83.334 E22.58754
G1 X85.281 Y82.485 E22.61757
G1 X85.662 Y81.666 E22.64761
G1 X86.113 Y80.884 E22.67764
G1 X86.553 Y80.246 E22.70342
G1 X87.114 Y79.538 E22.73346
G1 F2700 E21.93346
;MESH:Corgi.stl
G0 F6000 X94.493 Y87.423
G0 X100.939 Y93.853
;TYPE:WALL-INNER
G1 F2700 E22.73346
G1 F960 X100.921 Y93.713 E22.73816
G1 X100.963 Y93.449 E22.74705
G1 X101.112 Y93.075 E22.76044
G1 X101.367 Y92.737 E22.77452
G1 X101.737 Y92.402 E22.79112
