;FLAVOR:Marlin
;TIME:3596
;Filament used: 1.8748m
;Layer height: 0.2
;MINX:69.754
;MINY:37.059
;MINZ:0.2
;MAXX:150.249
;MAXY:182.938
;MAXZ:8.4
;TARGET_MACHINE.NAME:Creality Ender-3 S1
;Generated with Cura_SteamEngine 5.11.0
; Ender 3 S1 Start G-code
; M413 S0 ; Disable power loss recovery
G92 E0 ; Reset Extruder

; Prep surfaces before auto home for better accuracy
M140 S55.0
M104 S208.0

G28 ; Home all axes
G1 Z10.0 F3000 ; Move Z Axis up little to prevent scratching of Heat Bed
G1 X0 Y0

M190 S55.0
M109 S208.0

G1 X0.1 Y20 Z0.3 F5000.0 ; Move to start position
G1 X0.1 Y200.0 Z0.3 F1500.0 E15 ; Draw the first line
G1 X0.4 Y200.0 Z0.3 F5000.0 ; Move to side a little
G1 X0.4 Y20 Z0.3 F1500.0 E30 ; Draw the second line
G92 E0 ; Reset Extruder
G1 Z2.0 F3000 ; Move Z Axis up little to prevent scratching of Heat Bed
G1 X5 Y20 Z0.3 F5000.0 ; Move over to prevent blob squish

M82 ;absolute extrusion mode
G92 E0
G92 E0
G1 F3000 E-0.8
;LAYER_COUNT:42
;LAYER:0
M107
G0 F4800 X93.607 Y48.732 Z0.2
;TYPE:SKIRT
G1 F3000 E0
G1 F960 X93.813 Y48.354 E0.01432
G1 X94.323 Y47.471 E0.04823
G1 X94.654 Y46.923 E0.06953
G1 X94.994 Y46.396 E0.09039
G1 X95.679 Y45.409 E0.13035
G1 X96.057 Y44.893 E0.15162
G1 X96.449 Y44.39 E0.17283
G1 X96.881 Y43.878 E0.19511
G1 X97.642 Y43.031 E0.23298
G1 X98.308 Y42.36 E0.26443
G1 X99.1 Y41.635 E0.30014
G1 X99.567 Y41.231 E0.32068
G1 X100.246 Y40.692 E0.34951
G1 X100.622 Y40.42 E0.36495
G1 X101.636 Y39.742 E0.40552
G1 X102.73 Y39.115 E0.44746
G1 X103.832 Y38.573 E0.4883
G1 X104.173 Y38.419 E0.50075
G1 X104.905 Y38.132 E0.5269
G1 X105.037 Y38.072 E0.53172
G1 X105.636 Y37.877 E0.55267
G1 X106.369 Y37.664 E0.57806
G1 X106.881 Y37.529 E0.59567
G1 X107.763 Y37.336 E0.6257
G1 X108.425 Y37.241 E0.64794
G1 X109.184 Y37.155 E0.67335
G1 X109.88 Y37.094 E0.69659
G1 X110.296 Y37.069 E0.71045
G1 X110.784 Y37.059 E0.72668
G1 X111.443 Y37.081 E0.74861
G1 X111.94 Y37.115 E0.76518
G1 X112.936 Y37.218 E0.79849
G1 X113.886 Y37.365 E0.83046
G1 X114.493 Y37.505 E0.85118
G1 X115.259 Y37.704 E0.8775
G1 X115.927 Y37.896 E0.90062
G1 X116.712 Y38.163 E0.9282
G1 X117.394 Y38.456 E0.95289
G1 X118.135 Y38.791 E0.97993
G1 X118.6 Y39.021 E0.99719
G1 X119.703 Y39.646 E1.03935
G1 X120.436 Y40.122 E1.06842
G1 X121.072 Y40.56 E1.09411
G1 X121.79 Y41.108 E1.12415
G1 X122.64 Y41.847 E1.16161
G1 X123.127 Y42.297 E1.18367
G1 X123.78 Y42.952 E1.21443
G1 X124.544 Y43.797 E1.25232
G1 X124.981 Y44.307 E1.27465
G1 X125.304 Y44.71 E1.29183
G1 X125.644 Y45.16 E1.31059
G1 X126.418 Y46.26 E1.35533
G1 X126.766 Y46.798 E1.37664
G1 X127.396 Y47.848 E1.41736
G1 X127.933 Y48.81 E1.45401
G1 X128.288 Y49.517 E1.48032
G1 X128.851 Y50.713 E1.52429
G1 X129.07 Y51.216 E1.54253
G1 X129.473 Y52.227 E1.57873
G1 X129.804 Y53.123 E1.6105
G1 X130.189 Y54.262 E1.65049
G1 X130.498 Y55.263 E1.68534
G1 X130.894 Y56.727 E1.73578
G1 X131.147 Y57.782 E1.77186
G1 X131.385 Y58.931 E1.81089
G1 X131.51 Y59.599 E1.83349
G1 X131.675 Y60.565 E1.86609
G1 X131.792 Y61.372 E1.89321
G1 X131.974 Y62.85 E1.94274
G1 X132.113 Y64.44 E1.99582
G1 X132.198 Y65.789 E2.04078
G1 X132.221 Y66.458 E2.06305
G1 X132.249 Y68.16 E2.11966
G1 X132.25 Y96.672 E3.06797
G1 X132.286 Y99.214 E3.15253
G1 X132.396 Y101.812 E3.23902
G1 X132.569 Y104.27 E3.32097
G1 X132.819 Y106.789 E3.40517
G1 X133.14 Y109.297 E3.48926
G1 X133.526 Y111.758 E3.57212
G1 X133.984 Y114.223 E3.65551
G1 X134.525 Y116.736 E3.74101
G1 X135.115 Y119.137 E3.82324
G1 X135.792 Y121.607 E3.90842
G1 X136.518 Y123.974 E3.99077
G1 X137.329 Y126.376 E4.07509
G1 X138.203 Y128.747 E4.15914
G1 X139.132 Y131.059 E4.24201
G1 X140.141 Y133.378 E4.32612
G1 X141.206 Y135.652 E4.40964
G1 X142.343 Y137.911 E4.49376
G1 X143.526 Y140.099 E4.57649
G1 X144.786 Y142.285 E4.66041
G1 X146.117 Y144.449 E4.7449
G1 X147.496 Y146.555 E4.82863
G1 X148.271 Y147.701 E4.87464
G1 X148.561 Y148.151 E4.89245
G1 X149.052 Y149.017 E4.92556
G1 X149.456 Y149.903 E4.95795
G1 X149.779 Y150.821 E4.99032
G1 X150.022 Y151.765 E5.02274
G1 X150.178 Y152.726 E5.05512
G1 X150.249 Y153.699 E5.08757
G1 X150.234 Y154.671 E5.1199
G1 X150.143 Y155.569 E5.14992
G1 X149.911 Y156.735 E5.18946
G1 X149.697 Y157.451 E5.21432
G1 X149.512 Y158.029 E5.2345
G1 X149.252 Y158.741 E5.25971
G1 X148.958 Y159.465 E5.2857
G1 X148.586 Y160.313 E5.3165
G1 X148.165 Y161.205 E5.34931
G1 X147.666 Y162.202 E5.38639
G1 X147.121 Y163.224 E5.42491
G1 X146.534 Y164.275 E5.46495
G1 X145.846 Y165.426 E5.50955
G1 X145.353 Y166.214 E5.54047
G1 X144.881 Y166.932 E5.56905
G1 X144.059 Y168.125 E5.61723
G1 X142.933 Y169.625 E5.67962
G1 X142.381 Y170.314 E5.70898
G1 X141.287 Y171.569 E5.76435
G1 X140.61 Y172.303 E5.79757
G1 X140.197 Y172.724 E5.81718
G1 X139.461 Y173.434 E5.85119
G1 X138.763 Y174.061 E5.8824
G1 X137.792 Y174.867 E5.92437
G1 X134.832 Y177.189 E6.0495
G1 X132.894 Y178.805 E6.13343
G1 X131.403 Y180.111 E6.19935
G1 X130.441 Y180.865 E6.24001
G1 X129.416 Y181.518 E6.28043
G1 X128.548 Y181.959 E6.31281
G1 X127.643 Y182.322 E6.34524
G1 X126.711 Y182.603 E6.37762
G1 X125.827 Y182.788 E6.40766
G1 X124.79 Y182.911 E6.44239
G1 X123.888 Y182.938 E6.4724
G1 X122.577 Y182.845 E6.51612
G1 X121.846 Y182.747 E6.54065
G1 X119.274 Y182.44 E6.6268
G1 X116.784 Y182.214 E6.70996
G1 X114.277 Y182.058 E6.7935
G1 X111.754 Y181.973 E6.87747
G1 X109.218 Y181.959 E6.96181
G1 X106.724 Y182.015 E7.04479
G1 X104.193 Y182.145 E7.12908
G1 X101.707 Y182.341 E7.21202
G1 X99.161 Y182.617 E7.2972
G1 X97.14 Y182.879 E7.36498
G1 X96.111 Y182.938 E7.39926
G1 X95.138 Y182.905 E7.43164
G1 X94.172 Y182.787 E7.46401
G1 X93.22 Y182.584 E7.49638
G1 X92.289 Y182.298 E7.52878
G1 X91.386 Y181.93 E7.56121
G1 X90.555 Y181.503 E7.59228
G1 X89.949 Y181.133 E7.6159
G1 X89.122 Y180.547 E7.64961
G1 X88.673 Y180.179 E7.66892
G1 X87.374 Y179.041 E7.72636
G1 X85.445 Y177.412 E7.81033
G1 X83.47 Y175.839 E7.89431
G1 X82.322 Y174.957 E7.94246
G1 X81.622 Y174.389 E7.97244
G1 X80.711 Y173.583 E8.0129
G1 X80.098 Y173.007 E8.04088
G1 X79.524 Y172.441 E8.06769
G1 X79.252 Y172.158 E8.08075
G1 X78.565 Y171.395 E8.11489
G1 X77.973 Y170.718 E8.14481
G1 X77.117 Y169.7 E8.18904
G1 X76.523 Y168.923 E8.22157
G1 X75.717 Y167.809 E8.26731
G1 X75.15 Y166.982 E8.30066
G1 X74.424 Y165.867 E8.34491
G1 X73.731 Y164.723 E8.3894
G1 X73.189 Y163.788 E8.42534
G1 X72.629 Y162.761 E8.46425
G1 X71.992 Y161.53 E8.51035
G1 X71.332 Y160.131 E8.5618
G1 X71.132 Y159.679 E8.57824
G1 X70.793 Y158.853 E8.60793
G1 X70.579 Y158.288 E8.62803
G1 X70.282 Y157.402 E8.65911
G1 X70.023 Y156.462 E8.69154
G1 X69.848 Y155.505 E8.7239
G1 X69.758 Y154.535 E8.7563
G1 X69.754 Y153.561 E8.78869
G1 X69.828 Y152.661 E8.81873
G1 X70.005 Y151.631 E8.85349
G1 X70.248 Y150.724 E8.88472
G1 X70.583 Y149.802 E8.91735
G1 X71.205 Y148.534 E8.96432
G1 X71.523 Y148.01 E8.98471
G1 X71.827 Y147.561 E9.00274
G1 X72.935 Y146.017 E9.06595
G1 X74.364 Y143.932 E9.15002
G1 X75.717 Y141.833 E9.23308
G1 X77.037 Y139.653 E9.31784
G1 X78.275 Y137.47 E9.40131
G1 X79.448 Y135.26 E9.48453
G1 X80.564 Y133.007 E9.56816
G1 X81.615 Y130.724 E9.65175
G1 X82.603 Y128.403 E9.73565
G1 X83.528 Y126.054 E9.81962
G1 X84.381 Y123.692 E9.90314
G1 X85.166 Y121.305 E9.98672
G1 X85.897 Y118.859 E10.07163
G1 X86.527 Y116.501 E10.1528
G1 X87.12 Y114.006 E10.2381
G1 X87.628 Y111.56 E10.32119
G1 X88.077 Y109.052 E10.40593
G1 X88.448 Y106.566 E10.48953
G1 X88.751 Y104.069 E10.57319
G1 X88.982 Y101.559 E10.65703
G1 X89.137 Y99.101 E10.73894
G1 X89.23 Y96.486 E10.82598
G1 X89.25 Y94.65 E10.88704
G1 X89.251 Y68.143 E11.76867
G1 X89.279 Y66.46 E11.82466
G1 X89.339 Y65.107 E11.8697
G1 X89.446 Y63.696 E11.91677
G1 X89.515 Y62.948 E11.94175
G1 X89.724 Y61.257 E11.99842
G1 X89.878 Y60.233 E12.03286
G1 X90.145 Y58.776 E12.08213
G1 X90.342 Y57.838 E12.11401
G1 X90.556 Y56.93 E12.14504
G1 X90.833 Y55.854 E12.18199
G1 X91.25 Y54.448 E12.23077
G1 X91.536 Y53.574 E12.26135
G1 X92.07 Y52.121 E12.31284
G1 X92.467 Y51.136 E12.34816
G1 X92.793 Y50.393 E12.37515
G1 X93.162 Y49.622 E12.40358
G1 X93.607 Y48.732 E12.43667
G0 F4800 X93.959 Y48.923
G1 F960 X94.159 Y48.554 E12.45063
G1 X94.665 Y47.678 E12.48428
G1 X94.99 Y47.14 E12.50519
G1 X95.323 Y46.624 E12.52561
G1 X96.002 Y45.645 E12.56524
G1 X96.372 Y45.139 E12.58609
G1 X96.755 Y44.648 E12.6068
G1 X97.179 Y44.145 E12.62868
G1 X97.926 Y43.313 E12.66587
G1 X98.578 Y42.655 E12.69668
G1 X99.362 Y41.937 E12.73204
G1 X99.816 Y41.544 E12.75201
G1 X100.48 Y41.016 E12.78023
G1 X100.845 Y40.752 E12.79521
G1 X101.835 Y40.089 E12.83484
G1 X102.907 Y39.474 E12.87594
G1 X103.997 Y38.938 E12.91634
G1 X104.338 Y38.784 E12.92879
G1 X105.068 Y38.497 E12.95488
G1 X105.161 Y38.452 E12.95831
G1 X105.747 Y38.261 E12.97881
G1 X106.471 Y38.051 E13.00388
G1 X106.967 Y37.92 E13.02095
G1 X107.849 Y37.727 E13.05098
G1 X108.47 Y37.638 E13.07184
G1 X109.219 Y37.553 E13.09691
G1 X109.904 Y37.493 E13.11978
G1 X110.305 Y37.469 E13.13315
G1 X110.771 Y37.459 E13.14865
G1 X111.416 Y37.48 E13.17011
G1 X111.899 Y37.513 E13.18622
G1 X112.875 Y37.613 E13.21885
G1 X113.796 Y37.755 E13.24984
G1 X114.392 Y37.892 E13.27018
G1 X115.149 Y38.089 E13.2962
G1 X115.798 Y38.275 E13.31865
G1 X116.583 Y38.542 E13.34623
G1 X117.229 Y38.82 E13.36962
G1 X117.958 Y39.15 E13.39624
G1 X118.403 Y39.369 E13.41273
G1 X119.485 Y39.982 E13.4541
G1 X120.209 Y40.452 E13.4828
G1 X120.829 Y40.878 E13.50782
G1 X121.532 Y41.414 E13.53723
G1 X121.871 Y41.7 E13.55198
G1 X122.369 Y42.141 E13.5741
G1 X122.844 Y42.579 E13.59559
G1 X123.483 Y43.22 E13.6257
G1 X124.24 Y44.057 E13.66323
G1 X124.669 Y44.557 E13.68515
G1 X124.985 Y44.951 E13.70194
G1 X125.317 Y45.39 E13.72025
G1 X126.082 Y46.477 E13.76446
G1 X126.423 Y47.004 E13.78534
G1 X127.047 Y48.043 E13.82565
G1 X127.576 Y48.99 E13.86173
G1 X127.926 Y49.687 E13.88767
G1 X128.484 Y50.873 E13.93126
G1 X128.703 Y51.376 E13.94951
G1 X129.098 Y52.365 E13.98493
G1 X129.425 Y53.251 E14.01634
G1 X129.807 Y54.38 E14.05598
G1 X130.112 Y55.368 E14.09037
G1 X130.505 Y56.82 E14.14041
G1 X130.755 Y57.863 E14.17608
G1 X130.992 Y59.005 E14.21487
G1 X131.116 Y59.666 E14.23724
G1 X131.279 Y60.623 E14.26953
G1 X131.395 Y61.421 E14.29635
G1 X131.576 Y62.885 E14.34541
G1 X131.714 Y64.465 E14.39816
G1 X131.798 Y65.803 E14.44275
G1 X131.821 Y66.465 E14.46478
G1 X131.849 Y68.16 E14.52117
G1 X131.85 Y96.672 E15.46948
G1 X131.886 Y99.231 E15.5546
G1 X131.996 Y101.829 E15.64109
G1 X132.171 Y104.309 E15.72378
G1 X132.422 Y106.84 E15.80837
G1 X132.743 Y109.348 E15.89247
G1 X133.133 Y111.831 E15.97607
G1 X133.593 Y114.307 E16.05983
G1 X134.134 Y116.82 E16.14533
G1 X134.729 Y119.243 E16.22831
G1 X135.407 Y121.713 E16.3135
G1 X136.139 Y124.102 E16.39661
G1 X136.95 Y126.504 E16.48093
G1 X137.832 Y128.896 E16.56572
G1 X138.765 Y131.219 E16.64898
G1 X139.774 Y133.538 E16.7331
G1 X140.849 Y135.832 E16.81736
G1 X141.991 Y138.101 E16.90185
G1 X143.179 Y140.299 E16.98495
G1 X144.445 Y142.495 E17.06926
G1 X145.782 Y144.668 E17.15411
G1 X147.161 Y146.774 E17.23784
G1 X147.935 Y147.918 E17.28378
G1 X148.213 Y148.349 E17.30084
G1 X148.688 Y149.184 E17.33279
G1 X149.079 Y150.037 E17.364
G1 X149.392 Y150.921 E17.39519
G1 X149.627 Y151.83 E17.42642
G1 X149.779 Y152.756 E17.45763
G1 X149.849 Y153.693 E17.48888
G1 X149.836 Y154.631 E17.52008
G1 X149.745 Y155.529 E17.5501
G1 X149.528 Y156.62 E17.5871
G1 X149.316 Y157.329 E17.61171
G1 X149.136 Y157.892 E17.63137
G1 X148.881 Y158.591 E17.65612
G1 X148.592 Y159.304 E17.68171
G1 X148.224 Y160.142 E17.71215
G1 X147.803 Y161.034 E17.74496
G1 X147.313 Y162.014 E17.7814
G1 X146.772 Y163.029 E17.81965
G1 X146.191 Y164.07 E17.8593
G1 X145.507 Y165.214 E17.90364
G1 X145.019 Y165.994 E17.93424
G1 X144.551 Y166.705 E17.96255
G1 X143.739 Y167.885 E18.01019
G1 X142.621 Y169.375 E18.07215
G1 X142.079 Y170.051 E18.10097
G1 X140.993 Y171.298 E18.15596
G1 X140.324 Y172.023 E18.18878
G1 X139.919 Y172.436 E18.20802
G1 X139.194 Y173.136 E18.24153
G1 X138.507 Y173.753 E18.27225
G1 X137.545 Y174.552 E18.31384
G1 X134.585 Y176.874 E18.43897
G1 X132.63 Y178.504 E18.52363
G1 X131.156 Y179.796 E18.58882
G1 X130.194 Y180.55 E18.62947
G1 X129.234 Y181.162 E18.66734
G1 X128.398 Y181.588 E18.69855
G1 X127.527 Y181.939 E18.72978
G1 X126.629 Y182.211 E18.76099
G1 X125.745 Y182.396 E18.79103
G1 X124.778 Y182.511 E18.82341
G1 X123.876 Y182.538 E18.85343
G1 X122.63 Y182.448 E18.89498
G1 X121.899 Y182.351 E18.91951
G1 X119.321 Y182.043 E19.00586
G1 X116.809 Y181.815 E19.08975
G1 X114.29 Y181.658 E19.1737
G1 X111.767 Y181.573 E19.25766
G1 X109.211 Y181.559 E19.34267
G1 X106.715 Y181.615 E19.42571
G1 X104.162 Y181.746 E19.51074
G1 X101.666 Y181.943 E19.59401
G1 X99.118 Y182.219 E19.67926
G1 X97.089 Y182.482 E19.7473
G1 X96.124 Y182.538 E19.77945
G1 X95.186 Y182.508 E19.81067
G1 X94.255 Y182.396 E19.84186
G1 X93.337 Y182.202 E19.87306
G1 X92.439 Y181.927 E19.9043
G1 X91.569 Y181.574 E19.93553
G1 X90.738 Y181.147 E19.9666
G1 X90.158 Y180.792 E19.98922
G1 X89.376 Y180.238 E20.0211
G1 X88.937 Y179.878 E20.03998
G1 X87.638 Y178.74 E20.09742
G1 X85.703 Y177.106 E20.18165
G1 X83.719 Y175.526 E20.26601
G1 X82.574 Y174.647 E20.31402
G1 X81.887 Y174.089 E20.34346
G1 X80.985 Y173.291 E20.38351
G1 X80.379 Y172.722 E20.41116
G1 X79.812 Y172.163 E20.43764
G1 X79.549 Y171.89 E20.45025
G1 X78.866 Y171.131 E20.48421
G1 X78.279 Y170.461 E20.51384
G1 X77.435 Y169.457 E20.55747
G1 X76.847 Y168.688 E20.58966
G1 X76.047 Y167.583 E20.63504
G1 X75.485 Y166.764 E20.66807
G1 X74.766 Y165.66 E20.71189
G1 X74.077 Y164.522 E20.75614
G1 X73.54 Y163.597 E20.79171
G1 X72.984 Y162.577 E20.83035
G1 X72.354 Y161.359 E20.87596
G1 X71.698 Y159.969 E20.92708
G1 X71.502 Y159.527 E20.94316
G1 X71.167 Y158.711 E20.9725
G1 X70.958 Y158.161 E20.99207
G1 X70.667 Y157.295 E21.02246
G1 X70.416 Y156.39 E21.05369
G1 X70.246 Y155.467 E21.08491
G1 X70.158 Y154.533 E21.11611
G1 X70.153 Y153.594 E21.14734
G1 X70.227 Y152.694 E21.17738
G1 X70.392 Y151.734 E21.20978
G1 X70.624 Y150.861 E21.23982
G1 X70.959 Y149.939 E21.27245
G1 X71.547 Y148.742 E21.3168
G1 X71.865 Y148.218 E21.33719
G1 X72.152 Y147.794 E21.35422
G1 X73.26 Y146.25 E21.41743
G1 X74.694 Y144.158 E21.50179
G1 X76.053 Y142.05 E21.58521
G1 X77.379 Y139.86 E21.67036
G1 X78.623 Y137.667 E21.75421
G1 X79.801 Y135.448 E21.83777
G1 X80.922 Y133.185 E21.92177
G1 X81.983 Y130.881 E22.00614
G1 X82.971 Y128.56 E22.09004
G1 X83.9 Y126.201 E22.17436
G1 X84.757 Y123.828 E22.25828
G1 X85.546 Y121.43 E22.34224
G1 X86.28 Y118.973 E22.42753
G1 X86.916 Y116.594 E22.50943
G1 X87.512 Y114.087 E22.59514
G1 X88.02 Y111.641 E22.67823
G1 X88.471 Y109.122 E22.76335
G1 X88.844 Y106.625 E22.84732
G1 X89.148 Y104.117 E22.93135
G1 X89.38 Y101.596 E23.01555
G1 X89.537 Y99.115 E23.09823
G1 X89.63 Y96.5 E23.18526
G1 X89.65 Y94.654 E23.24666
G1 X89.651 Y68.15 E24.12819
G1 X89.679 Y66.478 E24.18381
G1 X89.738 Y65.137 E24.22845
G1 X89.844 Y63.733 E24.27528
G1 X89.912 Y62.997 E24.29987
G1 X90.12 Y61.316 E24.35621
G1 X90.274 Y60.292 E24.39065
G1 X90.536 Y58.858 E24.43913
G1 X90.731 Y57.93 E24.47067
G1 X90.943 Y57.03 E24.50142
G1 X91.217 Y55.968 E24.5379
G1 X91.63 Y54.573 E24.58629
G1 X91.912 Y53.712 E24.61643
G1 X92.441 Y52.27 E24.66751
G1 X92.833 Y51.297 E24.7024
G1 X93.154 Y50.566 E24.72896
G1 X93.523 Y49.795 E24.75738
G1 X93.959 Y48.923 E24.78981
G0 F4800 X94.311 Y49.114
G1 F960 X94.506 Y48.754 E24.80343
G1 X95.007 Y47.885 E24.83679
G1 X95.326 Y47.357 E24.85731
G1 X95.652 Y46.852 E24.8773
G1 X96.325 Y45.881 E24.9166
G1 X96.688 Y45.385 E24.93704
G1 X97.061 Y44.906 E24.95723
G1 X97.477 Y44.412 E24.97871
G1 X98.224 Y43.58 E25.0159
G1 X98.848 Y42.95 E25.04539
G1 X99.624 Y42.239 E25.0804
G1 X100.065 Y41.857 E25.0998
G1 X100.714 Y41.34 E25.1274
G1 X101.068 Y41.084 E25.14193
G1 X102.034 Y40.436 E25.18062
G1 X103.084 Y39.833 E25.22089
G1 X104.163 Y39.302 E25.26089
G1 X104.484 Y39.156 E25.27262
G1 X105.288 Y38.84 E25.30135
G1 X105.285 Y38.832 E25.30164
G1 X105.858 Y38.645 E25.32168
G1 X106.574 Y38.438 E25.34647
G1 X107.053 Y38.311 E25.36295
G1 X107.935 Y38.118 E25.39298
G1 X108.515 Y38.035 E25.41247
G1 X109.254 Y37.951 E25.43721
G1 X109.928 Y37.892 E25.45971
G1 X110.314 Y37.869 E25.47257
G1 X110.758 Y37.859 E25.48734
G1 X111.389 Y37.879 E25.50834
G1 X111.859 Y37.911 E25.52401
G1 X112.814 Y38.008 E25.55594
