;FLAVOR:Marlin
;TIME:4575
;Filament used: 2.44314m
;Layer height: 0.2
;MINX:68.811
;MINY:32.931
;MINZ:0.2
;MAXX:151.168
;MAXY:187.089
;MAXZ:8.4
;TARGET_MACHINE.NAME:Creality Ender-3 S1
;Generated with Cura_SteamEngine 5.11.0
; Ender 3 S1 Start G-code
; M413 S0 ; Disable power loss recovery
G92 E0 ; Reset Extruder

; Prep surfaces before auto home for better accuracy
M140 S55.0
M104 S208.0

G28 ; Home all axes
G1 Z10.0 F3000 ; Move Z Axis up little to prevent scratching of Heat Bed
G1 X0 Y0

M190 S55.0
M109 S208.0

G1 X0.1 Y20 Z0.3 F5000.0 ; Move to start position
G1 X0.1 Y200.0 Z0.3 F1500.0 E15 ; Draw the first line
G1 X0.4 Y200.0 Z0.3 F5000.0 ; Move to side a little
G1 X0.4 Y20 Z0.3 F1500.0 E30 ; Draw the second line
G92 E0 ; Reset Extruder
G1 Z2.0 F3000 ; Move Z Axis up little to prevent scratching of Heat Bed
G1 X5 Y20 Z0.3 F5000.0 ; Move over to prevent blob squish

M82 ;absolute extrusion mode
G92 E0
G92 E0
G1 F3000 E-0.8
;LAYER_COUNT:42
;LAYER:0
M107
G0 F4800 X84.014 Y45.696 Z0.2
;TYPE:SKIRT
G1 F3000 E0
G1 F960 X84.659 Y44.592 E0.04253
G1 X85.005 Y44.026 E0.06459
G1 X85.356 Y43.491 E0.08587
G1 X85.998 Y42.575 E0.12308
G1 X86.458 Y41.954 E0.14878
G1 X86.865 Y41.444 E0.17048
G1 X87.588 Y40.588 E0.20775
G1 X88.257 Y39.842 E0.24108
G1 X88.701 Y39.382 E0.26234
G1 X89.636 Y38.506 E0.30496
G1 X90.173 Y38.029 E0.32885
G1 X90.866 Y37.464 E0.35858
G1 X91.513 Y36.98 E0.38546
G1 X92.25 Y36.46 E0.41546
G1 X93.053 Y35.951 E0.44708
G1 X93.939 Y35.442 E0.48107
G1 X94.725 Y35.022 E0.51071
G1 X95.534 Y34.639 E0.54048
G1 X95.928 Y34.475 E0.55467
G1 X96.635 Y34.201 E0.57989
G1 X97.331 Y33.948 E0.60452
G1 X98.463 Y33.605 E0.64386
G1 X99.127 Y33.444 E0.66659
G1 X99.991 Y33.256 E0.696
G1 X101.267 Y33.063 E0.73892
G1 X102.067 Y32.989 E0.76564
G1 X102.894 Y32.934 E0.79321
G1 X104.116 Y32.931 E0.83385
G1 X105.359 Y33.006 E0.87527
G1 X105.838 Y33.048 E0.89126
G1 X107.036 Y33.226 E0.93154
G1 X108.199 Y33.475 E0.9711
G1 X109.03 Y33.683 E0.99959
G1 X109.91 Y33.962 E1.0303
G1 X110.839 Y34.306 E1.06325
G1 X111.635 Y34.627 E1.0918
G1 X112.275 Y34.928 E1.11532
G1 X113.107 Y35.353 E1.14639
G1 X113.899 Y35.798 E1.17661
G1 X114.719 Y36.312 E1.2088
G1 X115.869 Y37.114 E1.25543
G1 X116.283 Y37.423 E1.27261
G1 X117.002 Y38.009 E1.30346
G1 X117.838 Y38.758 E1.34079
G1 X118.617 Y39.501 E1.3766
G1 X118.941 Y39.838 E1.39215
G1 X119.439 Y40.389 E1.41685
G1 X120.097 Y41.147 E1.45023
G1 X120.521 Y41.675 E1.47276
G1 X121.424 Y42.883 E1.52292
G1 X121.768 Y43.376 E1.54291
G1 X122.106 Y43.891 E1.5634
G1 X122.588 Y44.672 E1.59393
G1 X123.17 Y45.669 E1.63233
G1 X123.384 Y46.061 E1.64718
G1 X123.846 Y46.978 E1.68133
G1 X124.367 Y48.074 E1.72169
G1 X124.676 Y48.786 E1.74751
G1 X125.08 Y49.812 E1.78418
G1 X125.531 Y51.037 E1.8276
G1 X125.7 Y51.553 E1.84566
G1 X126.063 Y52.745 E1.8871
G1 X126.55 Y54.633 E1.95195
G1 X126.718 Y55.38 E1.97742
G1 X127.021 Y57 E2.03224
G1 X127.231 Y58.379 E2.07863
G1 X127.37 Y59.579 E2.11881
G1 X127.433 Y60.22 E2.14023
G1 X127.511 Y61.208 E2.1732
G1 X127.557 Y62.163 E2.205
G1 X127.598 Y64.173 E2.27186
G1 X127.6 Y86.398 E3.01107
G1 X127.637 Y88.97 E3.09662
G1 X127.746 Y91.538 E3.18211
G1 X127.919 Y93.996 E3.26407
G1 X128.169 Y96.515 E3.34826
G1 X128.49 Y99.023 E3.43236
G1 X128.876 Y101.484 E3.51521
G1 X129.334 Y103.949 E3.5986
G1 X129.875 Y106.462 E3.6841
G1 X130.465 Y108.863 E3.76633
G1 X131.142 Y111.333 E3.85152
G1 X131.868 Y113.7 E3.93386
G1 X132.679 Y116.102 E4.01818
G1 X133.553 Y118.473 E4.10223
G1 X134.482 Y120.785 E4.1851
G1 X135.491 Y123.104 E4.26922
G1 X136.556 Y125.378 E4.35274
G1 X137.693 Y127.637 E4.43685
G1 X138.876 Y129.825 E4.51958
G1 X140.14 Y132.017 E4.60374
G1 X141.467 Y134.175 E4.688
G1 X142.841 Y136.275 E4.77147
G1 X144.279 Y138.339 E4.85513
G1 X145.778 Y140.368 E4.93904
G1 X148.198 Y143.438 E5.06906
G1 X148.547 Y143.931 E5.08915
G1 X149.054 Y144.744 E5.12101
G1 X149.301 Y145.209 E5.13853
G1 X149.719 Y146.15 E5.17277
G1 X150.012 Y147.004 E5.2028
G1 X150.308 Y148.26 E5.24572
G1 X150.59 Y149.939 E5.30235
G1 X150.974 Y152.019 E5.3727
G1 X151.102 Y152.896 E5.40218
G1 X151.159 Y153.782 E5.43171
G1 X151.168 Y154.595 E5.45875
G1 X151.128 Y155.452 E5.48728
G1 X150.988 Y156.485 E5.52195
G1 X150.772 Y157.434 E5.55433
G1 X150.473 Y158.36 E5.58669
G1 X150.122 Y159.193 E5.61675
G1 X149.484 Y160.424 E5.66287
G1 X148.91 Y161.471 E5.70258
G1 X148.44 Y162.352 E5.73579
G1 X148.153 Y162.843 E5.75471
G1 X147.604 Y163.646 E5.78706
G1 X147.032 Y164.345 E5.8171
G1 X146.558 Y164.845 E5.84002
G1 X145.832 Y165.505 E5.87265
G1 X144.925 Y166.184 E5.91034
G1 X144.046 Y166.775 E5.94557
G1 X141.916 Y168.26 E6.03193
G1 X139.922 Y169.738 E6.11448
G1 X137.915 Y171.312 E6.19931
G1 X135.988 Y172.912 E6.28262
G1 X134.101 Y174.575 E6.36628
G1 X132.254 Y176.297 E6.45027
G1 X130.454 Y178.071 E6.53432
G1 X128.681 Y179.923 E6.6196
G1 X127.126 Y181.629 E6.69637
G1 X126.441 Y182.322 E6.72878
G1 X125.753 Y182.907 E6.75882
G1 X124.902 Y183.511 E6.79353
G1 X124.122 Y183.966 E6.82356
G1 X123.071 Y184.452 E6.86208
G1 X122.048 Y184.819 E6.89822
G1 X121.08 Y185.068 E6.93147
G1 X120.499 Y185.172 E6.9511
G1 X118.006 Y185.527 E7.03485
G1 X115.542 Y185.943 E7.11797
G1 X113.034 Y186.443 E7.20302
G1 X111.157 Y186.857 E7.26695
G1 X110.2 Y187.006 E7.29917
G1 X109.775 Y187.049 E7.31337
G1 X108.79 Y187.089 E7.34616
G1 X107.888 Y187.049 E7.37619
G1 X106.408 Y186.82 E7.426
G1 X105.804 Y186.667 E7.44673
G1 X105.113 Y186.457 E7.47075
G1 X104.665 Y186.304 E7.48649
G1 X103.833 Y185.983 E7.51615
G1 X102.714 Y185.496 E7.55674
G1 X100.275 Y184.476 E7.64467
G1 X97.969 Y183.587 E7.72687
G1 X95.572 Y182.741 E7.81142
G1 X94.04 Y182.234 E7.86509
G1 X93.963 Y182.198 E7.86792
G1 X93.664 Y182.095 E7.87844
G1 X92.773 Y181.703 E7.91081
G1 X91.925 Y181.237 E7.94299
G1 X91.25 Y180.791 E7.9699
G1 X90.791 Y180.452 E7.98888
G1 X90.23 Y180.001 E8.01282
G1 X89.472 Y179.29 E8.04739
G1 X89.051 Y178.846 E8.06774
G1 X88.437 Y178.171 E8.09809
G1 X87.377 Y176.97 E8.15137
G1 X85.668 Y175.142 E8.2346
G1 X84.68 Y174.15 E8.28117
G1 X83.072 Y172.503 E8.35772
G1 X82.513 Y171.915 E8.38471
G1 X80.717 Y170.123 E8.46909
G1 X78.88 Y168.393 E8.55302
G1 X77.023 Y166.74 E8.63571
G1 X75.092 Y165.117 E8.71961
G1 X74.42 Y164.585 E8.74812
G1 X73.505 Y163.839 E8.78738
G1 X72.761 Y163.171 E8.82064
G1 X72 Y162.343 E8.85804
G1 X71.474 Y161.686 E8.88603
G1 X70.915 Y160.889 E8.91841
G1 X70.425 Y160.038 E8.95107
G1 X69.942 Y158.974 E8.98994
G1 X69.639 Y158.176 E9.01833
G1 X69.335 Y157.185 E9.0528
G1 X69.102 Y156.233 E9.0854
G1 X68.932 Y155.267 E9.11803
G1 X68.856 Y154.565 E9.14151
G1 X68.811 Y153.521 E9.17627
G1 X68.851 Y152.619 E9.2063
G1 X68.991 Y151.583 E9.24107
G1 X69.211 Y150.623 E9.27383
G1 X69.611 Y149.442 E9.3153
G1 X70.02 Y148.439 E9.35132
G1 X70.356 Y147.647 E9.37994
G1 X71.273 Y145.304 E9.46362
G1 X72.13 Y142.921 E9.54785
G1 X72.902 Y140.557 E9.63056
G1 X73.8 Y137.496 E9.73666
G1 X74.017 Y136.801 E9.76088
G1 X74.942 Y134.179 E9.85336
G1 X75.712 Y131.781 E9.93713
G1 X76.414 Y129.366 E10.02077
G1 X77.04 Y126.954 E10.10365
G1 X77.612 Y124.461 E10.18873
G1 X78.104 Y122.01 E10.27187
G1 X78.532 Y119.508 E10.3563
G1 X78.879 Y117.06 E10.43853
G1 X79.161 Y114.568 E10.52195
G1 X79.379 Y112.02 E10.607
G1 X79.517 Y109.575 E10.68845
G1 X79.6 Y105.63 E10.81969
G1 X79.601 Y63.882 E12.20824
G1 X79.618 Y62.888 E12.2413
G1 X79.676 Y61.49 E12.28784
G1 X79.802 Y59.843 E12.34278
G1 X79.904 Y58.883 E12.37489
G1 X80.12 Y57.347 E12.42648
G1 X80.369 Y55.945 E12.47384
G1 X80.628 Y54.734 E12.51503
G1 X80.853 Y53.795 E12.54715
G1 X81.425 Y51.794 E12.61636
G1 X81.685 Y50.992 E12.64441
G1 X81.977 Y50.174 E12.67329
G1 X82.352 Y49.22 E12.70739
G1 X82.759 Y48.237 E12.74277
G1 X83.14 Y47.419 E12.77279
G1 X83.746 Y46.197 E12.81815
G1 X84.014 Y45.696 E12.83705
G0 F4800 X84.36 Y45.898
G1 F960 X85 Y44.801 E12.87929
G1 X85.34 Y44.245 E12.90097
G1 X85.684 Y43.72 E12.92185
G1 X86.319 Y42.813 E12.95867
G1 X86.771 Y42.203 E12.98392
G1 X87.17 Y41.702 E13.00523
G1 X87.886 Y40.855 E13.04211
G1 X88.545 Y40.12 E13.07495
G1 X88.979 Y39.67 E13.09574
G1 X89.287 Y39.373 E13.10997
G1 X89.902 Y38.805 E13.13782
G1 X90.426 Y38.339 E13.16114
G1 X91.106 Y37.784 E13.19033
G1 X91.744 Y37.307 E13.21683
G1 X92.464 Y36.798 E13.24616
G1 X93.252 Y36.298 E13.2772
G1 X94.128 Y35.795 E13.31079
G1 X94.914 Y35.375 E13.34043
G1 X95.688 Y35.008 E13.36892
G1 X96.073 Y34.848 E13.38279
G1 X96.772 Y34.577 E13.40773
G1 X97.447 Y34.331 E13.43162
G1 X98.557 Y33.994 E13.4702
G1 X99.212 Y33.835 E13.49262
G1 X100.076 Y33.647 E13.52203
G1 X101.304 Y33.461 E13.56334
G1 X102.094 Y33.388 E13.58973
G1 X102.895 Y33.334 E13.61643
G1 X104.117 Y33.331 E13.65707
G1 X105.324 Y33.404 E13.69729
G1 X105.779 Y33.444 E13.71248
G1 X106.977 Y33.622 E13.75277
G1 X108.102 Y33.863 E13.79103
G1 X108.909 Y34.064 E13.81869
G1 X109.771 Y34.337 E13.84877
G1 X110.69 Y34.677 E13.88136
G1 X111.465 Y34.989 E13.90915
G1 X112.093 Y35.284 E13.93222
G1 X112.911 Y35.702 E13.96278
G1 X113.687 Y36.137 E13.99236
G1 X114.49 Y36.64 E14.02388
G1 X115.63 Y37.435 E14.07011
G1 X116.03 Y37.733 E14.0867
G1 X116.735 Y38.307 E14.11693
G1 X117.562 Y39.048 E14.15387
G1 X118.329 Y39.779 E14.18911
G1 X118.644 Y40.106 E14.20421
G1 X119.137 Y40.651 E14.22865
G1 X119.785 Y41.397 E14.26152
G1 X120.201 Y41.915 E14.28361
G1 X121.096 Y43.112 E14.33332
G1 X121.434 Y43.595 E14.35293
G1 X121.766 Y44.101 E14.37306
G1 X122.243 Y44.874 E14.40327
G1 X122.819 Y45.861 E14.44128
G1 X123.027 Y46.241 E14.45569
G1 X123.485 Y47.15 E14.48954
G1 X124 Y48.234 E14.52946
G1 X124.304 Y48.933 E14.55481
G1 X124.705 Y49.95 E14.59117
G1 X125.151 Y51.161 E14.63409
G1 X125.317 Y51.67 E14.6519
G1 X125.68 Y52.862 E14.69334
G1 X126.16 Y54.721 E14.7572
G1 X126.325 Y55.454 E14.78219
G1 X126.626 Y57.06 E14.83654
G1 X126.834 Y58.425 E14.88246
G1 X126.972 Y59.618 E14.92241
G1 X127.034 Y60.251 E14.94356
G1 X127.111 Y61.227 E14.97612
G1 X127.157 Y62.171 E15.00756
G1 X127.198 Y64.173 E15.07416
G1 X127.2 Y86.398 E15.81337
G1 X127.237 Y88.987 E15.89949
G1 X127.346 Y91.555 E15.98497
G1 X127.521 Y94.035 E16.06766
G1 X127.772 Y96.566 E16.15226
G1 X128.093 Y99.074 E16.23636
G1 X128.483 Y101.557 E16.31995
G1 X128.943 Y104.033 E16.40371
G1 X129.484 Y106.546 E16.48921
G1 X130.079 Y108.969 E16.5722
G1 X130.757 Y111.439 E16.65739
G1 X131.489 Y113.828 E16.74049
G1 X132.3 Y116.23 E16.82481
G1 X133.182 Y118.622 E16.90961
G1 X134.115 Y120.945 E16.99287
G1 X135.124 Y123.264 E17.07698
G1 X136.199 Y125.558 E17.16125
G1 X137.341 Y127.827 E17.24573
G1 X138.529 Y130.025 E17.32883
G1 X139.795 Y132.221 E17.41314
G1 X141.132 Y134.394 E17.498
G1 X142.513 Y136.504 E17.58187
G1 X143.957 Y138.577 E17.6659
G1 X145.456 Y140.606 E17.7498
G1 X147.872 Y143.67 E17.87958
G1 X148.208 Y144.143 E17.89888
G1 X148.701 Y144.932 E17.92982
G1 X148.948 Y145.397 E17.94734
G1 X149.341 Y146.28 E17.97948
G1 X149.634 Y147.134 E18.00951
G1 X149.914 Y148.326 E18.05024
G1 X150.197 Y150.012 E18.1071
G1 X150.578 Y152.077 E18.17694
G1 X150.706 Y152.954 E18.20642
G1 X150.759 Y153.787 E18.23418
G1 X150.768 Y154.576 E18.26042
G1 X150.728 Y155.433 E18.28896
G1 X150.598 Y156.397 E18.32131
G1 X150.391 Y157.312 E18.35251
G1 X150.104 Y158.205 E18.38371
G1 X149.753 Y159.038 E18.41378
G1 X149.133 Y160.232 E18.45852
G1 X148.559 Y161.279 E18.49824
G1 X148.094 Y162.151 E18.53111
G1 X147.822 Y162.618 E18.54908
G1 X147.294 Y163.393 E18.58027
G1 X146.722 Y164.092 E18.61031
G1 X146.288 Y164.55 E18.6313
G1 X145.592 Y165.185 E18.66263
G1 X144.702 Y165.852 E18.69963
G1 X143.823 Y166.443 E18.73486
G1 X141.687 Y167.932 E18.82146
G1 X139.675 Y169.423 E18.90475
G1 X137.659 Y171.004 E18.98996
G1 X135.732 Y172.605 E19.07329
G1 X133.828 Y174.282 E19.15768
G1 X131.981 Y176.004 E19.24167
G1 X130.173 Y177.786 E19.3261
G1 X128.392 Y179.646 E19.41175
G1 X126.841 Y181.348 E19.48834
G1 X126.182 Y182.017 E19.51957
G1 X125.494 Y182.602 E19.54961
G1 X124.7 Y183.165 E19.58198
G1 X123.92 Y183.62 E19.61202
G1 X122.936 Y184.075 E19.64807
G1 X121.913 Y184.442 E19.68422
G1 X121.009 Y184.674 E19.71526
G1 X120.443 Y184.776 E19.73439
G1 X117.95 Y185.131 E19.81815
G1 X115.469 Y185.55 E19.90183
G1 X112.948 Y186.052 E19.98733
G1 X111.071 Y186.466 E20.05126
G1 X110.159 Y186.608 E20.08196
G1 X109.758 Y186.649 E20.09536
G1 X108.808 Y186.689 E20.12699
G1 X107.906 Y186.649 E20.15702
G1 X106.506 Y186.432 E20.20414
G1 X105.92 Y186.284 E20.22424
G1 X105.242 Y186.078 E20.24781
G1 X104.809 Y185.931 E20.26302
G1 X103.993 Y185.616 E20.29211
G1 X102.874 Y185.129 E20.3327
G1 X100.429 Y184.107 E20.42084
G1 X98.113 Y183.214 E20.5034
G1 X95.698 Y182.361 E20.58858
G1 X94.166 Y181.854 E20.64226
G1 X94.13 Y181.832 E20.64366
G1 X93.825 Y181.729 E20.65437
G1 X92.965 Y181.352 E20.6856
G1 X92.145 Y180.903 E20.71669
G1 X91.487 Y180.469 E20.74291
G1 X91.041 Y180.14 E20.76134
G1 X90.504 Y179.709 E20.78425
G1 X89.746 Y178.998 E20.81881
G1 X89.347 Y178.577 E20.8381
G1 X88.737 Y177.906 E20.86827
G1 X87.677 Y176.705 E20.92154
G1 X85.96 Y174.869 E21.00515
G1 X84.966 Y173.871 E21.052
G1 X83.362 Y172.227 E21.12839
G1 X82.803 Y171.639 E21.15538
G1 X81 Y169.84 E21.24009
G1 X79.146 Y168.094 E21.3248
G1 X77.289 Y166.441 E21.40749
G1 X75.34 Y164.803 E21.49216
G1 X74.673 Y164.275 E21.52046
G1 X73.772 Y163.541 E21.55911
G1 X73.056 Y162.9 E21.59107
G1 X72.295 Y162.072 E21.62848
G1 X71.801 Y161.456 E21.65474
G1 X71.261 Y160.689 E21.68594
G1 X70.789 Y159.873 E21.71729
G1 X70.316 Y158.832 E21.75532
G1 X70.013 Y158.034 E21.78371
G1 X69.724 Y157.09 E21.81655
G1 X69.491 Y156.138 E21.84915
G1 X69.33 Y155.223 E21.88005
G1 X69.256 Y154.547 E21.90267
G1 X69.211 Y153.539 E21.93623
G1 X69.251 Y152.637 E21.96626
G1 X69.381 Y151.672 E21.99864
G1 X69.59 Y150.751 E22.03005
G1 X69.99 Y149.57 E22.07153
G1 X70.388 Y148.595 E22.10655
G1 X70.724 Y147.803 E22.13517
G1 X71.645 Y145.45 E22.21921
G1 X72.506 Y143.056 E22.30383
G1 X73.286 Y140.67 E22.38732
G1 X74.182 Y137.615 E22.49321
G1 X74.394 Y136.934 E22.51693
G1 X75.323 Y134.301 E22.6098
G1 X76.093 Y131.903 E22.69356
G1 X76.798 Y129.478 E22.77756
G1 X77.427 Y127.055 E22.86082
G1 X78.002 Y124.55 E22.9463
G1 X78.496 Y122.089 E23.02979
G1 X78.926 Y119.575 E23.11462
G1 X79.275 Y117.116 E23.19723
G1 X79.56 Y114.602 E23.28138
G1 X79.777 Y112.054 E23.36643
G1 X79.917 Y109.583 E23.44875
G1 X80 Y105.638 E23.57999
G1 X80.001 Y63.889 E24.96857
G1 X80.018 Y62.904 E25.00133
G1 X80.075 Y61.52 E25.0474
G1 X80.2 Y59.885 E25.10194
G1 X80.3 Y58.939 E25.13358
G1 X80.514 Y57.417 E25.1847
G1 X80.76 Y56.029 E25.23159
G1 X81.017 Y54.827 E25.27247
G1 X81.238 Y53.905 E25.304
G1 X81.806 Y51.917 E25.37277
G1 X82.062 Y51.126 E25.40042
G1 X82.349 Y50.32 E25.42888
G1 X82.721 Y49.373 E25.46272
G1 X83.122 Y48.406 E25.49754
G1 X83.498 Y47.597 E25.52721
G1 X84.098 Y46.386 E25.57216
G1 X84.36 Y45.898 E25.59058
G0 F4800 X84.706 Y46.099
G1 F960 X85.341 Y45.01 E25.63251
G1 X85.675 Y44.464 E25.6538
G1 X86.012 Y43.949 E25.67427
G1 X86.64 Y43.051 E25.71072
G1 X87.084 Y42.452 E25.73551
G1 X87.475 Y41.96 E25.75642
G1 X88.184 Y41.122 E25.79293
G1 X88.833 Y40.398 E25.82526
G1 X89.257 Y39.958 E25.84559
G1 X89.558 Y39.667 E25.85951
G1 X90.168 Y39.104 E25.88712
G1 X90.679 Y38.649 E25.90988
G1 X91.359 Y38.094 E25.93907
G1 X91.975 Y37.634 E25.96464
G1 X92.679 Y37.136 E25.99332
G1 X93.451 Y36.645 E26.02376
G1 X94.317 Y36.148 E26.05696
G1 X95.086 Y35.736 E26.08598
G1 X95.842 Y35.377 E26.11382
G1 X96.217 Y35.221 E26.12733
G1 X96.909 Y34.953 E26.15201
G1 X97.563 Y34.714 E26.17517
G1 X98.652 Y34.383 E26.21302
G1 X99.297 Y34.226 E26.2351
G1 X100.161 Y34.038 E26.26451
G1 X101.341 Y33.859 E26.30421
G1 X102.121 Y33.787 E26.33026
G1 X102.896 Y33.734 E26.3561
G1 X104.118 Y33.731 E26.39674
G1 X105.289 Y33.802 E26.43576
G1 X105.72 Y33.84 E26.45015
G1 X106.918 Y34.018 E26.49043
G1 X108.006 Y34.251 E26.52744
G1 X108.788 Y34.445 E26.55424
G1 X109.632 Y34.712 E26.58368
G1 X110.541 Y35.048 E26.61592
G1 X111.295 Y35.351 E26.64294
G1 X111.911 Y35.64 E26.66557
G1 X112.716 Y36.051 E26.69564
G1 X113.475 Y36.476 E26.72457
G1 X114.261 Y36.968 E26.75541
G1 X115.391 Y37.756 E26.80123
G1 X115.791 Y38.054 E26.81782
G1 X116.468 Y38.605 E26.84685
G1 X117.286 Y39.337 E26.88336
G1 X118.041 Y40.057 E26.91806
G1 X118.347 Y40.374 E26.93272
G1 X118.835 Y40.913 E26.9569
