;FLAVOR:Marlin
;TIME:3360
;Filament used: 1.7412m
;Layer height: 0.2
;MINX:69.828
;MINY:35.844
;MINZ:0.2
;MAXX:150.121
;MAXY:184.163
;MAXZ:8.4
;TARGET_MACHINE.NAME:Creality Ender-3 S1
;Generated with Cura_SteamEngine 5.11.0
; Ender 3 S1 Start G-code
; M413 S0 ; Disable power loss recovery
G92 E0 ; Reset Extruder

; Prep surfaces before auto home for better accuracy
M140 S55.0
M104 S208.0

G28 ; Home all axes
G1 Z10.0 F3000 ; Move Z Axis up little to prevent scratching of Heat Bed
G1 X0 Y0

M190 S55.0
M109 S208.0

G1 X0.1 Y20 Z0.3 F5000.0 ; Move to start position
G1 X0.1 Y200.0 Z0.3 F1500.0 E15 ; Draw the first line
G1 X0.4 Y200.0 Z0.3 F5000.0 ; Move to side a little
G1 X0.4 Y20 Z0.3 F1500.0 E30 ; Draw the second line
G92 E0 ; Reset Extruder
G1 Z2.0 F3000 ; Move Z Axis up little to prevent scratching of Heat Bed
G1 X5 Y20 Z0.3 F5000.0 ; Move over to prevent blob squish

M82 ;absolute extrusion mode
G92 E0
G92 E0
G1 F3000 E-0.8
;LAYER_COUNT:42
;LAYER:0
M107
G0 F4800 X92.711 Y47.19 Z0.2
;TYPE:SKIRT
G1 F3000 E0
G1 F960 X93.147 Y46.385 E0.03045
G1 X93.566 Y45.656 E0.05842
G1 X93.892 Y45.128 E0.07905
G1 X94.35 Y44.432 E0.10677
G1 X94.992 Y43.517 E0.14394
G1 X95.565 Y42.783 E0.17491
G1 X96.355 Y41.861 E0.2153
G1 X96.96 Y41.221 E0.24459
G1 X97.514 Y40.685 E0.27023
G1 X98.144 Y40.105 E0.29871
G1 X98.838 Y39.528 E0.32873
G1 X99.671 Y38.92 E0.36303
G1 X100.602 Y38.295 E0.40032
G1 X101.246 Y37.925 E0.42503
G1 X101.808 Y37.632 E0.44611
G1 X102.549 Y37.277 E0.47344
G1 X103.468 Y36.888 E0.50663
G1 X103.99 Y36.71 E0.52497
G1 X104.876 Y36.439 E0.55579
G1 X105.277 Y36.326 E0.56964
G1 X105.971 Y36.157 E0.5934
G1 X106.807 Y36.015 E0.6216
G1 X107.32 Y35.951 E0.6388
G1 X108.495 Y35.852 E0.67802
G1 X108.761 Y35.88 E0.68691
G1 X108.927 Y35.944 E0.69283
G1 X109.137 Y36.107 E0.70167
G1 X109.327 Y35.952 E0.70983
G1 X109.694 Y35.844 E0.72255
G1 X110.228 Y35.879 E0.74035
G1 X111.375 Y35.998 E0.77871
G1 X112.372 Y36.161 E0.81231
G1 X112.867 Y36.277 E0.82922
G1 X113.468 Y36.44 E0.84993
G1 X114.29 Y36.691 E0.87851
G1 X115.14 Y36.995 E0.90854
G1 X115.74 Y37.26 E0.93035
G1 X116.27 Y37.512 E0.94987
G1 X116.951 Y37.857 E0.97526
G1 X118.024 Y38.485 E1.01662
G1 X118.561 Y38.848 E1.03817
G1 X119.415 Y39.469 E1.07329
G1 X119.987 Y39.929 E1.09771
G1 X120.794 Y40.66 E1.13392
G1 X121.284 Y41.133 E1.15657
G1 X121.918 Y41.799 E1.18716
G1 X122.635 Y42.629 E1.22364
G1 X123.208 Y43.342 E1.25406
G1 X123.76 Y44.105 E1.28538
G1 X124.373 Y45.025 E1.32215
G1 X124.702 Y45.557 E1.34296
G1 X125.268 Y46.542 E1.38074
G1 X125.781 Y47.509 E1.41715
G1 X126.17 Y48.327 E1.44728
G1 X126.606 Y49.307 E1.48295
G1 X126.861 Y49.921 E1.50507
G1 X127.201 Y50.821 E1.53706
G1 X127.497 Y51.661 E1.56669
G1 X127.943 Y53.062 E1.61559
G1 X128.215 Y54.025 E1.64887
G1 X128.48 Y55.068 E1.68466
G1 X128.714 Y56.096 E1.71973
G1 X128.913 Y57.088 E1.75338
G1 X129.031 Y57.743 E1.77552
G1 X129.206 Y58.814 E1.81161
G1 X129.373 Y60.095 E1.85458
G1 X129.498 Y61.244 E1.89302
G1 X129.591 Y62.438 E1.93285
G1 X129.663 Y63.667 E1.9738
G1 X129.715 Y65.625 E2.03895
G1 X129.715 Y80.304 E2.52717
G1 X129.752 Y82.876 E2.61272
G1 X129.861 Y85.444 E2.69821
G1 X130.034 Y87.901 E2.78014
G1 X130.284 Y90.418 E2.86426
G1 X130.605 Y92.929 E2.94846
G1 X130.991 Y95.39 E3.03131
G1 X131.449 Y97.855 E3.1147
G1 X131.99 Y100.368 E3.2002
G1 X132.58 Y102.769 E3.28243
G1 X133.257 Y105.239 E3.36762
G1 X133.983 Y107.606 E3.44996
G1 X134.794 Y110.008 E3.53428
G1 X135.668 Y112.379 E3.61833
G1 X136.597 Y114.691 E3.7012
G1 X137.606 Y117.01 E3.78532
G1 X138.671 Y119.284 E3.86884
G1 X139.808 Y121.543 E3.95295
G1 X140.991 Y123.731 E4.03568
G1 X142.251 Y125.917 E4.1196
G1 X143.582 Y128.081 E4.2041
G1 X144.962 Y130.191 E4.28796
G1 X146.401 Y132.258 E4.37172
G1 X147.945 Y134.357 E4.45839
G1 X148.491 Y135.162 E4.49074
G1 X148.965 Y136.014 E4.52317
G1 X149.361 Y136.904 E4.55557
G1 X149.676 Y137.825 E4.58794
G1 X149.909 Y138.77 E4.62032
G1 X150.058 Y139.733 E4.65273
G1 X150.121 Y140.707 E4.68519
G1 X150.097 Y141.689 E4.71786
G1 X149.968 Y142.827 E4.75595
G1 X149.766 Y143.779 E4.78832
G1 X149.48 Y144.709 E4.82068
G1 X149.113 Y145.612 E4.8531
G1 X148.669 Y146.477 E4.88544
G1 X148.169 Y147.273 E4.91671
G1 X147.558 Y148.075 E4.95024
G1 X146.901 Y148.794 E4.98264
G1 X146.183 Y149.453 E5.01505
G1 X145.422 Y150.038 E5.04698
G1 X144.952 Y150.349 E5.06572
G1 X144.401 Y150.674 E5.087
G1 X143.794 Y150.993 E5.1098
G1 X141.765 Y151.959 E5.18455
G1 X139.53 Y153.091 E5.26787
G1 X137.302 Y154.3 E5.35219
G1 X135.112 Y155.57 E5.43639
G1 X132.992 Y156.88 E5.51927
G1 X130.857 Y158.285 E5.60428
G1 X128.814 Y159.714 E5.6872
G1 X126.807 Y161.204 E5.77034
G1 X125.989 Y161.853 E5.80507
G1 X124.773 Y162.796 E5.85625
G1 X124.169 Y163.238 E5.88115
G1 X122.386 Y164.451 E5.95287
G1 X121.899 Y164.768 E5.9722
G1 X121.364 Y165.095 E5.99305
G1 X120.227 Y165.745 E6.03661
G1 X118.246 Y166.815 E6.1115
G1 X115.665 Y168.13 E6.20784
G1 X113.462 Y169.334 E6.29134
G1 X111.272 Y170.611 E6.37566
G1 X109.139 Y171.938 E6.45921
G1 X107.036 Y173.33 E6.5431
G1 X104.989 Y174.769 E6.62632
G1 X102.961 Y176.282 E6.71047
G1 X100.977 Y177.853 E6.79464
G1 X98.859 Y179.618 E6.88634
G1 X97.94 Y180.337 E6.92515
G1 X97.26 Y180.823 E6.95295
G1 X96.432 Y181.349 E6.98558
G1 X95.904 Y181.669 E7.00611
G1 X95.403 Y181.943 E7.02511
G1 X94.764 Y182.271 E7.04899
G1 X94.322 Y182.477 E7.06521
G1 X93.252 Y182.924 E7.10378
G1 X92.76 Y183.102 E7.12119
G1 X91.885 Y183.387 E7.15179
G1 X91.392 Y183.526 E7.16883
G1 X90.576 Y183.726 E7.19677
G1 X89.853 Y183.868 E7.22128
G1 X89.193 Y183.964 E7.24346
G1 X88.252 Y184.073 E7.27497
G1 X87.635 Y184.13 E7.29558
G1 X86.711 Y184.163 E7.32633
G1 X86.061 Y184.159 E7.34795
G1 X85.532 Y184.143 E7.36555
G1 X84.886 Y184.097 E7.38709
G1 X84.043 Y184.011 E7.41528
G1 X83.527 Y183.946 E7.43257
G1 X82.752 Y183.818 E7.4587
G1 X80.331 Y183.336 E7.5408
G1 X79.103 Y182.999 E7.58316
G1 X78.737 Y182.873 E7.59603
G1 X77.844 Y182.521 E7.62796
G1 X77.325 Y182.273 E7.64709
G1 X76.906 Y182.059 E7.66274
G1 X76.095 Y181.596 E7.6938
G1 X75.485 Y181.184 E7.71828
G1 X74.944 Y180.783 E7.74068
G1 X74.191 Y180.148 E7.77344
G1 X73.759 Y179.728 E7.79348
G1 X73.273 Y179.214 E7.81701
G1 X72.609 Y178.41 E7.85169
G1 X71.834 Y177.232 E7.89859
G1 X71.517 Y176.655 E7.92048
G1 X71.084 Y175.726 E7.95457
G1 X70.764 Y174.844 E7.98578
G1 X70.507 Y173.882 E8.0189
G1 X70.4 Y173.322 E8.03786
G1 X69.969 Y170.56 E8.13084
G1 X69.857 Y169.598 E8.16305
G1 X69.828 Y168.765 E8.19077
G1 X69.86 Y167.792 E8.22315
G1 X69.977 Y166.824 E8.25558
G1 X70.181 Y165.865 E8.28819
G1 X70.517 Y164.796 E8.32546
G1 X71.006 Y163.499 E8.37156
G1 X71.886 Y161.051 E8.45809
G1 X72.665 Y158.679 E8.54113
G1 X73.388 Y156.252 E8.62535
G1 X74.031 Y153.841 E8.70835
G1 X74.603 Y151.421 E8.79105
G1 X75.122 Y148.92 E8.87601
G1 X75.562 Y146.439 E8.95982
G1 X75.938 Y143.914 E9.04472
G1 X76.232 Y141.467 E9.1267
G1 X76.462 Y138.956 E9.21056
G1 X76.657 Y135.819 E9.3151
G1 X76.77 Y134.851 E9.34751
G1 X76.971 Y133.898 E9.37991
G1 X77.243 Y132.999 E9.41115
G1 X77.527 Y132.273 E9.43708
G1 X77.858 Y131.569 E9.46295
G1 X79.082 Y129.224 E9.55093
G1 X80.197 Y126.933 E9.63568
G1 X81.225 Y124.655 E9.7188
G1 X82.204 Y122.318 E9.80307
G1 X83.104 Y119.986 E9.88621
G1 X83.934 Y117.635 E9.96914
G1 X84.711 Y115.22 E10.05351
G1 X85.416 Y112.801 E10.13732
G1 X86.052 Y110.358 E10.22128
G1 X86.621 Y107.89 E10.30552
G1 X87.111 Y105.455 E10.38813
G1 X87.541 Y102.949 E10.4727
G1 X87.894 Y100.464 E10.55618
G1 X88.177 Y97.983 E10.63924
G1 X88.395 Y95.448 E10.72386
G1 X88.534 Y92.988 E10.80581
G1 X88.608 Y90.397 E10.89202
G1 X88.618 Y89.067 E10.93626
G1 X88.62 Y65.86 E11.70813
G1 X88.64 Y64.438 E11.75543
G1 X88.709 Y62.833 E11.80886
G1 X88.773 Y61.974 E11.83751
G1 X88.893 Y60.647 E11.88183
G1 X89.044 Y59.407 E11.92337
G1 X89.199 Y58.34 E11.95924
G1 X89.419 Y57.089 E12.00148
G1 X89.625 Y56.052 E12.03665
G1 X89.922 Y54.772 E12.08035
G1 X90.157 Y53.864 E12.11155
G1 X90.398 Y53.023 E12.14064
G1 X90.692 Y52.08 E12.1735
G1 X91.305 Y50.349 E12.23457
G1 X91.573 Y49.683 E12.25845
G1 X92.095 Y48.478 E12.30213
G1 X92.501 Y47.608 E12.33406
G1 X92.711 Y47.19 E12.34962
G0 F4800 X93.063 Y47.38
G1 F960 X93.494 Y46.584 E12.37973
G1 X93.906 Y45.866 E12.40726
G1 X94.226 Y45.348 E12.42751
G1 X94.678 Y44.661 E12.45486
G1 X95.307 Y43.763 E12.49133
G1 X95.869 Y43.043 E12.52171
G1 X96.646 Y42.136 E12.56143
G1 X97.251 Y41.496 E12.59072
G1 X97.785 Y40.979 E12.61544
G1 X98.4 Y40.413 E12.64324
G1 X99.094 Y39.836 E12.67326
G1 X99.894 Y39.252 E12.7062
G1 X100.802 Y38.642 E12.74259
G1 X101.431 Y38.28 E12.76672
G1 X101.981 Y37.993 E12.78736
G1 X102.722 Y37.638 E12.81469
G1 X103.597 Y37.267 E12.8463
G1 X104.119 Y37.089 E12.86464
G1 X104.984 Y36.824 E12.89473
G1 X105.372 Y36.715 E12.90813
G1 X106.066 Y36.546 E12.93189
G1 X106.857 Y36.412 E12.95858
G1 X107.354 Y36.35 E12.97523
G1 X108.529 Y36.251 E13.01445
G1 X108.705 Y36.276 E13.02037
G1 X108.853 Y36.375 E13.02629
G1 X108.958 Y36.551 E13.0331
G1 X108.974 Y36.904 E13.04486
G1 X109.305 Y36.876 E13.05591
G1 X109.314 Y36.625 E13.06426
G1 X109.363 Y36.454 E13.07018
G1 X109.481 Y36.321 E13.07609
G1 X109.668 Y36.243 E13.08283
G1 X110.187 Y36.277 E13.10013
G1 X111.31 Y36.393 E13.13768
G1 X112.307 Y36.556 E13.17128
G1 X112.763 Y36.663 E13.18686
G1 X113.351 Y36.822 E13.20712
G1 X114.155 Y37.068 E13.23508
G1 X115.005 Y37.372 E13.26511
G1 X115.568 Y37.621 E13.28558
G1 X116.089 Y37.869 E13.30477
G1 X116.77 Y38.214 E13.33016
G1 X117.8 Y38.817 E13.36986
G1 X118.326 Y39.172 E13.39097
G1 X119.164 Y39.781 E13.42542
G1 X119.736 Y40.241 E13.44983
G1 X120.516 Y40.948 E13.48485
G1 X120.994 Y41.409 E13.50694
G1 X121.615 Y42.061 E13.53688
G1 X122.323 Y42.88 E13.57289
G1 X122.884 Y43.577 E13.60265
G1 X123.427 Y44.327 E13.63345
G1 X124.033 Y45.236 E13.66978
G1 X124.355 Y45.756 E13.69013
G1 X124.915 Y46.73 E13.72749
G1 X125.42 Y47.681 E13.76331
G1 X125.805 Y48.49 E13.79311
G1 X126.237 Y49.461 E13.82845
G1 X126.487 Y50.062 E13.8501
G1 X126.824 Y50.954 E13.88182
G1 X127.116 Y51.782 E13.91102
G1 X127.558 Y53.171 E13.9595
G1 X127.827 Y54.124 E13.99244
G1 X128.09 Y55.157 E14.02789
G1 X128.322 Y56.175 E14.06262
G1 X128.519 Y57.159 E14.09599
G1 X128.636 Y57.807 E14.1179
G1 X128.809 Y58.866 E14.15359
G1 X128.975 Y60.138 E14.19625
G1 X129.099 Y61.275 E14.23429
G1 X129.192 Y62.461 E14.27386
G1 X129.263 Y63.678 E14.31441
G1 X129.315 Y65.636 E14.37955
G1 X129.315 Y80.304 E14.86741
G1 X129.352 Y82.893 E14.95353
G1 X129.461 Y85.461 E15.03902
G1 X129.636 Y87.941 E15.12171
G1 X129.887 Y90.469 E15.20621
G1 X130.208 Y92.98 E15.2904
G1 X130.598 Y95.463 E15.374
G1 X131.058 Y97.939 E15.45776
G1 X131.599 Y100.452 E15.54326
G1 X132.194 Y102.875 E15.62624
G1 X132.872 Y105.345 E15.71143
G1 X133.604 Y107.734 E15.79454
G1 X134.415 Y110.136 E15.87886
G1 X135.297 Y112.528 E15.96365
G1 X136.23 Y114.851 E16.04692
G1 X137.239 Y117.17 E16.13103
G1 X138.314 Y119.464 E16.21529
G1 X139.456 Y121.733 E16.29978
G1 X140.644 Y123.931 E16.38288
G1 X141.91 Y126.127 E16.46719
G1 X143.247 Y128.3 E16.55204
G1 X144.628 Y130.41 E16.63592
G1 X146.079 Y132.495 E16.72041
G1 X147.614 Y134.582 E16.80657
G1 X148.142 Y135.357 E16.83776
G1 X148.6 Y136.177 E16.869
G1 X148.983 Y137.034 E16.90022
G1 X149.288 Y137.921 E16.93142
G1 X149.514 Y138.832 E16.96264
G1 X149.659 Y139.759 E16.99385
G1 X149.721 Y140.697 E17.02511
G1 X149.697 Y141.679 E17.05778
G1 X149.577 Y142.744 E17.09343
G1 X149.383 Y143.662 E17.12464
G1 X149.109 Y144.559 E17.15583
G1 X148.757 Y145.43 E17.18708
G1 X148.33 Y146.264 E17.21824
G1 X147.83 Y147.06 E17.24951
G1 X147.262 Y147.806 E17.28069
G1 X146.63 Y148.5 E17.31191
G1 X145.939 Y149.136 E17.34315
G1 X145.201 Y149.704 E17.37412
G1 X144.731 Y150.015 E17.39287
G1 X144.215 Y150.32 E17.4128
G1 X143.622 Y150.632 E17.43509
G1 X141.584 Y151.602 E17.51016
G1 X139.339 Y152.739 E17.59386
G1 X137.111 Y153.948 E17.67817
G1 X134.911 Y155.224 E17.76276
G1 X132.772 Y156.546 E17.84639
G1 X130.637 Y157.951 E17.9314
G1 X128.585 Y159.386 E18.01468
G1 X126.569 Y160.883 E18.0982
G1 X125.744 Y161.537 E18.13322
G1 X124.537 Y162.473 E18.18402
G1 X123.944 Y162.907 E18.20846
G1 X122.167 Y164.116 E18.27994
G1 X121.691 Y164.427 E18.29886
G1 X121.165 Y164.748 E18.31935
G1 X120.037 Y165.393 E18.36257
G1 X118.064 Y166.459 E18.43716
G1 X115.473 Y167.779 E18.53387
G1 X113.27 Y168.983 E18.61737
G1 X111.071 Y170.265 E18.70203
G1 X108.918 Y171.604 E18.78636
G1 X106.815 Y172.996 E18.87024
G1 X104.75 Y174.448 E18.9542
G1 X102.722 Y175.961 E19.03836
G1 X100.729 Y177.539 E19.12291
G1 X98.612 Y179.303 E19.21456
G1 X97.707 Y180.012 E19.2528
G1 X97.046 Y180.485 E19.27983
G1 X96.224 Y181.007 E19.31222
G1 X95.712 Y181.318 E19.33214
G1 X95.22 Y181.587 E19.35079
G1 X94.581 Y181.915 E19.37468
G1 X94.168 Y182.108 E19.38985
G1 X93.116 Y182.548 E19.42777
G1 X92.636 Y182.722 E19.44475
G1 X91.776 Y183.002 E19.47484
G1 X91.297 Y183.137 E19.49139
G1 X90.481 Y183.337 E19.51933
G1 X89.795 Y183.472 E19.54259
G1 X89.147 Y183.567 E19.56437
G1 X88.215 Y183.675 E19.59557
G1 X87.62 Y183.73 E19.61545
G1 X86.713 Y183.763 E19.64564
G1 X86.073 Y183.759 E19.66692
G1 X85.56 Y183.744 E19.68399
G1 X84.927 Y183.699 E19.7051
G1 X84.093 Y183.614 E19.73298
G1 X83.592 Y183.551 E19.74978
G1 X82.83 Y183.426 E19.77546
G1 X80.437 Y182.95 E19.85661
G1 X79.209 Y182.613 E19.89896
G1 X78.883 Y182.501 E19.91043
G1 X78.016 Y182.16 E19.94142
G1 X77.507 Y181.917 E19.96018
G1 X77.104 Y181.711 E19.97523
G1 X76.319 Y181.264 E20.00527
G1 X75.723 Y180.862 E20.02918
G1 X75.202 Y180.477 E20.05073
G1 X74.47 Y179.861 E20.08255
G1 X74.05 Y179.453 E20.10203
G1 X73.564 Y178.939 E20.12555
G1 X72.943 Y178.19 E20.15791
G1 X72.185 Y177.039 E20.20375
G1 X71.868 Y176.462 E20.22565
G1 X71.46 Y175.589 E20.2577
G1 X71.15 Y174.74 E20.28776
G1 X70.9 Y173.807 E20.31989
G1 X70.795 Y173.26 E20.33841
G1 X70.366 Y170.513 E20.43089
G1 X70.257 Y169.584 E20.462
G1 X70.228 Y168.777 E20.48886
G1 X70.257 Y167.839 E20.52007
G1 X70.368 Y166.907 E20.55129
G1 X70.563 Y165.985 E20.58263
G1 X70.899 Y164.916 E20.6199
G1 X71.38 Y163.64 E20.66526
G1 X72.266 Y161.176 E20.75235
G1 X73.045 Y158.804 E20.83538
G1 X73.771 Y156.366 E20.91999
G1 X74.417 Y153.944 E21.00336
G1 X74.995 Y151.502 E21.08683
G1 X75.514 Y149.001 E21.17178
G1 X75.956 Y146.509 E21.25596
G1 X76.334 Y143.973 E21.34124
G1 X76.629 Y141.515 E21.42358
G1 X76.86 Y138.992 E21.50785
G1 X77.054 Y135.865 E21.61205
G1 X77.162 Y134.933 E21.64326
G1 X77.354 Y134.014 E21.67448
G1 X77.626 Y133.115 E21.70572
G1 X77.889 Y132.443 E21.72973
G1 X78.213 Y131.754 E21.75505
G1 X79.437 Y129.409 E21.84303
G1 X80.557 Y127.108 E21.92815
G1 X81.59 Y124.82 E22.01164
G1 X82.573 Y122.473 E22.09627
G1 X83.477 Y120.13 E22.1798
G1 X84.315 Y117.758 E22.26347
G1 X85.092 Y115.343 E22.34785
G1 X85.8 Y112.913 E22.43203
G1 X86.439 Y110.459 E22.51638
G1 X87.011 Y107.98 E22.60099
G1 X87.503 Y105.534 E22.68398
G1 X87.935 Y103.017 E22.76892
G1 X88.29 Y100.52 E22.8528
G1 X88.576 Y98.017 E22.9366
G1 X88.793 Y95.482 E23.02122
G1 X88.934 Y92.999 E23.10394
G1 X89.008 Y90.408 E23.19015
G1 X89.018 Y89.07 E23.23465
G1 X89.02 Y65.866 E24.00642
G1 X89.04 Y64.455 E24.05335
G1 X89.108 Y62.862 E24.10639
G1 X89.171 Y62.01 E24.1348
G1 X89.29 Y60.695 E24.17872
G1 X89.44 Y59.464 E24.21996
G1 X89.593 Y58.409 E24.25542
G1 X89.811 Y57.167 E24.29736
G1 X90.015 Y56.142 E24.33212
G1 X90.309 Y54.872 E24.37548
G1 X90.542 Y53.974 E24.40633
G1 X90.78 Y53.142 E24.43512
G1 X91.069 Y52.213 E24.46748
G1 X91.676 Y50.498 E24.52798
G1 X91.94 Y49.842 E24.5515
G1 X92.458 Y48.647 E24.59482
G1 X92.859 Y47.787 E24.62638
G1 X93.063 Y47.38 E24.64153
G1 F3000 E23.84153
G0 F4800 X108.578 Y36.906
G1 F3000 E24.64153
G1 F960 X108.563 Y36.65 E24.65005
G1 X107.388 Y36.749 E24.68927
G1 X106.906 Y36.809 E24.70543
G1 X106.161 Y36.935 E24.73056
G1 X105.467 Y37.104 E24.75432
G1 X105.092 Y37.209 E24.76727
G1 X104.248 Y37.468 E24.79663
G1 X103.726 Y37.646 E24.81498
G1 X102.895 Y37.999 E24.84501
G1 X102.154 Y38.354 E24.87233
G1 X101.616 Y38.635 E24.89252
G1 X101.002 Y38.989 E24.91609
G1 X100.117 Y39.584 E24.95156
G1 X99.35 Y40.144 E24.98315
G1 X98.656 Y40.721 E25.01317
G1 X98.056 Y41.273 E25.04029
G1 X97.542 Y41.771 E25.06409
G1 X96.937 Y42.411 E25.09338
G1 X96.173 Y43.303 E25.13244
