;FLAVOR:Marlin
;TIME:3698
;Filament used: 1.86013m
;Layer height: 0.2
;MINX:71.683
;MINY:38.012
;MINZ:0.2
;MAXX:148.306
;MAXY:181.985
;MAXZ:8.4
;TARGET_MACHINE.NAME:Creality Ender-3 S1
;Generated with Cura_SteamEngine 5.11.0
; Ender 3 S1 Start G-code
; M413 S0 ; Disable power loss recovery
G92 E0 ; Reset Extruder

; Prep surfaces before auto home for better accuracy
M140 S55.0
M104 S208.0

G28 ; Home all axes
G1 Z10.0 F3000 ; Move Z Axis up little to prevent scratching of Heat Bed
G1 X0 Y0

M190 S55.0
M109 S208.0

G1 X0.1 Y20 Z0.3 F5000.0 ; Move to start position
G1 X0.1 Y200.0 Z0.3 F1500.0 E15 ; Draw the first line
G1 X0.4 Y200.0 Z0.3 F5000.0 ; Move to side a little
G1 X0.4 Y20 Z0.3 F1500.0 E30 ; Draw the second line
G92 E0 ; Reset Extruder
G1 Z2.0 F3000 ; Move Z Axis up little to prevent scratching of Heat Bed
G1 X5 Y20 Z0.3 F5000.0 ; Move over to prevent blob squish

M82 ;absolute extrusion mode
G92 E0
G92 E0
G1 F3000 E-0.8
;LAYER_COUNT:42
;LAYER:0
M107
G0 F4800 X93.6 Y49.472 Z0.2
;TYPE:SKIRT
G1 F3000 E0
G1 F960 X93.981 Y48.756 E0.02698
G1 X94.319 Y48.146 E0.05017
G1 X94.641 Y47.607 E0.07105
G1 X95.242 Y46.671 E0.10805
G1 X95.612 Y46.125 E0.12999
G1 X95.949 Y45.656 E0.1492
G1 X96.303 Y45.195 E0.16853
G1 X97.065 Y44.274 E0.20829
G1 X97.672 Y43.61 E0.23821
G1 X98.194 Y43.086 E0.26281
G1 X98.819 Y42.489 E0.29155
G1 X99.539 Y41.865 E0.32324
G1 X100.109 Y41.429 E0.34711
G1 X100.878 Y40.876 E0.37862
G1 X101.636 Y40.384 E0.40867
G1 X102.415 Y39.953 E0.43828
G1 X103.236 Y39.543 E0.46881
G1 X104.089 Y39.166 E0.49982
G1 X104.683 Y38.954 E0.5208
G1 X105.36 Y38.733 E0.54449
G1 X105.98 Y38.547 E0.56602
G1 X107.321 Y38.245 E0.61174
G1 X107.885 Y38.165 E0.63068
G1 X108.537 Y38.094 E0.6525
G1 X109.075 Y38.049 E0.67045
G1 X110.046 Y38.012 E0.70277
G1 X110.865 Y38.048 E0.73004
G1 X111.824 Y38.134 E0.76206
G1 X112.222 Y38.18 E0.77539
G1 X113.114 Y38.323 E0.80544
G1 X113.766 Y38.475 E0.8277
G1 X114.468 Y38.676 E0.85199
G1 X115.203 Y38.909 E0.87763
G1 X116.104 Y39.244 E0.90961
G1 X116.655 Y39.496 E0.92976
G1 X117.325 Y39.825 E0.95458
G1 X117.945 Y40.15 E0.97787
G1 X118.042 Y40.219 E0.98183
G1 X118.894 Y40.717 E1.01465
G1 X119.421 Y41.083 E1.03599
G1 X120.322 Y41.759 E1.07345
G1 X120.909 Y42.239 E1.09867
G1 X121.276 Y42.572 E1.11516
G1 X121.801 Y43.075 E1.13934
G1 X122.255 Y43.53 E1.16072
G1 X122.887 Y44.221 E1.19186
G1 X123.386 Y44.815 E1.21767
G1 X123.944 Y45.515 E1.24744
G1 X124.299 Y45.994 E1.26727
G1 X124.687 Y46.556 E1.28998
G1 X125.328 Y47.551 E1.32935
G1 X125.649 Y48.093 E1.3503
G1 X126.191 Y49.077 E1.38767
G1 X126.519 Y49.709 E1.41135
G1 X126.859 Y50.41 E1.43726
G1 X127.229 Y51.243 E1.46758
G1 X127.504 Y51.909 E1.49154
G1 X128 Y53.202 E1.5376
G1 X128.283 Y54.002 E1.56583
G1 X128.761 Y55.532 E1.61914
G1 X129.084 Y56.712 E1.65983
G1 X129.396 Y58.015 E1.7044
G1 X129.641 Y59.168 E1.7436
G1 X129.852 Y60.334 E1.78301
G1 X130.015 Y61.346 E1.81711
G1 X130.202 Y62.783 E1.8653
G1 X130.337 Y64.055 E1.90785
G1 X130.417 Y65.125 E1.94354
G1 X130.528 Y67.444 E2.02075
G1 X130.549 Y68.823 E2.06662
G1 X130.55 Y95.042 E2.93867
G1 X130.587 Y97.614 E3.02423
G1 X130.696 Y100.178 E3.10958
G1 X130.869 Y102.64 E3.19167
G1 X131.118 Y105.15 E3.27556
G1 X131.44 Y107.667 E3.35996
G1 X131.826 Y110.128 E3.44282
G1 X132.284 Y112.593 E3.5262
G1 X132.823 Y115.098 E3.61143
G1 X133.415 Y117.507 E3.69394
G1 X134.092 Y119.977 E3.77912
G1 X134.818 Y122.344 E3.86146
G1 X135.624 Y124.734 E3.94535
G1 X136.574 Y127.304 E4.03649
G1 X136.98 Y128.355 E4.07396
G1 X137.2 Y128.981 E4.09603
G1 X138.117 Y132.289 E4.2102
G1 X138.856 Y134.695 E4.29392
G1 X139.652 Y137.048 E4.37653
G1 X140.544 Y139.46 E4.46207
G1 X141.47 Y141.758 E4.54447
G1 X142.48 Y144.075 E4.62854
G1 X143.553 Y146.362 E4.71256
G1 X144.68 Y148.592 E4.79567
G1 X145.899 Y150.848 E4.88095
G1 X146.564 Y152.043 E4.92644
G1 X146.952 Y152.868 E4.95676
G1 X147.38 Y153.924 E4.99466
G1 X147.696 Y154.785 E5.02516
G1 X147.961 Y155.711 E5.0572
G1 X148.195 Y157.043 E5.10218
G1 X148.282 Y157.988 E5.13374
G1 X148.306 Y158.61 E5.15445
G1 X148.297 Y159.422 E5.18146
G1 X148.236 Y160.577 E5.21993
G1 X148.133 Y161.533 E5.25191
G1 X148.026 Y162.125 E5.27192
G1 X147.807 Y163.125 E5.30596
G1 X147.513 Y164.122 E5.34054
G1 X147.126 Y165.197 E5.37854
G1 X146.726 Y166.094 E5.4112
G1 X146.42 Y166.666 E5.43278
G1 X146.238 Y166.978 E5.44479
G1 X145.901 Y167.512 E5.46579
G1 X145.341 Y168.341 E5.49907
G1 X144.671 Y169.266 E5.53706
G1 X144.028 Y170.044 E5.57063
G1 X143.632 Y170.459 E5.58971
G1 X142.936 Y171.144 E5.62219
G1 X142.714 Y171.348 E5.63221
G1 X141.926 Y171.992 E5.66606
G1 X141.12 Y172.539 E5.69846
G1 X140.234 Y173.031 E5.73217
G1 X139.328 Y173.43 E5.76509
G1 X138.061 Y173.835 E5.80934
G1 X136.662 Y174.098 E5.85668
G1 X135.675 Y174.217 E5.88975
G1 X134.72 Y174.319 E5.92169
G1 X132.263 Y174.651 E6.00415
G1 X129.758 Y175.061 E6.08858
G1 X127.296 Y175.536 E6.17198
G1 X124.838 Y176.085 E6.25574
G1 X122.421 Y176.696 E6.33866
G1 X119.469 Y177.54 E6.44078
G1 X119.022 Y177.659 E6.45616
G1 X117.908 Y177.908 E6.49413
G1 X117.133 Y178.066 E6.52044
G1 X116.035 Y178.224 E6.55733
G1 X115.417 Y178.281 E6.57798
G1 X113.996 Y178.387 E6.62537
G1 X112.307 Y178.423 E6.68156
G1 X109.745 Y178.506 E6.76682
G1 X107.249 Y178.657 E6.84998
G1 X104.767 Y178.878 E6.93286
G1 X102.264 Y179.173 E7.01669
G1 X99.723 Y179.544 E7.1021
G1 X97.31 Y179.968 E7.18359
G1 X94.781 Y180.485 E7.26944
G1 X92.383 Y181.048 E7.35137
G1 X91.285 Y181.336 E7.38912
G1 X89.65 Y181.73 E7.44506
G1 X88.688 Y181.897 E7.47753
G1 X87.721 Y181.977 E7.50981
G1 X87.009 Y181.985 E7.53349
G1 X86.036 Y181.945 E7.56588
G1 X85.551 Y181.902 E7.58207
G1 X84.102 Y181.807 E7.63037
G1 X83.635 Y181.755 E7.646
G1 X82.452 Y181.67 E7.68545
G1 X81.439 Y181.532 E7.71945
G1 X80.49 Y181.316 E7.75182
G1 X79.564 Y181.017 E7.78419
G1 X78.731 Y180.666 E7.81425
G1 X78.103 Y180.346 E7.83769
G1 X77.488 Y179.988 E7.86136
G1 X76.781 Y179.516 E7.88964
G1 X76.114 Y178.996 E7.91777
G1 X75.398 Y178.353 E7.94977
G1 X74.866 Y177.792 E7.97549
G1 X74.396 Y177.237 E7.99968
G1 X74.081 Y176.84 E8.01653
G1 X73.561 Y176.105 E8.04648
G1 X73.197 Y175.512 E8.06962
G1 X72.923 Y175.01 E8.08864
G1 X72.503 Y174.105 E8.12183
G1 X72.194 Y173.256 E8.15188
G1 X71.925 Y172.247 E8.18661
G1 X71.76 Y171.285 E8.21907
G1 X71.683 Y170.312 E8.25154
G1 X71.696 Y169.256 E8.28666
G1 X71.794 Y168.298 E8.31869
G1 X71.989 Y167.212 E8.35539
G1 X72.22 Y166.132 E8.39212
G1 X72.409 Y165.432 E8.41624
G1 X72.732 Y164.51 E8.44873
G1 X73.47 Y162.805 E8.51052
G1 X74.444 Y160.477 E8.59446
G1 X75.335 Y158.166 E8.67684
G1 X76.175 Y155.785 E8.76081
G1 X76.954 Y153.366 E8.84534
G1 X77.655 Y150.958 E8.92875
G1 X78.29 Y148.517 E9.01264
G1 X78.859 Y146.049 E9.09688
G1 X79.352 Y143.597 E9.18007
G1 X79.779 Y141.107 E9.26409
G1 X80.127 Y138.663 E9.3462
G1 X80.414 Y136.132 E9.43092
G1 X80.631 Y133.625 E9.51462
G1 X80.695 Y132.468 E9.55316
G1 X80.78 Y131.298 E9.59218
G1 X80.89 Y130.435 E9.62111
G1 X81.103 Y129.463 E9.65421
G1 X81.405 Y128.517 E9.68724
G1 X81.648 Y127.906 E9.70911
G1 X82.032 Y127.024 E9.7411
G1 X83.035 Y124.629 E9.82746
G1 X83.948 Y122.26 E9.9119
G1 X84.769 Y119.934 E9.99395
G1 X85.544 Y117.525 E10.07811
G1 X86.251 Y115.098 E10.16219
G1 X86.886 Y112.657 E10.24608
G1 X87.455 Y110.189 E10.33032
G1 X87.948 Y107.738 E10.41347
G1 X88.375 Y105.246 E10.49757
G1 X88.728 Y102.767 E10.58085
G1 X89.008 Y100.3 E10.66343
G1 X89.229 Y97.731 E10.74919
G1 X89.367 Y95.287 E10.83061
G1 X89.441 Y92.697 E10.91679
G1 X89.45 Y91.378 E10.96066
G1 X89.451 Y68.825 E11.71077
G1 X89.486 Y67.061 E11.76946
G1 X89.605 Y64.81 E11.84443
G1 X89.727 Y63.406 E11.8913
G1 X89.883 Y62.1 E11.93505
G1 X90.031 Y61.048 E11.97038
G1 X90.226 Y59.887 E12.00954
G1 X90.444 Y58.749 E12.04808
G1 X90.608 Y57.999 E12.07361
G1 X90.911 Y56.737 E12.11678
G1 X91.233 Y55.559 E12.1574
G1 X91.629 Y54.277 E12.20202
G1 X91.978 Y53.258 E12.23785
G1 X92.224 Y52.593 E12.26143
G1 X92.865 Y51.037 E12.3174
G1 X93.267 Y50.148 E12.34985
G1 X93.6 Y49.472 E12.37492
G0 F4800 X93.953 Y49.66
G1 F960 X94.331 Y48.95 E12.40167
G1 X94.663 Y48.351 E12.42445
G1 X94.978 Y47.823 E12.4449
G1 X95.573 Y46.895 E12.48156
G1 X95.937 Y46.358 E12.50314
G1 X96.267 Y45.899 E12.52194
G1 X96.611 Y45.45 E12.54076
G1 X97.36 Y44.544 E12.57985
G1 X97.955 Y43.892 E12.60921
G1 X98.47 Y43.375 E12.63348
G1 X99.081 Y42.791 E12.66159
G1 X99.782 Y42.183 E12.69246
G1 X100.343 Y41.754 E12.71595
G1 X101.096 Y41.212 E12.74681
G1 X101.854 Y40.72 E12.77686
G1 X102.594 Y40.311 E12.80498
G1 X103.398 Y39.909 E12.83488
G1 X104.251 Y39.532 E12.8659
G1 X104.807 Y39.334 E12.88553
G1 X105.475 Y39.116 E12.9089
G1 X106.095 Y38.93 E12.93043
G1 X107.377 Y38.641 E12.97414
G1 X107.928 Y38.563 E12.99265
G1 X108.571 Y38.493 E13.01416
G1 X109.091 Y38.449 E13.03152
G1 X110.028 Y38.412 E13.06271
G1 X110.847 Y38.448 E13.08997
G1 X111.778 Y38.531 E13.12106
G1 X112.159 Y38.575 E13.13382
G1 X113.051 Y38.718 E13.16386
G1 X113.656 Y38.86 E13.18453
G1 X114.347 Y39.057 E13.20843
G1 X115.064 Y39.284 E13.23345
G1 X115.938 Y39.608 E13.26445
G1 X116.479 Y39.855 E13.28423
G1 X117.139 Y40.179 E13.30868
G1 X117.759 Y40.504 E13.33197
G1 X117.81 Y40.547 E13.33418
G1 X118.666 Y41.046 E13.36714
G1 X119.193 Y41.412 E13.38848
G1 X120.069 Y42.069 E13.4249
G1 X120.64 Y42.535 E13.44941
G1 X120.999 Y42.861 E13.46554
G1 X121.524 Y43.364 E13.48973
G1 X121.96 Y43.8 E13.51023
G1 X122.581 Y44.478 E13.54081
G1 X123.073 Y45.064 E13.56626
G1 X123.623 Y45.754 E13.59561
G1 X123.97 Y46.221 E13.61496
G1 X124.351 Y46.773 E13.63727
G1 X124.984 Y47.755 E13.67613
G1 X125.299 Y48.286 E13.69666
G1 X125.836 Y49.261 E13.73369
G1 X126.159 Y49.884 E13.75703
G1 X126.493 Y50.572 E13.78246
G1 X126.859 Y51.396 E13.81245
G1 X127.134 Y52.062 E13.83642
G1 X127.623 Y53.336 E13.8818
G1 X127.901 Y54.121 E13.9095
G1 X128.375 Y55.638 E13.96236
G1 X128.695 Y56.805 E14.00261
G1 X129.005 Y58.098 E14.04683
G1 X129.247 Y59.239 E14.08563
G1 X129.457 Y60.398 E14.1248
G1 X129.618 Y61.398 E14.15849
G1 X129.804 Y62.825 E14.20636
G1 X129.938 Y64.085 E14.2485
G1 X130.017 Y65.144 E14.28382
G1 X130.128 Y67.45 E14.36061
G1 X130.149 Y68.823 E14.40628
G1 X130.15 Y95.042 E15.27833
G1 X130.187 Y97.631 E15.36445
G1 X130.296 Y100.195 E15.4498
G1 X130.471 Y102.679 E15.53263
G1 X130.721 Y105.201 E15.61692
G1 X131.043 Y107.718 E15.70132
G1 X131.433 Y110.201 E15.78491
G1 X131.893 Y112.677 E15.86868
G1 X132.434 Y115.19 E15.95417
G1 X133.029 Y117.613 E16.03716
G1 X133.707 Y120.083 E16.12235
G1 X134.439 Y122.472 E16.20545
G1 X135.249 Y124.873 E16.28973
G1 X136.201 Y127.448 E16.38104
G1 X136.603 Y128.488 E16.41813
G1 X136.823 Y129.114 E16.4402
G1 X137.735 Y132.406 E16.55381
G1 X138.477 Y134.823 E16.63791
G1 X139.277 Y137.187 E16.72091
G1 X140.173 Y139.609 E16.8068
G1 X141.103 Y141.918 E16.8896
G1 X142.113 Y144.235 E16.97366
G1 X143.196 Y146.542 E17.05843
G1 X144.328 Y148.782 E17.14191
G1 X145.55 Y151.043 E17.22739
G1 X146.202 Y152.214 E17.27197
G1 X146.581 Y153.018 E17.30153
G1 X147.004 Y154.062 E17.33899
G1 X147.32 Y154.923 E17.3695
G1 X147.576 Y155.821 E17.40056
G1 X147.797 Y157.08 E17.44307
G1 X147.882 Y158.004 E17.47393
G1 X147.906 Y158.606 E17.49397
G1 X147.898 Y159.401 E17.52041
G1 X147.838 Y160.535 E17.55818
G1 X147.739 Y161.462 E17.58919
G1 X147.635 Y162.04 E17.60873
G1 X147.423 Y163.012 E17.64181
G1 X147.129 Y164.009 E17.67639
G1 X146.75 Y165.061 E17.71358
G1 X146.373 Y165.905 E17.74432
G1 X146.074 Y166.464 E17.76541
G1 X145.892 Y166.776 E17.77742
G1 X145.569 Y167.288 E17.79756
G1 X145.017 Y168.106 E17.83038
G1 X144.347 Y169.031 E17.86837
G1 X143.738 Y169.768 E17.90016
G1 X143.351 Y170.174 E17.91882
G1 X142.665 Y170.849 E17.95083
G1 X142.443 Y171.053 E17.96086
G1 X141.701 Y171.661 E17.99276
G1 X140.925 Y172.19 E18.024
G1 X140.072 Y172.665 E18.05647
G1 X139.206 Y173.049 E18.08798
G1 X137.939 Y173.454 E18.13222
G1 X136.614 Y173.701 E18.17705
G1 X135.633 Y173.819 E18.20991
G1 X134.678 Y173.921 E18.24186
G1 X132.198 Y174.256 E18.32509
G1 X129.689 Y174.667 E18.40965
G1 X127.22 Y175.144 E18.49329
G1 X124.74 Y175.697 E18.5778
G1 X122.311 Y176.311 E18.66113
G1 X119.366 Y177.153 E18.76301
G1 X118.919 Y177.272 E18.77839
G1 X117.828 Y177.516 E18.81558
G1 X117.076 Y177.67 E18.84111
G1 X115.998 Y177.826 E18.87734
G1 X115.387 Y177.882 E18.89774
G1 X113.987 Y177.987 E18.94444
G1 X112.294 Y178.023 E19.00076
G1 X109.732 Y178.106 E19.08602
G1 X107.225 Y178.258 E19.16955
G1 X104.72 Y178.481 E19.2532
G1 X102.206 Y178.777 E19.33739
G1 X99.665 Y179.148 E19.4228
G1 X97.23 Y179.576 E19.50503
G1 X94.701 Y180.093 E19.59089
G1 X92.282 Y180.661 E19.67353
G1 X91.191 Y180.947 E19.71105
G1 X89.581 Y181.336 E19.76613
G1 X88.655 Y181.498 E19.7974
G1 X87.688 Y181.578 E19.82967
G1 X87.018 Y181.585 E19.85196
G1 X86.673 Y181.577 E19.86344
G1 X86.071 Y181.546 E19.88349
G1 X85.586 Y181.504 E19.89968
G1 X84.146 Y181.409 E19.94768
G1 X83.679 Y181.357 E19.96331
G1 X82.481 Y181.271 E20.00325
G1 X81.527 Y181.142 E20.03527
G1 X80.612 Y180.935 E20.06647
G1 X79.719 Y180.648 E20.09767
G1 X78.886 Y180.297 E20.12774
G1 X78.304 Y180 E20.14947
G1 X77.71 Y179.655 E20.17232
G1 X77.003 Y179.183 E20.20059
G1 X76.381 Y178.698 E20.22682
G1 X75.665 Y178.055 E20.25883
G1 X75.171 Y177.534 E20.28271
G1 X74.709 Y176.988 E20.3065
G1 X74.408 Y176.609 E20.3226
G1 X73.888 Y175.874 E20.35254
G1 X73.548 Y175.32 E20.37416
G1 X73.286 Y174.841 E20.39232
G1 X72.879 Y173.968 E20.42436
G1 X72.57 Y173.119 E20.45441
G1 X72.319 Y172.179 E20.48677
G1 X72.159 Y171.253 E20.51802
G1 X72.083 Y170.316 E20.54929
G1 X72.094 Y169.296 E20.58322
G1 X72.188 Y168.368 E20.61424
G1 X72.38 Y167.295 E20.6505
G1 X72.606 Y166.236 E20.68651
G1 X72.787 Y165.564 E20.70966
G1 X73.11 Y164.642 E20.74215
G1 X73.837 Y162.964 E20.80298
G1 X74.813 Y160.631 E20.88709
G1 X75.708 Y158.31 E20.96982
G1 X76.556 Y155.908 E21.05455
G1 X77.335 Y153.489 E21.13907
G1 X78.039 Y151.07 E21.22287
G1 X78.677 Y148.618 E21.30714
G1 X79.249 Y146.139 E21.39176
G1 X79.744 Y143.676 E21.47531
G1 X80.173 Y141.175 E21.55971
G1 X80.523 Y138.719 E21.64222
G1 X80.813 Y136.166 E21.72768
G1 X81.029 Y133.659 E21.81138
G1 X81.094 Y132.497 E21.85008
G1 X81.177 Y131.348 E21.8884
G1 X81.281 Y130.52 E21.91616
G1 X81.484 Y129.585 E21.94798
G1 X81.786 Y128.639 E21.98101
G1 X82.015 Y128.066 E22.00153
G1 X82.399 Y127.184 E22.03353
G1 X83.404 Y124.783 E22.1201
G1 X84.321 Y122.404 E22.2049
G1 X85.15 Y120.057 E22.28768
G1 X85.925 Y117.648 E22.37185
G1 X86.635 Y115.21 E22.45631
G1 X87.273 Y112.758 E22.54058
G1 X87.845 Y110.279 E22.6252
G1 X88.34 Y107.817 E22.70872
G1 X88.769 Y105.314 E22.79319
G1 X89.124 Y102.823 E22.87687
G1 X89.407 Y100.334 E22.96019
G1 X89.627 Y97.765 E23.04595
G1 X89.767 Y95.298 E23.12814
G1 X89.841 Y92.708 E23.21431
G1 X89.85 Y91.381 E23.25845
G1 X89.851 Y68.833 E24.0084
G1 X89.885 Y67.082 E24.06665
G1 X90.003 Y64.845 E24.14116
G1 X90.124 Y63.453 E24.18763
G1 X90.279 Y62.156 E24.23107
G1 X90.425 Y61.114 E24.26607
G1 X90.619 Y59.962 E24.30493
G1 X90.835 Y58.834 E24.34312
G1 X90.997 Y58.092 E24.36838
G1 X91.297 Y56.842 E24.41114
G1 X91.615 Y55.677 E24.45131
G1 X92.007 Y54.407 E24.49551
G1 X92.353 Y53.397 E24.53102
G1 X92.594 Y52.745 E24.55414
G1 X93.23 Y51.202 E24.60965
G1 X93.626 Y50.325 E24.64166
G1 X93.953 Y49.66 E24.6663
G0 F4800 X94.306 Y49.848
G1 F960 X94.681 Y49.144 E24.69283
G1 X95.007 Y48.556 E24.71519
G1 X95.315 Y48.039 E24.73521
G1 X95.904 Y47.119 E24.77154
G1 X96.262 Y46.591 E24.79276
G1 X96.584 Y46.142 E24.81114
G1 X96.919 Y45.705 E24.82945
G1 X97.655 Y44.814 E24.86789
G1 X98.239 Y44.174 E24.89671
G1 X98.746 Y43.664 E24.92062
G1 X99.343 Y43.093 E24.9481
G1 X100.025 Y42.501 E24.97814
G1 X100.577 Y42.079 E25.00125
G1 X101.314 Y41.548 E25.03146
G1 X102.072 Y41.056 E25.06152
G1 X102.313 Y40.928 E25.07059
G1 X102.309 Y40.921 E25.07086
G1 X102.773 Y40.669 E25.08842
G1 X103.56 Y40.275 E25.1177
G1 X104.386 Y39.909 E25.14775
G1 X104.931 Y39.714 E25.167
G1 X105.59 Y39.499 E25.19005
G1 X106.21 Y39.313 E25.21158
G1 X107.433 Y39.037 E25.25328
G1 X107.971 Y38.961 E25.27135
G1 X108.605 Y38.892 E25.29257
G1 X109.107 Y38.849 E25.30932
G1 X110.01 Y38.812 E25.33938
G1 X110.829 Y38.848 E25.36665
G1 X111.732 Y38.928 E25.3968
G1 X112.096 Y38.97 E25.40899
