;FLAVOR:Marlin
;TIME:3272
;Filament used: 1.6876m
;Layer height: 0.2
;MINX:69.441
;MINY:39.012
;MINZ:0.2
;MAXX:150.565
;MAXY:180.982
;MAXZ:8.4
;TARGET_MACHINE.NAME:Creality Ender-3 S1
;Generated with Cura_SteamEngine 5.11.0
; Ender 3 S1 Start G-code
; M413 S0 ; Disable power loss recovery
G92 E0 ; Reset Extruder

; Prep surfaces before auto home for better accuracy
M140 S55.0
M104 S208.0

G28 ; Home all axes
G1 Z10.0 F3000 ; Move Z Axis up little to prevent scratching of Heat Bed
G1 X0 Y0

M190 S55.0
M109 S208.0

G1 X0.1 Y20 Z0.3 F5000.0 ; Move to start position
G1 X0.1 Y200.0 Z0.3 F1500.0 E15 ; Draw the first line
G1 X0.4 Y200.0 Z0.3 F5000.0 ; Move to side a little
G1 X0.4 Y20 Z0.3 F1500.0 E30 ; Draw the second line
G92 E0 ; Reset Extruder
G1 Z2.0 F3000 ; Move Z Axis up little to prevent scratching of Heat Bed
G1 X5 Y20 Z0.3 F5000.0 ; Move over to prevent blob squish

M82 ;absolute extrusion mode
G92 E0
G92 E0
G1 F3000 E-0.8
;LAYER_COUNT:42
;LAYER:0
M107
G0 F4800 X103.803 Y50.715 Z0.2
;TYPE:SKIRT
G1 F3000 E0
G1 F960 X104.099 Y50.141 E0.02148
G1 X104.658 Y49.125 E0.06005
G1 X104.974 Y48.593 E0.08063
G1 X105.559 Y47.679 E0.11672
G1 X106.002 Y47.028 E0.14291
G1 X106.295 Y46.625 E0.15949
G1 X106.683 Y46.126 E0.18051
G1 X107.399 Y45.263 E0.21781
G1 X108.012 Y44.592 E0.24803
G1 X108.519 Y44.082 E0.27195
G1 X109.103 Y43.523 E0.29884
G1 X109.582 Y43.097 E0.32016
G1 X109.926 Y42.817 E0.33491
G1 X110.442 Y42.422 E0.35653
G1 X111.173 Y41.896 E0.38648
G1 X112.221 Y41.236 E0.42767
G1 X112.721 Y40.963 E0.44662
G1 X113.533 Y40.554 E0.47686
G1 X114.359 Y40.188 E0.50691
G1 X115.006 Y39.955 E0.52978
G1 X115.732 Y39.719 E0.55517
G1 X116.347 Y39.534 E0.57653
G1 X117.224 Y39.32 E0.60656
G1 X117.864 Y39.212 E0.62815
G1 X118.608 Y39.122 E0.65307
G1 X119.38 Y39.051 E0.67886
G1 X120.35 Y39.012 E0.71114
G1 X121.188 Y39.048 E0.73904
G1 X122.149 Y39.134 E0.77113
G1 X122.547 Y39.18 E0.78446
G1 X123.467 Y39.328 E0.81545
G1 X124.047 Y39.464 E0.83527
G1 X124.8 Y39.677 E0.86129
G1 X125.506 Y39.902 E0.88594
G1 X126.41 Y40.236 E0.91799
G1 X126.968 Y40.491 E0.9384
G1 X127.673 Y40.837 E0.96452
G1 X128.285 Y41.157 E0.98749
G1 X129.303 Y41.776 E1.02711
G1 X129.849 Y42.156 E1.04924
G1 X130.618 Y42.735 E1.08126
G1 X131.356 Y43.346 E1.11312
G1 X131.953 Y43.907 E1.14037
G1 X132.6 Y44.552 E1.17076
G1 X133.224 Y45.234 E1.2015
G1 X133.887 Y46.03 E1.23596
G1 X134.272 Y46.518 E1.25663
G1 X134.621 Y46.988 E1.2761
G1 X134.921 Y47.419 E1.29357
G1 X135.654 Y48.553 E1.33848
G1 X135.965 Y49.078 E1.35877
G1 X136.52 Y50.083 E1.39696
G1 X137.059 Y51.145 E1.43657
G1 X137.285 Y51.635 E1.45452
G1 X137.71 Y52.615 E1.49004
G1 X138.318 Y54.181 E1.54592
G1 X138.613 Y55.017 E1.5754
G1 X139.086 Y56.531 E1.62816
G1 X139.409 Y57.711 E1.66885
G1 X139.721 Y59.014 E1.71341
G1 X139.966 Y60.167 E1.75262
G1 X140.177 Y61.333 E1.79203
G1 X140.344 Y62.372 E1.82703
G1 X140.546 Y63.937 E1.87951
G1 X140.64 Y64.815 E1.90888
G1 X140.751 Y66.228 E1.95603
G1 X140.816 Y67.338 E1.99301
G1 X140.837 Y67.891 E2.01141
G1 X140.875 Y69.522 E2.06568
G1 X140.875 Y100.774 E3.10512
G1 X140.912 Y103.346 E3.19068
G1 X141.021 Y105.914 E3.27616
G1 X141.194 Y108.372 E3.35812
G1 X141.444 Y110.891 E3.44231
G1 X141.765 Y113.399 E3.52641
G1 X142.151 Y115.86 E3.60926
G1 X142.609 Y118.325 E3.69265
G1 X143.15 Y120.838 E3.77815
G1 X143.74 Y123.239 E3.86038
G1 X144.417 Y125.709 E3.94557
G1 X145.143 Y128.076 E4.02791
G1 X145.953 Y130.478 E4.11223
G1 X146.874 Y132.969 E4.20056
G1 X147.336 Y134.167 E4.24326
G1 X147.644 Y135.09 E4.27563
G1 X147.845 Y135.917 E4.30393
G1 X148.003 Y136.942 E4.33843
G1 X148.06 Y137.773 E4.36613
G1 X148.075 Y138.43 E4.38799
G1 X148.076 Y143.042 E4.54139
G1 X148.149 Y145.584 E4.62597
G1 X148.29 Y148.034 E4.70759
G1 X148.508 Y150.604 E4.79338
G1 X148.787 Y153.046 E4.87512
G1 X149.142 Y155.545 E4.95908
G1 X149.565 Y158.003 E5.04203
G1 X150.331 Y161.721 E5.16829
G1 X150.338 Y161.856 E5.17279
G1 X150.483 Y162.714 E5.20173
G1 X150.541 Y163.366 E5.2235
G1 X150.565 Y164.076 E5.24713
G1 X150.462 Y165.608 E5.2982
G1 X150.289 Y166.562 E5.33044
G1 X150.078 Y167.351 E5.35761
G1 X149.856 Y168.038 E5.38162
G1 X149.741 Y168.363 E5.39309
G1 X149.39 Y169.196 E5.42315
G1 X148.897 Y170.126 E5.45816
G1 X148.289 Y171.045 E5.49481
G1 X147.075 Y172.658 E5.56196
G1 X145.597 Y174.718 E5.64628
G1 X144.926 Y175.684 E5.6854
G1 X144.311 Y176.468 E5.71855
G1 X143.706 Y177.118 E5.74808
G1 X142.996 Y177.766 E5.78005
G1 X142.45 Y178.197 E5.80319
G1 X142.014 Y178.51 E5.82104
G1 X141.353 Y178.954 E5.84752
G1 X140.543 Y179.441 E5.87896
G1 X139.355 Y179.999 E5.92261
G1 X138.696 Y180.244 E5.946
G1 X138.196 Y180.406 E5.96348
G1 X136.939 Y180.708 E6.00648
G1 X136.403 Y180.796 E6.02454
G1 X135.472 Y180.913 E6.05575
G1 X134.506 Y180.982 E6.08796
G1 X133.71 Y180.974 E6.11444
G1 X132.79 Y180.926 E6.14508
G1 X131.892 Y180.827 E6.17513
G1 X130.654 Y180.564 E6.21722
G1 X128.757 Y180.025 E6.28282
G1 X127.318 Y179.633 E6.33242
G1 X126.788 Y179.471 E6.35085
G1 X126.448 Y179.35 E6.36286
G1 X125.301 Y178.852 E6.40445
G1 X122.82 Y177.638 E6.49631
G1 X120.574 Y176.617 E6.57837
G1 X118.202 Y175.619 E6.66396
G1 X115.861 Y174.712 E6.74747
G1 X113.495 Y173.871 E6.83098
G1 X111.111 Y173.099 E6.91433
G1 X108.678 Y172.386 E6.99865
G1 X106.26 Y171.752 E7.0818
G1 X103.795 Y171.178 E7.16598
G1 X101.341 Y170.68 E7.24926
G1 X98.857 Y170.248 E7.33312
G1 X96.33 Y169.883 E7.41804
G1 X93.853 Y169.596 E7.50098
G1 X91.361 Y169.378 E7.58418
G1 X88.87 Y169.233 E7.66717
G1 X86.691 Y169.162 E7.73968
G1 X84.832 Y169.122 E7.80152
G1 X84.247 Y169.096 E7.821
G1 X82.813 Y168.984 E7.86884
G1 X81.407 Y168.835 E7.91587
G1 X80.58 Y168.722 E7.94363
G1 X79.688 Y168.574 E7.9737
G1 X78.25 Y168.281 E8.02251
G1 X77.35 Y168.032 E8.05357
G1 X76.673 Y167.788 E8.07751
G1 X75.867 Y167.447 E8.10661
G1 X75.037 Y167.02 E8.13766
G1 X74.375 Y166.612 E8.16352
G1 X73.566 Y166.015 E8.19696
G1 X72.835 Y165.369 E8.22941
G1 X72.166 Y164.662 E8.26178
G1 X71.586 Y163.934 E8.29274
G1 X71.255 Y163.453 E8.31216
G1 X71.077 Y163.17 E8.32328
G1 X70.603 Y162.319 E8.35568
G1 X70.206 Y161.429 E8.38809
G1 X69.89 Y160.508 E8.42048
G1 X69.657 Y159.563 E8.45285
G1 X69.516 Y158.671 E8.48289
G1 X69.441 Y157.361 E8.52653
G1 X69.481 Y156.459 E8.55656
G1 X69.621 Y155.424 E8.5913
G1 X69.837 Y154.475 E8.62367
G1 X70.136 Y153.549 E8.65603
G1 X70.487 Y152.716 E8.6861
G1 X70.976 Y151.792 E8.72087
G1 X71.467 Y151.035 E8.75088
G1 X71.865 Y150.507 E8.77287
G1 X72.157 Y150.158 E8.78801
G1 X72.634 Y149.639 E8.81145
G1 X73.903 Y148.374 E8.87105
G1 X75.671 Y146.542 E8.95573
G1 X77.364 Y144.687 E9.03926
G1 X79.021 Y142.766 E9.12364
G1 X80.573 Y140.857 E9.20547
G1 X82.148 Y138.808 E9.29142
G1 X83.586 Y136.818 E9.37308
G1 X85.012 Y134.726 E9.45729
G1 X86.384 Y132.585 E9.54187
G1 X87.678 Y130.434 E9.62536
G1 X88.927 Y128.221 E9.70988
G1 X90.076 Y126.038 E9.79193
G1 X91.202 Y123.749 E9.87677
G1 X92.237 Y121.483 E9.95963
G1 X93.227 Y119.142 E10.04417
G1 X94.128 Y116.834 E10.12657
G1 X94.997 Y114.409 E10.21225
G1 X95.763 Y112.055 E10.29459
G1 X96.48 Y109.628 E10.37876
G1 X97.13 Y107.178 E10.46306
G1 X97.692 Y104.778 E10.54505
G1 X98.203 Y102.284 E10.62972
G1 X98.641 Y99.794 E10.71381
G1 X99.006 Y97.3 E10.79764
G1 X99.303 Y94.785 E10.88188
G1 X99.525 Y92.305 E10.96469
G1 X99.675 Y89.825 E11.04733
G1 X99.759 Y87.244 E11.13322
G1 X99.775 Y85.537 E11.18999
G1 X99.776 Y69.824 E11.71261
G1 X99.811 Y68.062 E11.77123
G1 X99.912 Y66.065 E11.83773
G1 X100.027 Y64.666 E11.88442
G1 X100.205 Y63.125 E11.93601
G1 X100.358 Y62.032 E11.97272
G1 X100.579 Y60.727 E12.01674
G1 X100.766 Y59.769 E12.04921
G1 X101.051 Y58.49 E12.09279
G1 X101.31 Y57.452 E12.12837
G1 X101.558 Y56.558 E12.15923
G1 X101.954 Y55.276 E12.20386
G1 X102.303 Y54.258 E12.23965
G1 X102.549 Y53.59 E12.26333
G1 X103.185 Y52.051 E12.31871
G1 X103.592 Y51.153 E12.35151
G1 X103.803 Y50.715 E12.36768
G0 F4800 X104.158 Y50.898
G1 F960 X104.449 Y50.334 E12.38879
G1 X105.002 Y49.329 E12.42694
G1 X105.311 Y48.809 E12.44706
G1 X105.89 Y47.904 E12.48279
G1 X106.325 Y47.263 E12.50856
G1 X106.611 Y46.87 E12.52472
G1 X106.991 Y46.381 E12.54532
G1 X107.694 Y45.533 E12.58196
G1 X108.296 Y44.874 E12.61164
G1 X108.796 Y44.371 E12.63523
G1 X109.369 Y43.822 E12.66163
G1 X109.835 Y43.407 E12.68238
G1 X110.169 Y43.135 E12.69671
G1 X110.676 Y42.747 E12.71794
G1 X111.407 Y42.221 E12.74789
G1 X112.413 Y41.587 E12.78744
G1 X112.901 Y41.32 E12.80595
G1 X113.695 Y40.92 E12.83552
G1 X114.521 Y40.554 E12.86557
G1 X115.13 Y40.335 E12.88709
G1 X115.847 Y40.102 E12.91217
G1 X116.442 Y39.923 E12.93283
G1 X117.319 Y39.709 E12.96286
G1 X117.837 Y39.628 E12.98029
G1 X117.912 Y39.609 E12.98287
G1 X118.645 Y39.52 E13.00743
G1 X119.397 Y39.451 E13.03254
G1 X120.333 Y39.412 E13.0637
G1 X121.171 Y39.448 E13.0916
G1 X122.103 Y39.531 E13.12272
G1 X122.484 Y39.575 E13.13548
G1 X123.376 Y39.718 E13.16552
G1 X123.938 Y39.849 E13.18472
G1 X124.679 Y40.058 E13.21032
G1 X125.368 Y40.277 E13.23437
G1 X126.244 Y40.6 E13.26542
G1 X126.792 Y40.85 E13.28546
G1 X127.488 Y41.191 E13.31124
G1 X128.077 Y41.499 E13.33334
G1 X129.095 Y42.118 E13.37297
G1 X129.608 Y42.476 E13.39378
G1 X130.377 Y43.055 E13.42579
G1 X131.082 Y43.638 E13.45622
G1 X131.671 Y44.191 E13.48309
G1 X132.305 Y44.822 E13.51284
G1 X132.917 Y45.49 E13.54297
G1 X133.573 Y46.278 E13.57708
G1 X133.951 Y46.757 E13.59737
G1 X134.293 Y47.216 E13.61641
G1 X134.585 Y47.636 E13.63342
G1 X135.31 Y48.757 E13.67783
G1 X135.615 Y49.271 E13.69771
G1 X136.163 Y50.264 E13.73543
G1 X136.702 Y51.326 E13.77504
G1 X136.918 Y51.794 E13.79218
G1 X137.337 Y52.76 E13.8272
G1 X137.941 Y54.314 E13.88266
G1 X138.231 Y55.136 E13.91165
G1 X138.7 Y56.637 E13.96395
G1 X139.02 Y57.804 E14.0042
G1 X139.33 Y59.097 E14.04842
G1 X139.572 Y60.238 E14.08722
G1 X139.782 Y61.397 E14.12639
G1 X139.947 Y62.423 E14.16096
G1 X140.148 Y63.98 E14.21317
G1 X140.241 Y64.847 E14.24218
G1 X140.352 Y66.251 E14.28902
G1 X140.416 Y67.353 E14.32573
G1 X140.437 Y67.9 E14.34394
G1 X140.475 Y69.531 E14.3982
G1 X140.475 Y100.774 E15.43735
G1 X140.512 Y103.363 E15.52347
G1 X140.621 Y105.931 E15.60896
G1 X140.796 Y108.411 E15.69165
G1 X141.047 Y110.942 E15.77624
G1 X141.368 Y113.45 E15.86034
G1 X141.758 Y115.933 E15.94393
G1 X142.218 Y118.409 E16.0277
G1 X142.759 Y120.922 E16.11319
G1 X143.354 Y123.345 E16.19618
G1 X144.032 Y125.815 E16.28137
G1 X144.764 Y128.204 E16.36447
G1 X145.578 Y130.617 E16.44917
G1 X146.501 Y133.113 E16.53769
G1 X146.957 Y134.294 E16.57979
G1 X147.255 Y135.184 E16.61101
G1 X147.456 Y136.011 E16.63932
G1 X147.604 Y136.969 E16.67156
G1 X147.66 Y137.782 E16.69866
G1 X147.675 Y138.43 E16.72022
G1 X147.676 Y143.042 E16.87362
G1 X147.749 Y145.595 E16.95856
G1 X147.891 Y148.068 E17.04095
G1 X148.11 Y150.638 E17.12674
G1 X148.391 Y153.102 E17.20922
G1 X148.748 Y155.613 E17.29358
G1 X149.173 Y158.084 E17.37697
G1 X149.939 Y161.802 E17.50323
G1 X149.937 Y161.883 E17.50593
G1 X150.085 Y162.749 E17.53515
G1 X150.141 Y163.38 E17.55622
G1 X150.165 Y164.09 E17.57984
G1 X150.068 Y165.537 E17.62808
G1 X149.902 Y166.459 E17.65924
G1 X149.697 Y167.228 E17.68571
G1 X149.479 Y167.905 E17.70936
G1 X149.372 Y168.208 E17.72005
G1 X149.021 Y169.041 E17.75012
G1 X148.563 Y169.905 E17.78264
G1 X147.969 Y170.804 E17.81848
G1 X146.755 Y172.417 E17.88563
G1 X145.268 Y174.49 E17.97048
G1 X144.611 Y175.437 E18.00881
G1 X143.996 Y176.221 E18.04195
G1 X143.436 Y176.823 E18.0693
G1 X142.748 Y177.452 E18.10031
G1 X142.217 Y177.872 E18.12282
G1 X141.791 Y178.178 E18.14027
G1 X141.147 Y178.611 E18.16608
G1 X140.337 Y179.098 E18.19751
G1 X139.215 Y179.624 E18.23873
G1 X138.573 Y179.863 E18.26151
G1 X138.073 Y180.025 E18.279
G1 X136.874 Y180.313 E18.32001
G1 X136.353 Y180.399 E18.33757
G1 X135.443 Y180.514 E18.36808
G1 X134.51 Y180.582 E18.39919
G1 X133.731 Y180.575 E18.4251
G1 X132.834 Y180.528 E18.45498
G1 X131.936 Y180.429 E18.48503
G1 X130.763 Y180.179 E18.52492
G1 X128.866 Y179.64 E18.59051
G1 X127.434 Y179.25 E18.63987
G1 X126.921 Y179.094 E18.65771
G1 X126.607 Y178.983 E18.66878
G1 X125.477 Y178.493 E18.70975
G1 X122.986 Y177.274 E18.80199
G1 X120.729 Y176.248 E18.88445
G1 X118.357 Y175.25 E18.97004
G1 X115.995 Y174.335 E19.05429
G1 X113.618 Y173.49 E19.1382
G1 X111.234 Y172.718 E19.22154
G1 X108.791 Y172.002 E19.30622
G1 X106.351 Y171.362 E19.39012
G1 X103.886 Y170.788 E19.47429
G1 X101.41 Y170.286 E19.55832
G1 X98.914 Y169.852 E19.64259
G1 X96.387 Y169.487 E19.72751
G1 X93.899 Y169.199 E19.81081
G1 X91.386 Y168.979 E19.89471
G1 X88.883 Y168.833 E19.9781
G1 X86.704 Y168.762 E20.05062
G1 X84.849 Y168.722 E20.11233
G1 X84.278 Y168.697 E20.13134
G1 X82.855 Y168.586 E20.17881
G1 X81.461 Y168.439 E20.22543
G1 X80.645 Y168.327 E20.25283
G1 X79.768 Y168.182 E20.28239
G1 X78.357 Y167.895 E20.33028
G1 X77.457 Y167.646 E20.36134
G1 X76.829 Y167.42 E20.38354
G1 X76.05 Y167.091 E20.41167
G1 X75.247 Y166.679 E20.44168
G1 X74.585 Y166.271 E20.46755
G1 X73.83 Y165.715 E20.49873
G1 X73.125 Y165.094 E20.52998
G1 X72.479 Y164.413 E20.5612
G1 X71.899 Y163.685 E20.59216
G1 X71.593 Y163.239 E20.61015
G1 X71.426 Y162.975 E20.62054
G1 X70.968 Y162.155 E20.65178
G1 X70.584 Y161.299 E20.68298
G1 X70.278 Y160.412 E20.71419
G1 X70.052 Y159.501 E20.74541
G1 X69.911 Y158.609 E20.77545
G1 X69.841 Y157.379 E20.81642
G1 X69.881 Y156.477 E20.84645
G1 X70.011 Y155.512 E20.87884
G1 X70.218 Y154.597 E20.91004
G1 X70.505 Y153.704 E20.94124
G1 X70.856 Y152.871 E20.9713
G1 X71.312 Y152.01 E21.00371
G1 X71.803 Y151.253 E21.03372
G1 X72.172 Y150.764 E21.05409
G1 X72.452 Y150.429 E21.06862
G1 X72.929 Y149.91 E21.09206
G1 X74.191 Y148.652 E21.15133
G1 X75.959 Y146.82 E21.23601
G1 X77.659 Y144.957 E21.31989
G1 X79.324 Y143.027 E21.40467
G1 X80.89 Y141.101 E21.48723
G1 X82.465 Y139.052 E21.57319
G1 X83.917 Y137.043 E21.65563
G1 X85.343 Y134.951 E21.73984
G1 X86.721 Y132.801 E21.82478
G1 X88.021 Y130.64 E21.90866
G1 X89.275 Y128.418 E21.99352
G1 X90.435 Y126.215 E22.07633
G1 X91.561 Y123.926 E22.16117
G1 X92.601 Y121.649 E22.24443
G1 X93.6 Y119.287 E22.32973
G1 X94.501 Y116.979 E22.41213
G1 X95.373 Y114.544 E22.49816
G1 X96.147 Y112.168 E22.58127
G1 X96.864 Y109.741 E22.66544
G1 X97.516 Y107.28 E22.75012
G1 X98.084 Y104.858 E22.83286
G1 X98.595 Y102.364 E22.91754
G1 X99.035 Y99.863 E23.002
G1 X99.402 Y97.358 E23.0862
G1 X99.7 Y94.832 E23.1708
G1 X99.923 Y92.341 E23.25398
G1 X100.075 Y89.838 E23.33739
G1 X100.159 Y87.257 E23.42328
G1 X100.175 Y85.541 E23.48035
G1 X100.176 Y69.832 E24.00284
G1 X100.21 Y68.082 E24.06105
G1 X100.311 Y66.098 E24.12713
G1 X100.424 Y64.712 E24.17338
G1 X100.601 Y63.18 E24.22467
G1 X100.752 Y62.099 E24.26098
G1 X100.972 Y60.803 E24.3047
G1 X101.156 Y59.856 E24.33678
G1 X101.439 Y58.587 E24.38003
G1 X101.695 Y57.559 E24.41526
G1 X101.94 Y56.676 E24.44574
G1 X102.332 Y55.406 E24.48995
G1 X102.678 Y54.396 E24.52546
G1 X102.919 Y53.743 E24.54861
G1 X103.549 Y52.216 E24.60355
G1 X103.952 Y51.326 E24.63604
G1 X104.158 Y50.898 E24.65184
G0 F4800 X104.513 Y51.081
G1 F960 X104.799 Y50.527 E24.67258
G1 X105.346 Y49.533 E24.71031
G1 X105.648 Y49.025 E24.72997
G1 X106.221 Y48.129 E24.76535
G1 X106.649 Y47.498 E24.7907
G1 X106.927 Y47.115 E24.80645
G1 X107.299 Y46.636 E24.82662
G1 X107.99 Y45.803 E24.86261
G1 X108.58 Y45.156 E24.89174
G1 X109.073 Y44.66 E24.915
G1 X109.635 Y44.121 E24.9409
G1 X110.101 Y43.706 E24.96165
G1 X110.412 Y43.453 E24.97499
G1 X110.91 Y43.072 E24.99584
G1 X111.641 Y42.546 E25.02579
G1 X112.605 Y41.938 E25.0637
G1 X113.081 Y41.677 E25.08176
G1 X113.857 Y41.286 E25.11066
G1 X114.683 Y40.92 E25.14071
G1 X115.254 Y40.715 E25.16089
G1 X115.962 Y40.485 E25.18565
G1 X116.537 Y40.312 E25.20562
G1 X117.414 Y40.098 E25.23564
G1 X117.962 Y40.013 E25.25409
G1 X117.961 Y40.006 E25.25432
G1 X118.681 Y39.918 E25.27845
G1 X119.414 Y39.851 E25.30293
G1 X120.316 Y39.812 E25.33296
G1 X121.154 Y39.848 E25.36085
G1 X122.057 Y39.928 E25.39101
G1 X122.421 Y39.97 E25.40319
G1 X123.313 Y40.113 E25.43324
G1 X123.83 Y40.234 E25.4509
G1 X124.558 Y40.439 E25.47606
G1 X125.23 Y40.652 E25.4995
G1 X126.078 Y40.964 E25.52955
G1 X126.616 Y41.209 E25.54922
G1 X127.303 Y41.546 E25.57467
G1 X127.869 Y41.841 E25.5959
G1 X128.887 Y42.46 E25.63552
