;FLAVOR:Marlin
;TIME:3403
;Filament used: 1.78534m
;Layer height: 0.2
;MINX:70.012
;MINY:42.186
;MINZ:0.2
;MAXX:149.969
;MAXY:177.827
;MAXZ:8.4
;TARGET_MACHINE.NAME:Creality Ender-3 S1
;Generated with Cura_SteamEngine 5.11.0
; Ender 3 S1 Start G-code
; M413 S0 ; Disable power loss recovery
G92 E0 ; Reset Extruder

; Prep surfaces before auto home for better accuracy
M140 S55.0
M104 S208.0

G28 ; Home all axes
G1 Z10.0 F3000 ; Move Z Axis up little to prevent scratching of Heat Bed
G1 X0 Y0

M190 S55.0
M109 S208.0

G1 X0.1 Y20 Z0.3 F5000.0 ; Move to start position
G1 X0.1 Y200.0 Z0.3 F1500.0 E15 ; Draw the first line
G1 X0.4 Y200.0 Z0.3 F5000.0 ; Move to side a little
G1 X0.4 Y20 Z0.3 F1500.0 E30 ; Draw the second line
G92 E0 ; Reset Extruder
G1 Z2.0 F3000 ; Move Z Axis up little to prevent scratching of Heat Bed
G1 X5 Y20 Z0.3 F5000.0 ; Move over to prevent blob squish

M82 ;absolute extrusion mode
G92 E0
G92 E0
G1 F3000 E-0.8
;LAYER_COUNT:42
;LAYER:0
M107
G0 F4800 X83.787 Y52.305 Z0.2
;TYPE:SKIRT
G1 F3000 E0
G1 F960 X84.219 Y51.619 E0.02696
G1 X84.574 Y51.096 E0.04799
G1 X85.31 Y50.082 E0.08966
G1 X85.673 Y49.612 E0.10941
G1 X86 Y49.241 E0.12586
G1 X86.086 Y49.112 E0.13102
G1 X86.672 Y48.457 E0.16025
G1 X87.272 Y47.826 E0.18921
G1 X87.972 Y47.154 E0.22148
G1 X88.532 Y46.66 E0.24632
G1 X89.166 Y46.13 E0.27381
G1 X89.613 Y45.78 E0.29269
G1 X90.315 Y45.289 E0.32118
G1 X91.298 Y44.664 E0.35992
G1 X92.424 Y44.05 E0.40258
G1 X93.092 Y43.736 E0.42713
G1 X94.06 Y43.317 E0.46221
G1 X94.948 Y43.003 E0.49354
G1 X95.417 Y42.863 E0.50982
G1 X96.486 Y42.585 E0.54656
G1 X97.428 Y42.393 E0.57853
G1 X98.018 Y42.316 E0.59832
G1 X98.675 Y42.248 E0.62029
G1 X99.377 Y42.192 E0.64371
G1 X99.643 Y42.221 E0.65261
G1 X99.955 Y42.384 E0.66432
G1 X100.167 Y42.669 E0.67614
G1 X100.373 Y42.389 E0.6877
G1 X100.522 Y42.287 E0.6937
G1 X100.887 Y42.186 E0.7063
G1 X101.887 Y42.262 E0.73966
G1 X102.346 Y42.309 E0.755
G1 X103.296 Y42.45 E0.78695
G1 X103.873 Y42.578 E0.8066
G1 X104.508 Y42.738 E0.82838
G1 X105.285 Y42.955 E0.85522
G1 X106.403 Y43.341 E0.89455
G1 X107.276 Y43.717 E0.92617
G1 X107.895 Y44.007 E0.9489
G1 X108.936 Y44.571 E0.98828
G1 X109.954 Y45.207 E1.02821
G1 X110.311 Y45.443 E1.04244
G1 X110.789 Y45.781 E1.06191
G1 X111.232 Y46.128 E1.08063
G1 X111.869 Y46.658 E1.10819
G1 X112.383 Y47.11 E1.13095
G1 X113.037 Y47.737 E1.16109
G1 X113.835 Y48.577 E1.19962
G1 X114.209 Y48.992 E1.21821
G1 X114.621 Y49.479 E1.23942
G1 X115.205 Y50.233 E1.27114
G1 X115.706 Y50.921 E1.29945
G1 X116.074 Y51.46 E1.32116
G1 X116.741 Y52.515 E1.36267
G1 X117.077 Y53.081 E1.38456
G1 X117.373 Y53.612 E1.40478
G1 X117.837 Y54.508 E1.43834
G1 X118.419 Y55.725 E1.48321
G1 X118.839 Y56.724 E1.51926
G1 X119.176 Y57.594 E1.55029
G1 X119.611 Y58.82 E1.59355
G1 X119.885 Y59.663 E1.62304
G1 X120.359 Y61.334 E1.68081
G1 X120.613 Y62.381 E1.71664
G1 X120.907 Y63.762 E1.7636
G1 X121.106 Y64.871 E1.80108
G1 X121.311 Y66.268 E1.84804
G1 X121.441 Y67.351 E1.88432
G1 X121.567 Y68.762 E1.93143
G1 X121.63 Y69.68 E1.96204
G1 X121.667 Y70.567 E1.99157
G1 X121.7 Y72.5 E2.05587
G1 X121.7 Y93.897 E2.76754
G1 X121.737 Y96.469 E2.85309
G1 X121.846 Y99.037 E2.93858
G1 X122.019 Y101.495 E3.02053
G1 X122.269 Y104.014 E3.10473
G1 X122.59 Y106.522 E3.18882
G1 X122.976 Y108.983 E3.27168
G1 X123.434 Y111.448 E3.35507
G1 X123.975 Y113.961 E3.44057
G1 X124.565 Y116.362 E3.5228
G1 X125.242 Y118.832 E3.60798
G1 X125.968 Y121.199 E3.69033
G1 X126.779 Y123.601 E3.77465
G1 X127.653 Y125.972 E3.8587
G1 X128.582 Y128.284 E3.94157
G1 X129.591 Y130.603 E4.02568
G1 X130.656 Y132.877 E4.1092
G1 X131.793 Y135.136 E4.19332
G1 X132.976 Y137.324 E4.27605
G1 X134.236 Y139.51 E4.35997
G1 X135.567 Y141.674 E4.44447
G1 X136.941 Y143.774 E4.52793
G1 X138.379 Y145.838 E4.6116
G1 X139.868 Y147.855 E4.69499
G1 X141.44 Y149.861 E4.77975
G1 X143.045 Y151.795 E4.86334
G1 X144.696 Y153.673 E4.94651
G1 X147.016 Y156.155 E5.05951
G1 X147.648 Y156.895 E5.09188
G1 X148.214 Y157.689 E5.12431
G1 X148.705 Y158.529 E5.15667
G1 X149.122 Y159.41 E5.18909
G1 X149.458 Y160.324 E5.22148
G1 X149.713 Y161.264 E5.25387
G1 X149.874 Y162.152 E5.28389
G1 X149.967 Y163.192 E5.31862
G1 X149.969 Y164.095 E5.34865
G1 X149.878 Y165.137 E5.38344
G1 X149.705 Y166.095 E5.41582
G1 X149.447 Y167.035 E5.44824
G1 X149.109 Y167.947 E5.48059
G1 X148.724 Y168.764 E5.51063
G1 X148.195 Y169.665 E5.54538
G1 X147.628 Y170.457 E5.57778
G1 X147.018 Y171.17 E5.60899
G1 X146.296 Y171.875 E5.64255
G1 X145.568 Y172.47 E5.67382
G1 X144.734 Y173.035 E5.70733
G1 X143.882 Y173.508 E5.73974
G1 X142.992 Y173.903 E5.77212
G1 X142.07 Y174.218 E5.80453
G1 X141.115 Y174.452 E5.83723
G1 X139.919 Y174.623 E5.87742
G1 X137.284 Y174.829 E5.96532
G1 X134.76 Y175.091 E6.04972
G1 X132.314 Y175.421 E6.13182
G1 X129.858 Y175.822 E6.21458
G1 X125.519 Y176.668 E6.36162
G1 X124.178 Y176.897 E6.40686
G1 X122.923 Y177.096 E6.44913
G1 X121.788 Y177.263 E6.48728
G1 X120.736 Y177.397 E6.52256
G1 X119.553 Y177.574 E6.56234
G1 X118.409 Y177.717 E6.60069
G1 X117.451 Y177.789 E6.63264
G1 X116.278 Y177.823 E6.67167
G1 X114.914 Y177.827 E6.71704
G1 X114.645 Y177.812 E6.726
G1 X114.546 Y177.818 E6.7293
G1 X113.436 Y177.767 E6.76625
G1 X111.018 Y177.635 E6.8468
G1 X110.234 Y177.603 E6.8729
G1 X108.492 Y177.553 E6.93086
G1 X105.003 Y177.518 E7.04691
G1 X103.537 Y177.447 E7.09573
G1 X102.639 Y177.35 E7.12577
G1 X102.304 Y177.285 E7.13712
G1 X102.244 Y177.283 E7.13911
G1 X101.519 Y177.135 E7.16372
G1 X99.67 Y176.682 E7.22704
G1 X96.843 Y176.045 E7.32342
G1 X95.433 Y175.707 E7.37165
G1 X92.942 Y175.149 E7.45655
G1 X90.425 Y174.658 E7.54185
G1 X87.965 Y174.248 E7.6248
G1 X85.474 Y173.907 E7.70842
G1 X84.491 Y173.787 E7.74136
G1 X83.601 Y173.638 E7.77137
G1 X82.91 Y173.469 E7.79503
G1 X81.924 Y173.191 E7.8291
G1 X80.072 Y172.626 E7.8935
G1 X79.21 Y172.333 E7.92379
G1 X78.329 Y171.944 E7.95582
G1 X77.68 Y171.598 E7.98028
G1 X77.594 Y171.537 E7.98379
G1 X77.206 Y171.318 E7.9986
G1 X76.775 Y171.046 E8.01556
G1 X76.067 Y170.561 E8.0441
G1 X75.609 Y170.21 E8.06329
G1 X75.057 Y169.764 E8.0869
G1 X74.196 Y168.981 E8.1256
G1 X73.475 Y168.181 E8.16142
G1 X73.129 Y167.743 E8.17999
G1 X72.804 Y167.3 E8.19826
G1 X72.405 Y166.686 E8.22262
G1 X72.066 Y166.113 E8.24476
G1 X71.546 Y165.14 E8.28145
G1 X71.21 Y164.41 E8.30818
G1 X70.828 Y163.413 E8.34369
G1 X70.56 Y162.46 E8.37662
G1 X70.227 Y160.952 E8.42798
G1 X70.073 Y159.939 E8.46206
G1 X70.012 Y158.967 E8.49446
G1 X70.039 Y157.983 E8.5272
G1 X70.183 Y156.838 E8.56558
G1 X70.745 Y153.827 E8.66746
G1 X71.145 Y151.27 E8.75354
G1 X71.453 Y148.84 E8.835
G1 X71.705 Y146.288 E8.9203
G1 X71.875 Y143.86 E9.00125
G1 X72.017 Y139.837 E9.13514
G1 X72.112 Y138.76 E9.1711
G1 X72.271 Y137.871 E9.20114
G1 X72.582 Y136.746 E9.23996
G1 X73.228 Y134.987 E9.30228
G1 X74.077 Y132.569 E9.38752
G1 X74.842 Y130.176 E9.47108
G1 X75.543 Y127.755 E9.55491
G1 X76.167 Y125.345 E9.63771
G1 X76.734 Y122.858 E9.72255
G1 X77.22 Y120.422 E9.80517
G1 X77.647 Y117.906 E9.89005
G1 X77.989 Y115.471 E9.97183
G1 X78.278 Y112.897 E10.05798
G1 X78.487 Y110.423 E10.14056
G1 X78.621 Y107.978 E10.222
G1 X78.7 Y104.134 E10.34988
G1 X78.701 Y72.198 E11.41208
G1 X78.715 Y71.219 E11.44464
G1 X78.789 Y69.405 E11.50503
G1 X78.846 Y68.593 E11.5321
G1 X78.965 Y67.283 E11.57585
G1 X79.103 Y66.153 E11.61371
G1 X79.285 Y64.919 E11.6552
G1 X79.51 Y63.682 E11.69702
G1 X79.801 Y62.314 E11.74354
G1 X80.026 Y61.395 E11.77501
G1 X80.304 Y60.371 E11.8103
G1 X80.795 Y58.791 E11.86533
G1 X81.12 Y57.874 E11.89768
G1 X81.589 Y56.666 E11.94078
G1 X81.995 Y55.7 E11.97564
G1 X82.286 Y55.066 E11.99884
G1 X82.687 Y54.264 E12.02866
G1 X83.044 Y53.582 E12.05426
G1 X83.338 Y53.056 E12.07431
G1 X83.787 Y52.305 E12.10341
G1 F3000 E11.30341
G0 F4800 X99.855 Y43.228
G1 F3000 E12.10341
G1 F960 X99.822 Y42.87 E12.11537
G1 X99.733 Y42.716 E12.12128
G1 X99.585 Y42.617 E12.12721
G1 X99.409 Y42.591 E12.13312
G1 X98.707 Y42.647 E12.15655
G1 X98.059 Y42.714 E12.17821
G1 X97.48 Y42.79 E12.19764
G1 X96.566 Y42.977 E12.22866
G1 X95.518 Y43.25 E12.26468
G1 X95.063 Y43.386 E12.28048
G1 X94.219 Y43.684 E12.31025
G1 X93.251 Y44.103 E12.34533
G1 X92.594 Y44.412 E12.36948
G1 X91.513 Y45.002 E12.41044
G1 X90.53 Y45.627 E12.44918
G1 X89.842 Y46.108 E12.47711
G1 X89.413 Y46.445 E12.49525
G1 X88.789 Y46.967 E12.52231
G1 X88.236 Y47.454 E12.54682
G1 X87.562 Y48.102 E12.57791
G1 X86.962 Y48.733 E12.60688
G1 X86.384 Y49.379 E12.63571
G1 X86.324 Y49.478 E12.63956
G1 X85.99 Y49.857 E12.65636
G1 X85.627 Y50.327 E12.67611
G1 X84.898 Y51.331 E12.71738
G1 X84.55 Y51.844 E12.738
G1 X84.125 Y52.518 E12.7645
G1 X83.681 Y53.261 E12.79329
G1 X83.393 Y53.777 E12.81294
G1 X83.042 Y54.449 E12.83816
G1 X82.65 Y55.233 E12.86731
G1 X82.359 Y55.867 E12.89051
G1 X81.958 Y56.821 E12.92493
G1 X81.493 Y58.019 E12.96767
G1 X81.172 Y58.925 E12.99964
G1 X80.686 Y60.49 E13.05415
G1 X80.412 Y61.5 E13.08895
G1 X80.189 Y62.409 E13.12008
G1 X79.901 Y63.765 E13.16619
G1 X79.679 Y64.99 E13.2076
G1 X79.499 Y66.211 E13.24865
G1 X79.362 Y67.332 E13.28621
G1 X79.244 Y68.629 E13.32953
G1 X79.188 Y69.433 E13.35633
G1 X79.115 Y71.235 E13.41632
G1 X79.101 Y72.204 E13.44855
G1 X79.1 Y104.142 E14.51081
G1 X79.021 Y107.986 E14.63869
G1 X78.885 Y110.457 E14.721
G1 X78.676 Y112.942 E14.80394
G1 X78.387 Y115.516 E14.89009
G1 X78.041 Y117.973 E14.97262
G1 X77.612 Y120.5 E15.05787
G1 X77.124 Y122.947 E15.14086
G1 X76.554 Y125.445 E15.22608
G1 X75.927 Y127.866 E15.30926
G1 X75.223 Y130.298 E15.39347
G1 X74.454 Y132.702 E15.47742
G1 X73.603 Y135.125 E15.56283
G1 X72.958 Y136.884 E15.62515
G1 X72.665 Y137.941 E15.66163
G1 X72.506 Y138.83 E15.69166
G1 X72.416 Y139.871 E15.72642
G1 X72.275 Y143.874 E15.85964
G1 X72.103 Y146.327 E15.94143
G1 X71.85 Y148.89 E16.02709
G1 X71.54 Y151.332 E16.10896
G1 X71.138 Y153.9 E16.19541
G1 X70.58 Y156.888 E16.29651
G1 X70.436 Y158.033 E16.3349
G1 X70.412 Y158.977 E16.3663
G1 X70.472 Y159.913 E16.3975
G1 X70.618 Y160.866 E16.42957
G1 X70.951 Y162.374 E16.48093
G1 X71.213 Y163.305 E16.5131
G1 X71.583 Y164.266 E16.54735
G1 X71.899 Y164.951 E16.57244
G1 X72.419 Y165.924 E16.60913
G1 X72.749 Y166.482 E16.63069
G1 X73.127 Y167.063 E16.65375
G1 X73.452 Y167.506 E16.67202
G1 X73.772 Y167.913 E16.68924
G1 X74.493 Y168.713 E16.72506
G1 X75.326 Y169.468 E16.76245
G1 X75.86 Y169.899 E16.78528
G1 X76.31 Y170.243 E16.80412
G1 X77.001 Y170.716 E16.83197
G1 X77.419 Y170.979 E16.8484
G1 X77.825 Y171.208 E16.8639
G1 X77.868 Y171.245 E16.86579
G1 X78.517 Y171.591 E16.89025
G1 X79.371 Y171.967 E16.92128
G1 X80.2 Y172.247 E16.95039
G1 X82.041 Y172.808 E17.0144
G1 X83.019 Y173.084 E17.0482
G1 X83.667 Y173.243 E17.07039
G1 X84.557 Y173.392 E17.1004
G1 X85.523 Y173.51 E17.13277
G1 X88.031 Y173.854 E17.21697
G1 X90.496 Y174.264 E17.30008
G1 X93.019 Y174.756 E17.38558
G1 X95.526 Y175.318 E17.47103
G1 X96.936 Y175.656 E17.51925
G1 X99.758 Y176.292 E17.61547
G1 X101.614 Y176.747 E17.67903
G1 X102.324 Y176.891 E17.70312
G1 X102.353 Y176.887 E17.7041
G1 X102.682 Y176.952 E17.71525
G1 X103.58 Y177.049 E17.74529
G1 X105.022 Y177.118 E17.79331
G1 X108.503 Y177.153 E17.90909
G1 X110.25 Y177.203 E17.96722
G1 X111.034 Y177.235 E17.99332
G1 X113.458 Y177.368 E18.07406
G1 X114.564 Y177.418 E18.11089
G1 X114.635 Y177.411 E18.11326
G1 X114.913 Y177.427 E18.12252
G1 X116.277 Y177.423 E18.16789
G1 X117.439 Y177.389 E18.20655
G1 X118.379 Y177.318 E18.23791
G1 X119.503 Y177.177 E18.27558
G1 X120.677 Y177.001 E18.31507
G1 X121.738 Y176.866 E18.35064
G1 X122.865 Y176.7 E18.38853
G1 X124.115 Y176.502 E18.43062
G1 X125.452 Y176.274 E18.47573
G1 X129.781 Y175.429 E18.62243
G1 X132.25 Y175.026 E18.70564
G1 X134.718 Y174.694 E18.78847
G1 X137.247 Y174.43 E18.87304
G1 X139.888 Y174.224 E18.96114
G1 X141.058 Y174.056 E19.00046
G1 X141.974 Y173.83 E19.03184
G1 X142.862 Y173.525 E19.06307
G1 X143.719 Y173.143 E19.09427
G1 X144.539 Y172.686 E19.1255
G1 X145.315 Y172.16 E19.15668
G1 X146.043 Y171.565 E19.18795
G1 X146.714 Y170.91 E19.21914
G1 X147.324 Y170.197 E19.25035
G1 X147.869 Y169.433 E19.28156
G1 X148.362 Y168.593 E19.31395
G1 X148.747 Y167.776 E19.34399
G1 X149.072 Y166.896 E19.37519
G1 X149.319 Y165.99 E19.40643
G1 X149.484 Y165.067 E19.43761
G1 X149.569 Y164.096 E19.47003
G1 X149.567 Y163.193 E19.50007
G1 X149.48 Y162.223 E19.53246
G1 X149.319 Y161.335 E19.56248
G1 X149.072 Y160.429 E19.59371
G1 X148.747 Y159.549 E19.62491
G1 X148.344 Y158.701 E19.65614
G1 X147.869 Y157.892 E19.68734
G1 X147.323 Y157.128 E19.71857
G1 X146.712 Y156.415 E19.7498
G1 X144.404 Y153.946 E19.86222
G1 X142.737 Y152.05 E19.94618
G1 X141.125 Y150.108 E20.03013
G1 X139.553 Y148.102 E20.11489
G1 X138.057 Y146.076 E20.19866
G1 X136.613 Y144.003 E20.28269
G1 X135.232 Y141.893 E20.36656
G1 X133.895 Y139.72 E20.45142
G1 X132.629 Y137.524 E20.53573
G1 X131.441 Y135.326 E20.61883
G1 X130.299 Y133.057 E20.70331
G1 X129.224 Y130.763 E20.78757
G1 X128.215 Y128.444 E20.87169
G1 X127.282 Y126.121 E20.95495
G1 X126.4 Y123.729 E21.03975
G1 X125.589 Y121.327 E21.12407
G1 X124.857 Y118.938 E21.20717
G1 X124.179 Y116.468 E21.29236
G1 X123.584 Y114.045 E21.37535
G1 X123.043 Y111.532 E21.46085
G1 X122.583 Y109.056 E21.54461
G1 X122.193 Y106.573 E21.6282
G1 X121.872 Y104.065 E21.7123
G1 X121.621 Y101.534 E21.7969
G1 X121.446 Y99.054 E21.87959
G1 X121.337 Y96.486 E21.96507
G1 X121.3 Y93.897 E22.05119
G1 X121.3 Y72.507 E22.76263
G1 X121.267 Y70.574 E22.82693
G1 X121.23 Y69.697 E22.85612
G1 X121.168 Y68.789 E22.88639
G1 X121.043 Y67.387 E22.93321
G1 X120.914 Y66.316 E22.96909
G1 X120.71 Y64.929 E23.01572
G1 X120.513 Y63.833 E23.05275
G1 X120.222 Y62.464 E23.09931
G1 X119.97 Y61.429 E23.13474
G1 X119.5 Y59.772 E23.19202
G1 X119.231 Y58.944 E23.22098
G1 X118.799 Y57.728 E23.2639
G1 X118.466 Y56.868 E23.29457
G1 X118.05 Y55.88 E23.33023
G1 X117.476 Y54.681 E23.37444
G1 X117.018 Y53.796 E23.40758
G1 X116.728 Y53.276 E23.42739
G1 X116.397 Y52.719 E23.44894
G1 X115.736 Y51.674 E23.49006
G1 X115.376 Y51.147 E23.51129
G1 X114.882 Y50.469 E23.53919
G1 X114.305 Y49.724 E23.57053
G1 X113.904 Y49.251 E23.59116
G1 X113.538 Y48.845 E23.60934
G1 X112.76 Y48.026 E23.64691
G1 X112.106 Y47.399 E23.67704
G1 X111.605 Y46.959 E23.69922
G1 X110.976 Y46.435 E23.72645
G1 X110.558 Y46.108 E23.7441
G1 X110.08 Y45.77 E23.76357
G1 X109.733 Y45.54 E23.77742
G1 X108.745 Y44.923 E23.81616
G1 X107.704 Y44.359 E23.85554
G1 X107.106 Y44.079 E23.8775
G1 X106.245 Y43.709 E23.90867
G1 X105.155 Y43.333 E23.94702
G1 X104.401 Y43.123 E23.97305
G1 X103.776 Y42.966 E23.99449
G1 X103.21 Y42.841 E24.01377
G1 X102.288 Y42.705 E24.04476
G1 X101.846 Y42.66 E24.05954
G1 X100.857 Y42.585 E24.09253
G1 X100.668 Y42.659 E24.09928
G1 X100.548 Y42.79 E24.10519
G1 X100.496 Y42.96 E24.1111
G1 X100.502 Y43.222 E24.11982
G0 F4800 X100.877 Y43.238
G1 F960 X100.895 Y42.989 E24.12812
G1 X101.806 Y43.058 E24.15851
G1 X102.23 Y43.101 E24.17268
G1 X103.124 Y43.232 E24.20274
G1 X103.679 Y43.354 E24.22164
G1 X104.294 Y43.508 E24.24272
G1 X105.025 Y43.711 E24.26796
G1 X106.115 Y44.087 E24.30631
G1 X106.936 Y44.441 E24.33604
G1 X107.513 Y44.711 E24.35723
G1 X108.554 Y45.275 E24.39661
G1 X109.512 Y45.873 E24.43417
G1 X109.849 Y46.097 E24.44763
G1 X110.327 Y46.435 E24.4671
G1 X110.72 Y46.742 E24.48369
G1 X111.341 Y47.26 E24.51058
G1 X111.829 Y47.688 E24.53217
G1 X112.47 Y48.302 E24.5617
G1 X113.241 Y49.113 E24.59891
G1 X113.599 Y49.51 E24.61669
G1 X113.989 Y49.969 E24.63673
G1 X114.559 Y50.705 E24.66769
G1 X115.046 Y51.372 E24.69516
G1 X115.398 Y51.888 E24.71593
G1 X116.053 Y52.924 E24.7567
G1 X116.379 Y53.471 E24.77788
G1 X116.663 Y53.98 E24.79727
G1 X117.115 Y54.854 E24.82999
G1 X117.681 Y56.035 E24.87355
G1 X118.093 Y57.013 E24.90885
G1 X118.422 Y57.862 E24.93913
G1 X118.851 Y59.068 E24.98171
G1 X119.115 Y59.881 E25.01014
G1 X119.581 Y61.524 E25.06694
G1 X119.831 Y62.547 E25.10196
G1 X120.119 Y63.904 E25.1481
G1 X120.314 Y64.987 E25.1847
G1 X120.517 Y66.364 E25.231
G1 X120.645 Y67.422 E25.26644
G1 X120.769 Y68.816 E25.31299
G1 X120.83 Y69.714 E25.34293
G1 X120.867 Y70.581 E25.37179
G1 X120.9 Y72.514 E25.43609
G1 X120.9 Y93.897 E26.14729
G1 X120.937 Y96.503 E26.23398
G1 X121.046 Y99.071 E26.31947
