;FLAVOR:Marlin
;TIME:9764
;Filament used: 4.60058m
;Layer height: 0.2
;MINX:16.019
;MINY:52.365
;MINZ:0.2
;MAXX:183.283
;MAXY:173.048
;MAXZ:12.6
;TARGET_MACHINE.NAME:Creality Ender-3 S1
;Generated with Cura_SteamEngine 5.11.0
; Ender 3 S1 Start G-code
; M413 S0 ; Disable power loss recovery
G92 E0 ; Reset Extruder

; Prep surfaces before auto home for better accuracy
M140 S55.0
M104 S208.0

G28 ; Home all axes
G1 Z10.0 F3000 ; Move Z Axis up little to prevent scratching of Heat Bed
G1 X0 Y0

M190 S55.0
M109 S208.0

G1 X0.1 Y20 Z0.3 F5000.0 ; Move to start position
G1 X0.1 Y200.0 Z0.3 F1500.0 E15 ; Draw the first line
G1 X0.4 Y200.0 Z0.3 F5000.0 ; Move to side a little
G1 X0.4 Y20 Z0.3 F1500.0 E30 ; Draw the second line
G92 E0 ; Reset Extruder
G1 Z2.0 F3000 ; Move Z Axis up little to prevent scratching of Heat Bed
G1 X5 Y20 Z0.3 F5000.0 ; Move over to prevent blob squish

M82 ;absolute extrusion mode
G92 E0
G92 E0
G1 F3000 E-0.8
;LAYER_COUNT:63
;LAYER:0
M107
G0 F4800 X93.569 Y53.218 Z0.2
;TYPE:SKIRT
G1 F3000 E0
G1 F960 X93.472 Y52.874 E0.01189
G1 X93.248 Y52.564 E0.02461
G1 X92.938 Y52.394 E0.03637
G1 X92.761 Y52.365 E0.04233
G1 X92.497 Y52.391 E0.05116
G1 X89.459 Y53.279 E0.15643
G1 X87.01 Y53.915 E0.24058
G1 X84.58 Y54.474 E0.32352
G1 X82.087 Y54.973 E0.40808
G1 X79.643 Y55.391 E0.49055
G1 X77.104 Y55.752 E0.57584
G1 X74.646 Y56.032 E0.65813
G1 X72.092 Y56.247 E0.74337
G1 X69.802 Y56.377 E0.81966
G1 X68.656 Y56.457 E0.85787
G1 X65.259 Y56.744 E0.97126
G1 X64.023 Y56.872 E1.01259
G1 X62.648 Y57.106 E1.05898
G1 X61.746 Y57.359 E1.09014
G1 X61.381 Y57.495 E1.10309
G1 X61.299 Y57.515 E1.1059
G1 X60.835 Y57.689 E1.12238
G1 X60.357 Y57.882 E1.13953
G1 X59.441 Y58.325 E1.17337
G1 X58.604 Y58.827 E1.20583
G1 X57.866 Y59.36 E1.23611
G1 X57.18 Y59.948 E1.26616
G1 X54.495 Y62.484 E1.389
G1 X52.666 Y64.105 E1.47029
G1 X50.729 Y65.723 E1.55423
G1 X48.758 Y67.278 E1.63773
G1 X46.724 Y68.791 E1.72205
G1 X44.647 Y70.246 E1.80639
G1 X42.581 Y71.609 E1.88871
G1 X40.415 Y72.952 E1.97348
G1 X38.242 Y74.215 E2.05707
G1 X36.038 Y75.414 E2.14053
G1 X33.784 Y76.558 E2.2246
G1 X31.456 Y77.659 E2.31025
G1 X30.619 Y78.027 E2.34066
G1 X29.238 Y78.659 E2.39117
G1 X28.569 Y79.01 E2.4163
G1 X27.52 Y79.585 E2.45609
G1 X25.283 Y80.743 E2.53987
G1 X22.819 Y81.938 E2.63095
G1 X22.014 Y82.389 E2.66164
G1 X21.21 Y82.935 E2.69397
G1 X20.517 Y83.495 E2.7236
G1 X20.132 Y83.845 E2.74091
G1 X19.345 Y84.656 E2.77849
G1 X18.71 Y85.453 E2.81239
G1 X18.193 Y86.235 E2.84357
G1 X17.948 Y86.644 E2.85942
G1 X17.43 Y87.569 E2.89468
G1 X17.178 Y88.051 E2.91278
G1 X16.813 Y88.877 E2.94281
G1 X16.489 Y89.825 E2.97613
G1 X16.325 Y90.443 E2.9974
G1 X16.167 Y91.233 E3.02419
G1 X16.041 Y92.38 E3.06257
G1 X16.021 Y92.985 E3.08271
G1 X16.019 Y93.637 E3.10439
G1 X16.036 Y95.14 E3.15439
G1 X16.055 Y95.882 E3.17907
G1 X16.116 Y96.788 E3.20927
G1 X16.251 Y97.681 E3.23931
G1 X16.478 Y98.627 E3.27167
G1 X16.788 Y99.55 E3.30405
G1 X17.009 Y100.1 E3.32377
G1 X17.584 Y101.258 E3.36677
G1 X17.986 Y101.911 E3.39228
G1 X18.821 Y103.163 E3.44233
G1 X19.474 Y104.117 E3.48078
G1 X20.834 Y106.26 E3.5652
G1 X21.586 Y107.482 E3.61292
G1 X21.829 Y107.858 E3.62781
G1 X22.271 Y108.484 E3.6533
G1 X22.971 Y109.323 E3.68964
G1 X23.663 Y110.012 E3.72212
G1 X25.763 Y111.953 E3.81723
G1 X26.781 Y112.921 E3.86396
G1 X27.251 Y113.337 E3.88483
G1 X27.744 Y113.734 E3.90588
G1 X28.769 Y114.432 E3.94713
G1 X29.427 Y114.825 E3.97262
G1 X33.709 Y117.298 E4.13709
G1 X34.395 Y117.68 E4.1632
G1 X34.928 Y117.959 E4.18321
G1 X35.958 Y118.454 E4.22122
G1 X36.842 Y118.824 E4.25309
G1 X37.37 Y119.013 E4.27175
G1 X38.17 Y119.276 E4.29976
G1 X39.123 Y119.543 E4.33267
G1 X39.659 Y119.661 E4.35093
G1 X40.461 Y119.817 E4.3781
G1 X41.399 Y119.957 E4.40965
G1 X41.805 Y119.999 E4.42322
G1 X42.57 Y120.059 E4.44874
G1 X43.541 Y120.086 E4.48105
G1 X44.51 Y120.061 E4.51329
G1 X45.328 Y120.013 E4.54054
G1 X46.872 Y119.886 E4.59207
G1 X47.955 Y119.781 E4.62826
G1 X50.411 Y119.617 E4.71013
G1 X52.952 Y119.519 E4.79471
G1 X55.45 Y119.493 E4.8778
G1 X57.954 Y119.538 E4.96109
G1 X60.483 Y119.655 E5.0453
G1 X63.024 Y119.846 E5.13005
G1 X65.498 Y120.101 E5.21277
G1 X67.986 Y120.429 E5.29624
G1 X70.466 Y120.827 E5.37978
G1 X72.968 Y121.303 E5.46449
G1 X75.431 Y121.843 E5.54835
G1 X77.852 Y122.447 E5.63134
G1 X80.306 Y123.133 E5.71609
G1 X82.689 Y123.872 E5.79908
G1 X85.065 Y124.684 E5.88259
G1 X87.417 Y125.563 E5.9661
G1 X89.768 Y126.518 E6.0505
G1 X92.048 Y127.519 E6.13332
G1 X94.333 Y128.601 E6.21741
G1 X96.607 Y129.758 E6.30227
G1 X98.782 Y130.945 E6.38468
G1 X101.016 Y132.244 E6.47064
G1 X113.914 Y139.992 E6.97108
G1 X114.256 Y140.205 E6.98448
G1 X138.672 Y154.877 E7.9319
G1 X165.612 Y171.081 E8.97752
G1 X166.442 Y171.564 E9.00946
G1 X167.015 Y171.874 E9.03113
G1 X167.893 Y172.268 E9.06314
G1 X168.811 Y172.589 E9.09549
G1 X169.756 Y172.826 E9.12789
G1 X170.716 Y172.98 E9.16023
G1 X171.689 Y173.048 E9.19267
G1 X172.713 Y173.027 E9.22673
G1 X173.506 Y172.959 E9.25321
G1 X174.601 Y172.78 E9.29011
G1 X175.549 Y172.532 E9.3227
G1 X176.466 Y172.201 E9.35513
G1 X177.413 Y171.759 E9.38989
G1 X178.194 Y171.306 E9.41992
G1 X178.99 Y170.748 E9.45225
G1 X179.736 Y170.121 E9.48466
G1 X180.422 Y169.431 E9.51702
G1 X181.046 Y168.683 E9.54942
G1 X181.6 Y167.881 E9.58184
G1 X182.081 Y167.035 E9.61421
G1 X182.514 Y166.082 E9.64902
G1 X182.812 Y165.23 E9.67904
G1 X183.054 Y164.287 E9.71143
G1 X183.211 Y163.326 E9.74381
G1 X183.283 Y162.355 E9.7762
G1 X183.269 Y161.382 E9.80856
G1 X183.17 Y160.414 E9.84093
G1 X182.984 Y159.456 E9.87338
G1 X182.693 Y158.452 E9.90815
G1 X182.364 Y157.611 E9.93819
G1 X182.19 Y157.217 E9.95251
G1 X181.865 Y156.547 E9.97728
G1 X181.378 Y155.712 E10.00943
G1 X180.816 Y154.917 E10.04181
G1 X180.185 Y154.175 E10.07421
G1 X179.491 Y153.492 E10.10659
G1 X178.739 Y152.872 E10.13901
G1 X178.165 Y152.443 E10.16285
G1 X153.705 Y134.748 E11.16695
G1 X151.037 Y132.746 E11.27789
G1 X149.134 Y131.22 E11.35902
G1 X147.174 Y129.555 E11.44456
G1 X145.328 Y127.897 E11.52709
G1 X143.48 Y126.137 E11.61197
G1 X141.719 Y124.362 E11.69513
G1 X139.984 Y122.512 E11.77949
G1 X138.339 Y120.659 E11.8619
G1 X136.702 Y118.701 E11.94679
G1 X135.147 Y116.733 E12.03021
G1 X133.644 Y114.715 E12.1139
G1 X132.207 Y112.668 E12.19708
G1 X130.802 Y110.543 E12.28181
G1 X129.478 Y108.41 E12.36531
G1 X128.216 Y106.242 E12.44875
G1 X127.023 Y104.052 E12.53169
G1 X125.867 Y101.78 E12.61648
G1 X124.781 Y99.486 E12.7009
G1 X123.789 Y97.233 E12.78277
G1 X122.838 Y94.891 E12.86685
G1 X121.943 Y92.495 E12.95192
G1 X121.143 Y90.16 E13.03401
G1 X120.388 Y87.723 E13.11887
G1 X119.708 Y85.294 E13.20276
G1 X119.107 Y82.878 E13.28557
G1 X118.569 Y80.43 E13.36893
G1 X118.089 Y77.906 E13.45438
G1 X117.692 Y75.437 E13.53756
G1 X117.346 Y72.808 E13.62575
G1 X117.156 Y71.773 E13.66075
G1 X116.943 Y70.863 E13.69184
G1 X116.402 Y68.693 E13.76622
G1 X116.113 Y67.612 E13.80344
G1 X115.918 Y66.962 E13.82601
G1 X115.571 Y66.062 E13.85809
G1 X115.143 Y65.188 E13.89046
G1 X114.639 Y64.355 E13.92284
G1 X114.063 Y63.569 E13.95525
G1 X113.421 Y62.838 E13.98761
G1 X112.688 Y62.142 E14.02123
G1 X111.952 Y61.559 E14.05246
G1 X111.239 Y61.045 E14.08169
G1 X109.081 Y59.534 E14.16931
G1 X106.143 Y57.39 E14.29028
G1 X104.154 Y55.832 E14.37432
G1 X102.687 Y54.641 E14.43716
G1 X102.216 Y54.277 E14.45696
G1 X101.728 Y53.929 E14.4769
G1 X101.324 Y53.666 E14.49293
G1 X100.952 Y53.58 E14.50563
G1 X100.606 Y53.657 E14.51742
G1 X100.421 Y53.79 E14.525
G1 X100.112 Y54.188 E14.54176
G0 F4800 X100.473 Y54.381
G1 F960 X100.737 Y54.035 E14.55623
G1 X100.905 Y53.977 E14.56214
G1 X101.106 Y54.001 E14.56888
G1 X101.496 Y54.255 E14.58436
G1 X101.972 Y54.594 E14.60379
G1 X102.435 Y54.951 E14.62324
G1 X103.907 Y56.147 E14.68632
G1 X105.896 Y57.705 E14.77035
G1 X108.852 Y59.862 E14.89206
G1 X111.005 Y61.369 E14.97947
G1 X111.704 Y61.873 E15.00813
G1 X112.413 Y62.433 E15.03818
G1 X113.121 Y63.103 E15.0706
G1 X113.741 Y63.806 E15.10178
G1 X114.297 Y64.562 E15.13299
G1 X114.784 Y65.365 E15.16423
G1 X115.198 Y66.206 E15.19541
G1 X115.535 Y67.077 E15.22647
G1 X115.727 Y67.715 E15.24863
G1 X116.014 Y68.79 E15.28564
G1 X116.554 Y70.954 E15.35982
G1 X116.763 Y71.845 E15.39026
G1 X116.949 Y72.86 E15.42458
G1 X117.297 Y75.501 E15.51318
G1 X117.696 Y77.981 E15.59672
G1 X118.178 Y80.516 E15.68255
G1 X118.716 Y82.964 E15.76591
G1 X119.323 Y85.402 E15.84948
G1 X120.006 Y87.841 E15.93372
G1 X120.765 Y90.29 E16.01899
G1 X121.568 Y92.635 E16.10144
G1 X122.467 Y95.041 E16.18686
G1 X123.418 Y97.383 E16.27094
G1 X124.419 Y99.657 E16.35357
G1 X125.51 Y101.961 E16.43836
G1 X126.666 Y104.233 E16.52315
G1 X127.87 Y106.443 E16.60685
G1 X129.138 Y108.621 E16.69068
G1 X130.468 Y110.764 E16.77456
G1 X131.873 Y112.889 E16.85929
G1 X133.323 Y114.954 E16.94322
G1 X134.833 Y116.981 E17.02728
G1 X136.395 Y118.958 E17.11109
G1 X138.033 Y120.916 E17.19599
G1 X139.692 Y122.786 E17.27914
G1 X141.435 Y124.644 E17.36387
G1 X143.204 Y126.427 E17.44741
G1 X145.052 Y128.187 E17.53229
G1 X146.915 Y129.86 E17.61557
G1 X148.875 Y131.525 E17.70111
G1 X150.797 Y133.066 E17.78304
G1 X153.465 Y135.068 E17.89399
G1 X177.926 Y152.764 E18.89814
G1 X178.485 Y153.181 E18.92133
G1 X179.211 Y153.777 E18.95257
G1 X179.881 Y154.435 E18.98381
G1 X180.49 Y155.149 E19.01502
G1 X181.033 Y155.914 E19.04622
G1 X181.505 Y156.721 E19.07732
G1 X181.824 Y157.379 E19.10164
G1 X181.991 Y157.757 E19.11538
G1 X182.32 Y158.598 E19.14542
G1 X182.591 Y159.533 E19.1778
G1 X182.772 Y160.455 E19.20905
G1 X182.869 Y161.388 E19.24025
G1 X182.884 Y162.326 E19.27145
G1 X182.816 Y163.262 E19.30266
G1 X182.666 Y164.188 E19.33386
G1 X182.434 Y165.098 E19.3651
G1 X182.136 Y165.95 E19.39512
G1 X181.733 Y166.838 E19.42755
G1 X181.271 Y167.654 E19.45874
G1 X180.738 Y168.427 E19.48997
G1 X180.138 Y169.149 E19.5212
G1 X179.478 Y169.815 E19.55238
G1 X178.76 Y170.421 E19.58363
G1 X177.993 Y170.96 E19.61481
G1 X177.212 Y171.413 E19.64484
G1 X176.33 Y171.825 E19.67722
G1 X175.447 Y172.145 E19.70846
G1 X174.536 Y172.385 E19.73979
G1 X173.472 Y172.56 E19.77565
G1 X172.679 Y172.628 E19.80213
G1 X171.716 Y172.649 E19.83416
G1 X170.779 Y172.585 E19.8654
G1 X169.853 Y172.438 E19.89659
G1 X168.942 Y172.211 E19.92781
G1 X168.056 Y171.903 E19.95901
G1 X167.205 Y171.522 E19.99002
G1 X166.643 Y171.218 E20.01127
G1 X165.818 Y170.738 E20.04302
G1 X138.878 Y154.534 E21.08864
G1 X114.467 Y139.865 E22.03587
G1 X114.125 Y139.652 E22.04927
G1 X101.222 Y131.901 E22.54991
G1 X98.983 Y130.599 E22.63605
G1 X96.788 Y129.401 E22.71923
G1 X94.504 Y128.239 E22.80446
G1 X92.219 Y127.157 E22.88855
G1 X89.919 Y126.147 E22.9721
G1 X87.568 Y125.192 E23.0565
G1 X85.194 Y124.305 E23.14079
G1 X82.818 Y123.493 E23.2243
G1 X80.414 Y122.748 E23.30801
G1 X77.949 Y122.059 E23.39314
G1 X75.517 Y121.452 E23.47651
G1 X73.054 Y120.912 E23.56037
G1 X70.541 Y120.434 E23.64545
G1 X68.038 Y120.032 E23.72977
G1 X65.55 Y119.704 E23.81324
G1 X63.059 Y119.447 E23.89653
G1 X60.501 Y119.255 E23.98185
G1 X57.972 Y119.138 E24.06605
G1 X55.453 Y119.093 E24.14985
G1 X52.937 Y119.119 E24.23354
G1 X50.396 Y119.217 E24.31811
G1 X47.922 Y119.382 E24.40058
G1 X46.851 Y119.487 E24.43637
G1 X46.627 Y119.499 E24.44383
G1 X45.305 Y119.614 E24.48797
G1 X44.499 Y119.661 E24.51482
G1 X43.552 Y119.686 E24.54633
G1 X42.601 Y119.66 E24.57797
G1 X41.846 Y119.601 E24.60316
G1 X41.458 Y119.561 E24.61614
G1 X40.537 Y119.424 E24.6471
G1 X39.745 Y119.27 E24.67394
G1 X39.209 Y119.152 E24.69219
G1 X38.295 Y118.896 E24.72376
G1 X37.504 Y118.636 E24.75146
G1 X36.996 Y118.455 E24.76939
G1 X36.131 Y118.093 E24.80058
G1 X35.101 Y117.598 E24.83859
G1 X34.589 Y117.33 E24.85781
G1 X33.909 Y116.952 E24.88369
G1 X29.632 Y114.482 E25.04796
G1 X28.994 Y114.101 E25.07268
G1 X27.995 Y113.422 E25.11285
G1 X27.502 Y113.025 E25.1339
G1 X27.057 Y112.631 E25.15367
G1 X26.039 Y111.663 E25.20039
G1 X23.945 Y109.728 E25.29522
G1 X23.278 Y109.066 E25.32648
G1 X22.598 Y108.253 E25.36173
G1 X22.165 Y107.641 E25.38667
G1 X21.927 Y107.272 E25.40127
G1 X21.175 Y106.05 E25.44899
G1 X19.812 Y103.903 E25.53358
G1 X19.154 Y102.941 E25.57234
G1 X18.319 Y101.689 E25.6224
G1 X18.307 Y101.656 E25.62356
G1 X17.923 Y101.045 E25.64757
G1 X17.38 Y99.951 E25.68819
G1 X17.167 Y99.422 E25.70716
G1 X16.867 Y98.533 E25.73836
G1 X16.647 Y97.621 E25.76957
G1 X16.512 Y96.728 E25.79961
G1 X16.455 Y95.872 E25.82814
G1 X16.436 Y95.135 E25.85266
G1 X16.419 Y93.638 E25.90245
G1 X16.421 Y92.998 E25.92374
G1 X16.439 Y92.424 E25.94284
G1 X16.565 Y91.277 E25.98122
G1 X16.712 Y90.545 E26.00605
G1 X16.868 Y89.954 E26.02638
G1 X17.179 Y89.039 E26.05852
G1 X17.544 Y88.213 E26.08856
G1 X17.779 Y87.764 E26.10542
G1 X18.291 Y86.85 E26.14026
G1 X18.527 Y86.456 E26.15554
G1 X19.044 Y85.674 E26.18672
G1 X19.632 Y84.935 E26.21813
G1 X20.419 Y84.124 E26.25571
G1 X20.769 Y83.806 E26.27144
G1 X21.435 Y83.266 E26.29996
G1 X22.21 Y82.738 E26.33115
G1 X22.994 Y82.298 E26.36105
G1 X25.458 Y81.103 E26.45213
G1 X27.712 Y79.936 E26.53655
G1 X28.755 Y79.364 E26.57612
G1 X29.405 Y79.023 E26.60053
G1 X30.78 Y78.393 E26.65084
G1 X31.627 Y78.021 E26.68161
G1 X33.955 Y76.92 E26.76726
G1 X36.219 Y75.771 E26.8517
G1 X38.443 Y74.561 E26.93591
G1 X40.616 Y73.298 E27.01951
G1 X42.792 Y71.949 E27.10466
G1 X44.877 Y70.574 E27.18773
G1 X46.954 Y69.119 E27.27207
G1 X48.997 Y67.599 E27.35677
G1 X50.977 Y66.037 E27.44065
G1 X52.922 Y64.412 E27.52495
G1 X54.77 Y62.775 E27.60706
G1 X57.44 Y60.252 E27.72924
G1 X58.126 Y59.664 E27.75929
G1 X58.81 Y59.17 E27.78735
G1 X59.615 Y58.685 E27.81861
G1 X60.507 Y58.253 E27.85158
G1 X60.975 Y58.064 E27.86836
G1 X61.439 Y57.89 E27.88485
G1 X61.484 Y57.884 E27.88636
G1 X61.886 Y57.734 E27.90063
G1 X62.756 Y57.491 E27.93067
G1 X64.064 Y57.27 E27.97479
G1 X65.293 Y57.143 E28.01589
G1 X68.684 Y56.856 E28.12907
G1 X69.825 Y56.776 E28.16712
G1 X72.126 Y56.646 E28.24377
G1 X74.68 Y56.43 E28.32902
G1 X77.16 Y56.148 E28.41204
G1 X79.699 Y55.787 E28.49733
G1 X82.161 Y55.366 E28.58041
G1 X84.67 Y54.864 E28.66551
G1 X87.1 Y54.305 E28.74844
G1 X89.567 Y53.664 E28.83322
G1 X92.609 Y52.775 E28.93863
G1 X92.786 Y52.764 E28.94453
G1 X92.951 Y52.832 E28.95047
G1 X93.087 Y52.983 E28.95722
G1 X93.175 Y53.307 E28.96839
G0 F4800 X92.789 Y53.4
G1 F960 X92.721 Y53.159 E28.97672
G1 X89.675 Y54.049 E29.08227
G1 X87.19 Y54.695 E29.16766
G1 X84.76 Y55.254 E29.2506
G1 X82.235 Y55.759 E29.33624
G1 X79.755 Y56.183 E29.41993
G1 X77.216 Y56.544 E29.50522
G1 X74.714 Y56.828 E29.58897
G1 X72.16 Y57.045 E29.67423
G1 X69.847 Y57.175 E29.75128
G1 X68.712 Y57.255 E29.78912
G1 X65.327 Y57.542 E29.90211
G1 X64.105 Y57.668 E29.94297
G1 X62.864 Y57.876 E29.98482
G1 X61.994 Y58.119 E30.01487
G1 X61.583 Y58.274 E30.02948
G1 X61.579 Y58.265 E30.0298
G1 X61.115 Y58.439 E30.04629
G1 X60.657 Y58.624 E30.06271
G1 X59.79 Y59.045 E30.09477
G1 X59.017 Y59.512 E30.12481
G1 X58.386 Y59.968 E30.1507
G1 X57.7 Y60.556 E30.18075
G1 X55.045 Y63.066 E30.30227
G1 X53.178 Y64.719 E30.38521
G1 X51.225 Y66.351 E30.46986
G1 X49.236 Y67.92 E30.55412
G1 X47.184 Y69.447 E30.6392
G1 X45.107 Y70.902 E30.72354
G1 X43.003 Y72.289 E30.80736
G1 X40.817 Y73.644 E30.8929
G1 X38.644 Y74.907 E30.97649
G1 X36.4 Y76.128 E31.06146
G1 X34.126 Y77.282 E31.14628
G1 X31.798 Y78.383 E31.23193
G1 X30.941 Y78.759 E31.26306
G1 X29.572 Y79.387 E31.31315
G1 X28.941 Y79.718 E31.33685
G1 X27.904 Y80.287 E31.37619
G1 X25.633 Y81.463 E31.46125
G1 X23.169 Y82.658 E31.55234
G1 X22.406 Y83.087 E31.58145
G1 X21.66 Y83.596 E31.61149
G1 X21.038 Y84.102 E31.63816
G1 X20.706 Y84.403 E31.65306
G1 X19.919 Y85.214 E31.69065
G1 X19.358 Y85.922 E31.72069
G1 X18.861 Y86.676 E31.75073
G1 X18.635 Y87.055 E31.76541
G1 X18.128 Y87.96 E31.79991
G1 X17.91 Y88.375 E31.8155
G1 X17.545 Y89.201 E31.84554
G1 X17.255 Y90.056 E31.87556
G1 X17.099 Y90.647 E31.89589
G1 X16.963 Y91.321 E31.91876
G1 X16.837 Y92.468 E31.95714
G1 X16.821 Y93.01 E31.97518
G1 X16.819 Y93.639 E31.9961
G1 X16.836 Y95.13 E32.04569
G1 X16.855 Y95.862 E32.07005
G1 X16.908 Y96.668 E32.09691
G1 X17.043 Y97.561 E32.12695
G1 X17.256 Y98.439 E32.157
G1 X17.546 Y99.294 E32.18703
G1 X17.751 Y99.801 E32.20522
G1 X18.281 Y100.867 E32.24481
G1 X18.657 Y101.463 E32.26825
