;FLAVOR:Marlin
;TIME:6945
;Filament used: 3.66897m
;Layer height: 0.2
;MINX:27.281
;MINY:83.532
;MINZ:0.2
;MAXX:192.722
;MAXY:137.151
;MAXZ:10
;TARGET_MACHINE.NAME:Creality Ender-3 S1
;Generated with Cura_SteamEngine 5.11.0
; Ender 3 S1 Start G-code
; M413 S0 ; Disable power loss recovery
G92 E0 ; Reset Extruder

; Prep surfaces before auto home for better accuracy
M140 S55.0
M104 S208.0

G28 ; Home all axes
G1 Z10.0 F3000 ; Move Z Axis up little to prevent scratching of Heat Bed
G1 X0 Y0

M190 S55.0
M109 S208.0

G1 X0.1 Y20 Z0.3 F5000.0 ; Move to start position
G1 X0.1 Y200.0 Z0.3 F1500.0 E15 ; Draw the first line
G1 X0.4 Y200.0 Z0.3 F5000.0 ; Move to side a little
G1 X0.4 Y20 Z0.3 F1500.0 E30 ; Draw the second line
G92 E0 ; Reset Extruder
G1 Z2.0 F3000 ; Move Z Axis up little to prevent scratching of Heat Bed
G1 X5 Y20 Z0.3 F5000.0 ; Move over to prevent blob squish

M82 ;absolute extrusion mode
G92 E0
G92 E0
G1 F2700 E-0.8
;LAYER_COUNT:50
;LAYER:0
M107
G0 F6000 X53.719 Y96.224 Z0.2
;TYPE:SKIRT
G1 F2700 E0
G1 F960 X55.483 Y95.277 E0.06659
G1 X57.711 Y94.141 E0.14977
G1 X59.492 Y93.277 E0.21561
G1 X61.801 Y92.218 E0.3001
G1 X63.878 Y91.315 E0.37543
G1 X64.652 Y90.991 E0.40334
G1 X65.244 Y90.766 E0.4244
G1 X66.224 Y90.429 E0.45887
G1 X66.71 Y90.276 E0.47581
G1 X67.638 Y90.028 E0.50776
G1 X68.713 Y89.82 E0.54418
G1 X69.318 Y89.722 E0.56457
G1 X70.267 Y89.611 E0.59634
G1 X71.096 Y89.564 E0.62396
G1 X72.232 Y89.538 E0.66175
G1 X72.873 Y89.541 E0.68307
G1 X75.493 Y89.517 E0.77022
G1 X78.025 Y89.423 E0.85449
G1 X80.527 Y89.26 E0.93789
G1 X83.021 Y89.025 E1.0212
G1 X85.513 Y88.719 E1.10471
G1 X88.007 Y88.34 E1.18861
G1 X90.521 Y87.889 E1.27356
G1 X92.904 Y87.388 E1.35456
G1 X95.419 Y86.784 E1.44058
G1 X97.843 Y86.132 E1.52407
G1 X100.237 Y85.412 E1.60722
G1 X101.79 Y84.9 E1.66161
G1 X103.064 Y84.506 E1.70596
G1 X103.82 Y84.3 E1.73202
G1 X104.352 Y84.174 E1.75021
G1 X105.165 Y84 E1.77786
G1 X106.09 Y83.833 E1.80912
G1 X107.22 Y83.686 E1.84702
G1 X108.111 Y83.601 E1.87679
G1 X109.037 Y83.546 E1.90765
G1 X110.101 Y83.532 E1.94304
G1 X111.018 Y83.55 E1.97354
G1 X111.878 Y83.597 E2.00219
G1 X112.735 Y83.68 E2.03083
G1 X113.586 Y83.786 E2.05935
G1 X114.631 Y83.956 E2.09456
G1 X115.582 Y84.16 E2.12691
G1 X116.77 Y84.454 E2.16762
G1 X117.258 Y84.595 E2.18451
G1 X120.194 Y85.553 E2.28723
G1 X122.593 Y86.26 E2.37042
G1 X125.054 Y86.912 E2.45509
G1 X127.456 Y87.473 E2.53713
G1 X129.968 Y87.985 E2.6224
G1 X132.413 Y88.414 E2.70496
G1 X134.954 Y88.785 E2.79037
G1 X137.424 Y89.076 E2.87309
G1 X139.901 Y89.296 E2.9558
G1 X142.44 Y89.448 E3.0404
G1 X144.982 Y89.529 E3.12499
G1 X147.109 Y89.542 E3.19574
G1 X147.744 Y89.538 E3.21686
G1 X148.67 Y89.555 E3.24766
G1 X149.465 Y89.591 E3.27413
G1 X149.55 Y89.605 E3.277
G1 X149.886 Y89.621 E3.28819
G1 X150.734 Y89.73 E3.31662
G1 X151.553 Y89.868 E3.34425
G1 X152.113 Y89.977 E3.36322
G1 X153.311 Y90.291 E3.40441
G1 X154.113 Y90.538 E3.43232
G1 X154.63 Y90.717 E3.45052
G1 X155.213 Y90.94 E3.47128
G1 X156.231 Y91.362 E3.50793
G1 X158.401 Y92.31 E3.5867
G1 X160.522 Y93.285 E3.66434
G1 X162.304 Y94.149 E3.73021
G1 X164.531 Y95.284 E3.81334
G1 X166.295 Y96.23 E3.87992
G1 X168.469 Y97.455 E3.96291
G1 X170.368 Y98.579 E4.03631
G1 X172.137 Y99.672 E4.10547
G1 X173.979 Y100.863 E4.17843
G1 X176.076 Y102.281 E4.26262
G1 X177.686 Y103.42 E4.32822
G1 X179.543 Y104.788 E4.40493
G1 X181.431 Y106.243 E4.48421
G1 X183.075 Y107.564 E4.55435
G1 X184.807 Y109.014 E4.62948
G1 X186.618 Y110.596 E4.70946
G1 X188.441 Y112.257 E4.79149
G1 X188.97 Y112.752 E4.81559
G1 X189.825 Y113.653 E4.8569
G1 X190.027 Y113.894 E4.86736
G1 X190.62 Y114.667 E4.89976
G1 X191.123 Y115.458 E4.93094
G1 X191.563 Y116.3 E4.96254
G1 X191.867 Y116.994 E4.98774
G1 X192.287 Y118.211 E5.03056
G1 X192.536 Y119.307 E5.06794
G1 X192.66 Y120.183 E5.09737
G1 X192.713 Y120.794 E5.11776
G1 X192.722 Y121.844 E5.15269
G1 X192.589 Y123.191 E5.19771
G1 X192.474 Y123.815 E5.21881
G1 X192.358 Y124.328 E5.23631
G1 X192.065 Y125.312 E5.27045
G1 X191.71 Y126.202 E5.30232
G1 X191.494 Y126.653 E5.31896
G1 X191.237 Y127.145 E5.33742
G1 X190.738 Y127.982 E5.36983
G1 X190.211 Y128.714 E5.39983
G1 X189.392 Y129.643 E5.44102
G1 X188.72 Y130.285 E5.47193
G1 X188.025 Y130.862 E5.50197
G1 X187.166 Y131.455 E5.53669
G1 X186.352 Y131.916 E5.56781
G1 X185.618 Y132.257 E5.59472
G1 X185.291 Y132.393 E5.6065
G1 X184.409 Y132.716 E5.63774
G1 X183.435 Y132.978 E5.67129
G1 X182.438 Y133.156 E5.70498
G1 X181.278 Y133.258 E5.74371
G1 X180.339 Y133.257 E5.77494
G1 X178.387 Y133.156 E5.83995
G1 X175.826 Y133.08 E5.92517
G1 X173.335 Y133.076 E6.00802
G1 X170.806 Y133.144 E6.09216
G1 X168.341 Y133.279 E6.17427
G1 X165.817 Y133.491 E6.25851
G1 X163.272 Y133.776 E6.34369
G1 X160.781 Y134.127 E6.42736
G1 X158.327 Y134.543 E6.51015
G1 X155.892 Y135.029 E6.59273
G1 X153.408 Y135.598 E6.67749
G1 X151.845 Y135.967 E6.7309
G1 X150.864 Y136.178 E6.76428
G1 X149.465 Y136.439 E6.81161
G1 X148.485 Y136.601 E6.84465
G1 X147.7 Y136.713 E6.87102
G1 X146.292 Y136.879 E6.91818
G1 X145.374 Y136.97 E6.94886
G1 X144.472 Y137.039 E6.97895
G1 X143.114 Y137.109 E7.02418
G1 X142.025 Y137.144 E7.06041
G1 X141.328 Y137.15 E7.0836
G1 X139.864 Y137.128 E7.1323
G1 X139.081 Y137.101 E7.15835
G1 X138.06 Y137.048 E7.19236
G1 X136.688 Y136.934 E7.23815
G1 X135.673 Y136.831 E7.27208
G1 X134.888 Y136.736 E7.29838
G1 X133.469 Y136.524 E7.3461
G1 X132.732 Y136.401 E7.37095
G1 X130.716 Y136.035 E7.4391
G1 X128.066 Y135.59 E7.52847
G1 X125.6 Y135.251 E7.61127
G1 X123.12 Y134.979 E7.69424
G1 X120.557 Y134.769 E7.77978
G1 X118.086 Y134.642 E7.86207
G1 X115.551 Y134.58 E7.94641
G1 X113.03 Y134.59 E8.03026
G1 X110.808 Y134.652 E8.10419
G1 X109.979 Y134.66 E8.13177
G1 X108.652 Y134.642 E8.17591
G1 X106.546 Y134.582 E8.24598
G1 X104.054 Y134.582 E8.32887
G1 X101.519 Y134.653 E8.41321
G1 X99.038 Y134.793 E8.49586
G1 X96.466 Y135.009 E8.58171
G1 X94.04 Y135.285 E8.66292
G1 X91.476 Y135.649 E8.74905
G1 X88.851 Y136.101 E8.83764
G1 X87.046 Y136.438 E8.89872
G1 X86.152 Y136.586 E8.92886
G1 X85.264 Y136.714 E8.9587
G1 X83.927 Y136.872 E9.00347
G1 X82.875 Y136.978 E9.03864
G1 X82.12 Y137.035 E9.06382
G1 X80.884 Y137.101 E9.10499
G1 X79.726 Y137.14 E9.14353
G1 X78.87 Y137.151 E9.172
G1 X77.516 Y137.13 E9.21704
G1 X76.497 Y137.094 E9.25096
G1 X75.686 Y137.051 E9.27797
G1 X74.237 Y136.932 E9.32632
G1 X72.805 Y136.78 E9.37422
G1 X71.086 Y136.53 E9.432
G1 X69.663 Y136.284 E9.48003
G1 X67.929 Y135.913 E9.539
G1 X64.808 Y135.179 E9.64564
G1 X62.33 Y134.665 E9.72981
G1 X59.885 Y134.229 E9.81242
G1 X57.371 Y133.855 E9.89695
G1 X54.849 Y133.551 E9.98144
G1 X52.405 Y133.327 E10.06307
G1 X49.872 Y133.168 E10.14749
G1 X47.332 Y133.079 E10.23202
G1 X44.844 Y133.063 E10.31477
G1 X42.308 Y133.119 E10.39914
G1 X40.409 Y133.217 E10.46238
G1 X39.611 Y133.247 E10.48895
G1 X38.851 Y133.252 E10.51422
G1 X38.023 Y133.211 E10.5418
G1 X36.992 Y133.071 E10.5764
G1 X36.055 Y132.859 E10.60836
G1 X35.459 Y132.678 E10.62907
G1 X35.105 Y132.551 E10.64158
G1 X34.464 Y132.298 E10.6645
G1 X33.583 Y131.886 E10.69685
G1 X32.801 Y131.435 E10.72687
G1 X31.95 Y130.836 E10.76149
G1 X31.319 Y130.309 E10.78883
G1 X31.051 Y130.066 E10.80086
G1 X30.358 Y129.381 E10.83327
G1 X29.774 Y128.692 E10.86331
G1 X29.176 Y127.847 E10.89774
G1 X28.808 Y127.231 E10.92161
G1 X28.51 Y126.662 E10.94297
G1 X28.109 Y125.774 E10.97538
G1 X27.799 Y124.889 E11.00657
G1 X27.533 Y123.849 E11.04227
G1 X27.353 Y122.77 E11.07866
G1 X27.281 Y121.8 E11.11101
G1 X27.29 Y120.897 E11.14104
G1 X27.375 Y119.955 E11.1725
G1 X27.526 Y118.992 E11.20492
G1 X27.762 Y118.043 E11.23745
G1 X28.1 Y117.073 E11.27161
G1 X28.477 Y116.216 E11.30275
G1 X28.899 Y115.417 E11.33281
G1 X29.598 Y114.354 E11.37512
G1 X30.15 Y113.675 E11.40423
G1 X30.972 Y112.812 E11.44387
G1 X31.72 Y112.111 E11.47796
G1 X33.519 Y110.475 E11.55884
G1 X35.229 Y108.982 E11.63434
G1 X36.938 Y107.554 E11.70841
G1 X38.583 Y106.233 E11.77858
G1 X40.471 Y104.778 E11.85786
G1 X42.326 Y103.41 E11.93452
G1 X43.938 Y102.273 E12.00013
G1 X46.035 Y100.853 E12.08437
G1 X47.877 Y99.664 E12.15729
G1 X49.644 Y98.571 E12.22639
G1 X51.547 Y97.445 E12.29994
G1 X53.719 Y96.224 E12.38281
G0 F6000 X53.908 Y96.576
G1 F960 X55.665 Y95.633 E12.44913
G1 X57.886 Y94.501 E12.53205
G1 X59.659 Y93.641 E12.59759
G1 X61.96 Y92.585 E12.68179
G1 X64.033 Y91.684 E12.75697
G1 X64.794 Y91.365 E12.78442
G1 X65.374 Y91.144 E12.80506
G1 X66.344 Y90.81 E12.83918
G1 X66.813 Y90.662 E12.85554
G1 X67.714 Y90.421 E12.88656
G1 X68.778 Y90.215 E12.92261
G1 X69.365 Y90.119 E12.94239
G1 X70.29 Y90.01 E12.97337
G1 X71.105 Y89.964 E13.00052
G1 X72.23 Y89.938 E13.03795
G1 X72.875 Y89.941 E13.0594
G1 X75.508 Y89.917 E13.14698
G1 X78.04 Y89.823 E13.23125
G1 X80.553 Y89.659 E13.31501
G1 X83.07 Y89.422 E13.3991
G1 X85.562 Y89.116 E13.4826
G1 X88.078 Y88.734 E13.56724
G1 X90.592 Y88.282 E13.6522
G1 X92.997 Y87.777 E13.73394
G1 X95.512 Y87.173 E13.81996
G1 X97.957 Y86.515 E13.90418
G1 X100.362 Y85.792 E13.9877
G1 X101.908 Y85.282 E14.04185
G1 X103.17 Y84.892 E14.08578
G1 X103.912 Y84.689 E14.11137
G1 X104.436 Y84.565 E14.12928
G1 X105.236 Y84.394 E14.15649
G1 X106.142 Y84.23 E14.18711
G1 X107.258 Y84.084 E14.22455
G1 X108.135 Y84 E14.25385
G1 X109.042 Y83.946 E14.28407
G1 X110.093 Y83.932 E14.31903
G1 X110.996 Y83.949 E14.34907
G1 X111.839 Y83.995 E14.37715
G1 X112.686 Y84.077 E14.40545
G1 X113.522 Y84.181 E14.43347
G1 X114.547 Y84.347 E14.46801
G1 X115.486 Y84.548 E14.49994
G1 X116.659 Y84.838 E14.54013
G1 X117.134 Y84.975 E14.55658
G1 X120.081 Y85.937 E14.65968
G1 X122.483 Y86.645 E14.74297
G1 X124.952 Y87.298 E14.82792
G1 X127.376 Y87.865 E14.91071
G1 X129.89 Y88.377 E14.99605
G1 X132.355 Y88.81 E15.07929
G1 X134.896 Y89.181 E15.1647
G1 X137.377 Y89.473 E15.24779
G1 X139.877 Y89.695 E15.33126
G1 X142.427 Y89.848 E15.41623
G1 X144.969 Y89.929 E15.50082
G1 X147.11 Y89.942 E15.57203
G1 X147.737 Y89.938 E15.59289
G1 X148.652 Y89.955 E15.62332
G1 X149.447 Y89.991 E15.64979
G1 X149.489 Y90.003 E15.65125
G1 X149.835 Y90.018 E15.66276
G1 X150.667 Y90.124 E15.69066
G1 X151.477 Y90.261 E15.71798
G1 X152.037 Y90.37 E15.73696
G1 X153.193 Y90.673 E15.77671
G1 X153.982 Y90.916 E15.80417
G1 X154.487 Y91.091 E15.82194
G1 X155.06 Y91.31 E15.84234
G1 X156.071 Y91.729 E15.87874
G1 X158.234 Y92.673 E15.95724
G1 X160.348 Y93.645 E16.03463
G1 X162.122 Y94.505 E16.1002
G1 X164.342 Y95.637 E16.18308
G1 X166.099 Y96.579 E16.24939
G1 X168.265 Y97.799 E16.33207
G1 X170.158 Y98.919 E16.40523
G1 X171.92 Y100.008 E16.47412
G1 X173.755 Y101.194 E16.54679
G1 X175.845 Y102.608 E16.63072
G1 X177.449 Y103.742 E16.69605
G1 X179.299 Y105.105 E16.77248
G1 X181.18 Y106.555 E16.85148
G1 X182.818 Y107.871 E16.92136
G1 X184.544 Y109.315 E16.99621
G1 X186.349 Y110.892 E17.07593
G1 X188.168 Y112.549 E17.15777
G1 X188.68 Y113.028 E17.18109
G1 X189.519 Y113.911 E17.2216
G1 X189.71 Y114.138 E17.23147
G1 X190.282 Y114.882 E17.26268
G1 X190.785 Y115.673 E17.29386
G1 X191.197 Y116.461 E17.32343
G1 X191.489 Y117.125 E17.34756
G1 X191.897 Y118.3 E17.38893
G1 X192.14 Y119.363 E17.4252
G1 X192.261 Y120.218 E17.45392
G1 X192.314 Y120.829 E17.47432
G1 X192.324 Y121.805 E17.50678
G1 X192.196 Y123.119 E17.55069
G1 X192.084 Y123.727 E17.57125
G1 X191.968 Y124.24 E17.58874
G1 X191.693 Y125.164 E17.62081
G1 X191.349 Y126.029 E17.65177
G1 X191.139 Y126.468 E17.66796
G1 X190.893 Y126.941 E17.68569
G1 X190.413 Y127.748 E17.71692
G1 X189.886 Y128.48 E17.74692
G1 X189.116 Y129.354 E17.78566
G1 X188.464 Y129.977 E17.81565
G1 X187.769 Y130.554 E17.8457
G1 X186.968 Y131.107 E17.87807
G1 X186.183 Y131.553 E17.9081
G1 X185.449 Y131.894 E17.93502
G1 X185.153 Y132.017 E17.94568
G1 X184.271 Y132.34 E17.97692
G1 X183.365 Y132.584 E18.00813
G1 X182.368 Y132.762 E18.04181
G1 X181.278 Y132.858 E18.07821
G1 X180.36 Y132.858 E18.10874
G1 X178.399 Y132.756 E18.17405
G1 X175.838 Y132.68 E18.25927
G1 X173.325 Y132.676 E18.34285
G1 X170.795 Y132.744 E18.42703
G1 X168.308 Y132.881 E18.50987
G1 X165.772 Y133.093 E18.59452
G1 X163.227 Y133.378 E18.67969
G1 X160.725 Y133.731 E18.76373
G1 X158.254 Y134.15 E18.84709
G1 X155.803 Y134.639 E18.93022
G1 X153.319 Y135.208 E19.01498
G1 X151.761 Y135.576 E19.06822
G1 X150.791 Y135.785 E19.10122
G1 X149.4 Y136.044 E19.14828
G1 X148.428 Y136.205 E19.18105
G1 X147.653 Y136.316 E19.20709
G1 X146.253 Y136.481 E19.25398
G1 X145.343 Y136.571 E19.28439
G1 X144.452 Y136.64 E19.31412
G1 X143.101 Y136.709 E19.35911
G1 X142.022 Y136.744 E19.39502
G1 X141.334 Y136.75 E19.4179
G1 X139.877 Y136.728 E19.46637
G1 X139.102 Y136.702 E19.49216
G1 X138.093 Y136.649 E19.52576
G1 X136.728 Y136.536 E19.57132
G1 X135.721 Y136.434 E19.60498
G1 X134.947 Y136.34 E19.63092
G1 X133.535 Y136.129 E19.6784
G1 X132.803 Y136.007 E19.70308
G1 X130.782 Y135.64 E19.7714
G1 X128.132 Y135.196 E19.86077
G1 X125.644 Y134.853 E19.9443
G1 X123.16 Y134.581 E20.02741
G1 X120.59 Y134.371 E20.11318
G1 X118.096 Y134.242 E20.19624
G1 X115.559 Y134.18 E20.28065
G1 X113.019 Y134.19 E20.36513
G1 X110.804 Y134.252 E20.43883
G1 X109.984 Y134.26 E20.4661
G1 X108.663 Y134.242 E20.51004
G1 X106.557 Y134.182 E20.58012
G1 X104.043 Y134.182 E20.66373
G1 X101.508 Y134.253 E20.74808
G1 X99.004 Y134.394 E20.8315
G1 X96.432 Y134.611 E20.91734
G1 X93.984 Y134.889 E20.99929
G1 X91.42 Y135.253 E21.08542
G1 X88.783 Y135.707 E21.17442
G1 X86.981 Y136.043 E21.23539
G1 X86.095 Y136.19 E21.26526
G1 X85.217 Y136.317 E21.29477
G1 X83.887 Y136.474 E21.33931
G1 X82.845 Y136.579 E21.37414
G1 X82.099 Y136.636 E21.39903
G1 X80.87 Y136.701 E21.43996
G1 X79.721 Y136.74 E21.4782
G1 X78.876 Y136.751 E21.5063
G1 X77.53 Y136.73 E21.55108
G1 X76.518 Y136.695 E21.58476
G1 X75.719 Y136.652 E21.61137
G1 X74.279 Y136.534 E21.65943
G1 X72.862 Y136.384 E21.70682
G1 X71.154 Y136.136 E21.76422
G1 X69.747 Y135.893 E21.81171
G1 X68.021 Y135.524 E21.87042
G1 X64.889 Y134.787 E21.97743
G1 X62.411 Y134.273 E22.06161
G1 X59.944 Y133.833 E22.14495
G1 X57.43 Y133.459 E22.22949
G1 X54.897 Y133.154 E22.31435
G1 X52.43 Y132.928 E22.39674
G1 X49.886 Y132.768 E22.48152
G1 X47.346 Y132.679 E22.56606
G1 X44.838 Y132.663 E22.64947
G1 X42.299 Y132.719 E22.73394
G1 X40.394 Y132.817 E22.79739
G1 X39.608 Y132.847 E22.82355
G1 X38.871 Y132.852 E22.84806
G1 X38.043 Y132.811 E22.87563
G1 X37.08 Y132.681 E22.90795
G1 X36.171 Y132.476 E22.93895
G1 X35.593 Y132.301 E22.95903
G1 X35.251 Y132.179 E22.97111
G1 X34.633 Y131.936 E22.9932
G1 X33.783 Y131.539 E23.0244
G1 X33.001 Y131.088 E23.05443
G1 X32.206 Y130.529 E23.08675
G1 X31.588 Y130.013 E23.11353
G1 X31.332 Y129.781 E23.12502
G1 X30.663 Y129.122 E23.15625
G1 X30.079 Y128.433 E23.18629
G1 X29.519 Y127.642 E23.21853
G1 X29.162 Y127.045 E23.24166
G1 X28.874 Y126.497 E23.26225
G1 X28.487 Y125.642 E23.29347
G1 X28.177 Y124.757 E23.32466
G1 X27.927 Y123.783 E23.3581
G1 X27.752 Y122.74 E23.39328
G1 X27.681 Y121.804 E23.4245
G1 X27.69 Y120.901 E23.45453
G1 X27.77 Y120.016 E23.48409
G1 X27.914 Y119.088 E23.51532
G1 X28.14 Y118.175 E23.54661
G1 X28.478 Y117.205 E23.58077
G1 X28.831 Y116.403 E23.60992
G1 X29.253 Y115.604 E23.63997
G1 X29.909 Y114.606 E23.67969
G1 X30.44 Y113.951 E23.70774
G1 X31.262 Y113.088 E23.74738
G1 X31.989 Y112.407 E23.78051
G1 X33.782 Y110.776 E23.86113
G1 X35.486 Y109.289 E23.93635
G1 X37.188 Y107.866 E24.01013
G1 X38.827 Y106.55 E24.08004
G1 X40.708 Y105.1 E24.15904
G1 X42.557 Y103.737 E24.23544
G1 X44.162 Y102.604 E24.30078
G1 X46.252 Y101.189 E24.38473
G1 X48.087 Y100.004 E24.45738
G1 X49.848 Y98.915 E24.52625
G1 X51.743 Y97.794 E24.59948
G1 X53.908 Y96.576 E24.6821
G0 F6000 X54.097 Y96.928
G1 F960 X55.847 Y95.989 E24.74815
G1 X58.06 Y94.861 E24.83077
G1 X59.826 Y94.005 E24.89604
G1 X62.12 Y92.952 E24.98
G1 X64.187 Y92.053 E25.05497
G1 X64.937 Y91.739 E25.08201
G1 X65.504 Y91.522 E25.1022
G1 X66.465 Y91.191 E25.13601
G1 X66.917 Y91.048 E25.15177
G1 X67.79 Y90.814 E25.18184
G1 X68.843 Y90.61 E25.21751
G1 X69.412 Y90.516 E25.23669
G1 X70.312 Y90.409 E25.26684
G1 X71.114 Y90.364 E25.29355
G1 X72.228 Y90.338 E25.33061
G1 X72.877 Y90.341 E25.3522
G1 X75.523 Y90.317 E25.44021
G1 X78.055 Y90.223 E25.52448
G1 X80.579 Y90.058 E25.60861
G1 X83.119 Y89.819 E25.69346
