;FLAVOR:Marlin
;TIME:8145
;Filament used: 2.99833m
;Layer height: 0.2
;MINX:71.176
;MINY:73
;MINZ:0.2
;MAXX:149.584
;MAXY:147
;MAXZ:67.6
;TARGET_MACHINE.NAME:Creality Ender-3 S1
;Generated with Cura_SteamEngine 5.11.0
; Ender 3 S1 Start G-code
; M413 S0 ; Disable power loss recovery
G92 E0 ; Reset Extruder

; Prep surfaces before auto home for better accuracy
M140 S55.0
M104 S208.0

G28 ; Home all axes
G1 Z10.0 F3000 ; Move Z Axis up little to prevent scratching of Heat Bed
G1 X0 Y0

M190 S55.0
M109 S208.0

G1 X0.1 Y20 Z0.3 F5000.0 ; Move to start position
G1 X0.1 Y200.0 Z0.3 F1500.0 E15 ; Draw the first line
G1 X0.4 Y200.0 Z0.3 F5000.0 ; Move to side a little
G1 X0.4 Y20 Z0.3 F1500.0 E30 ; Draw the second line
G92 E0 ; Reset Extruder
G1 Z2.0 F3000 ; Move Z Axis up little to prevent scratching of Heat Bed
G1 X5 Y20 Z0.3 F5000.0 ; Move over to prevent blob squish

M82 ;absolute extrusion mode
G92 E0
G92 E0
G1 F2700 E-0.8
;LAYER_COUNT:338
;LAYER:0
M107
G0 F6000 X76.966 Y78.246 Z0.2
;TYPE:SKIRT
G1 F2700 E0
G1 F960 X77.323 Y77.922 E0.01603
G1 X77.834 Y77.479 E0.03853
G1 X78.47 Y76.954 E0.06596
G1 X79.377 Y76.29 E0.10334
G1 X79.824 Y76 E0.12107
G1 X80.851 Y75.387 E0.16085
G1 X81.658 Y74.951 E0.19135
G1 X82.449 Y74.594 E0.22022
G1 X83.622 Y74.125 E0.26224
G1 X84.709 Y73.769 E0.30028
G1 X85.406 Y73.587 E0.32424
G1 X86.382 Y73.366 E0.35752
G1 X87.599 Y73.166 E0.39854
G1 X88.111 Y73.114 E0.41566
G1 X89.284 Y73.031 E0.45477
G1 X89.724 Y73.012 E0.46942
G1 X90.519 Y73 E0.49586
G1 X123.828 Y73.001 E1.60373
G1 X124.871 Y73.022 E1.63842
G1 X125.96 Y73.09 E1.67471
G1 X126.657 Y73.157 E1.698
G1 X127.499 Y73.271 E1.72626
G1 X127.887 Y73.345 E1.7394
G1 X128.505 Y73.482 E1.76046
G1 X129.54 Y73.738 E1.79592
G1 X130.47 Y74.026 E1.8283
G1 X132.149 Y74.704 E1.88852
G1 X133.019 Y75.114 E1.92051
G1 X133.55 Y75.413 E1.94078
G1 X134.355 Y75.898 E1.97204
G1 X134.995 Y76.302 E1.99721
G1 X135.812 Y76.893 E2.03075
G1 X136.451 Y77.419 E2.05828
G1 X136.654 Y77.605 E2.06743
G1 X137.115 Y78 E2.08763
G1 X137.989 Y78.869 E2.12862
G1 X138.639 Y79.596 E2.16105
G1 X139.135 Y80.182 E2.18659
G1 X139.434 Y80.56 E2.20262
G1 X139.892 Y81.208 E2.22901
G1 X140.442 Y82.08 E2.2633
G1 X140.805 Y82.696 E2.28708
G1 X141.263 Y83.561 E2.31964
G1 X141.55 Y84.201 E2.34297
G1 X142.004 Y85.332 E2.3835
G1 X142.394 Y86.524 E2.42521
G1 X142.644 Y87.475 E2.45792
G1 X142.811 Y88.2 E2.48266
G1 X143.008 Y89.48 E2.52574
G1 X143.091 Y90.356 E2.55501
G1 X143.161 Y91.377 E2.58904
G1 X143.284 Y93.673 E2.66552
G1 X143.486 Y96.179 E2.74914
G1 X143.764 Y98.707 E2.83373
G1 X144.105 Y101.175 E2.91659
G1 X144.519 Y103.648 E2.99999
G1 X145.01 Y106.15 E3.08479
G1 X145.561 Y108.584 E3.1678
G1 X146.186 Y111.038 E3.25202
G1 X146.879 Y113.452 E3.33556
G1 X147.624 Y115.803 E3.41758
G1 X149.031 Y119.766 E3.55745
G1 X149.294 Y120.703 E3.58982
G1 X149.474 Y121.661 E3.62224
G1 X149.568 Y122.619 E3.65426
G1 X149.584 Y123.266 E3.67579
G1 X149.573 Y125.152 E3.73852
G1 X149.584 Y126.835 E3.79449
G1 X149.544 Y127.737 E3.82452
G1 X149.404 Y128.772 E3.85926
G1 X149.188 Y129.721 E3.89163
G1 X148.893 Y130.638 E3.92367
G1 X148.602 Y131.354 E3.94938
G1 X148.211 Y132.185 E3.97992
G1 X147.772 Y132.974 E4.00995
G1 X147.383 Y133.568 E4.03357
G1 X146.824 Y134.319 E4.06471
G1 X146.179 Y135.081 E4.09791
G1 X145.538 Y135.717 E4.12795
G1 X144.582 Y136.496 E4.16896
G1 X143.929 Y136.965 E4.1957
G1 X141.449 Y138.695 E4.29627
G1 X139.454 Y140.179 E4.37897
G1 X136.558 Y142.49 E4.5022
G1 X135.815 Y143.104 E4.53426
G1 X135.332 Y143.468 E4.55438
G1 X134.878 Y143.775 E4.57261
G1 X134.153 Y144.227 E4.60102
G1 X133.581 Y144.57 E4.62321
G1 X132.997 Y144.897 E4.64547
G1 X132.219 Y145.269 E4.67415
G1 X131.435 Y145.599 E4.70244
G1 X130.43 Y145.99 E4.73831
G1 X129.402 Y146.297 E4.77399
G1 X128.029 Y146.621 E4.82091
G1 X127.035 Y146.8 E4.85451
G1 X126.016 Y146.905 E4.88858
G1 X124.79 Y146.982 E4.92943
G1 X123.845 Y147 E4.96087
G1 X90.522 Y146.999 E6.0692
G1 X89.364 Y146.974 E6.10772
G1 X88.666 Y146.929 E6.13099
G1 X87.711 Y146.843 E6.16288
G1 X86.772 Y146.712 E6.19441
G1 X86.203 Y146.599 E6.21371
G1 X85.674 Y146.477 E6.23176
G1 X84.857 Y146.27 E6.25979
G1 X83.645 Y145.885 E6.30209
G1 X83.026 Y145.644 E6.32418
G1 X82.059 Y145.231 E6.35916
G1 X81.561 Y144.99 E6.37756
G1 X81.508 Y144.973 E6.37941
G1 X81.194 Y144.81 E6.39118
G1 X80.342 Y144.317 E6.42392
G1 X79.489 Y143.779 E6.45746
G1 X79.054 Y143.488 E6.47487
G1 X78.481 Y143.057 E6.49871
G1 X77.995 Y142.659 E6.51961
G1 X77.191 Y141.958 E6.55509
G1 X76.692 Y141.489 E6.57786
G1 X76.315 Y141.093 E6.59605
G1 X75.653 Y140.341 E6.62937
G1 X75.144 Y139.724 E6.65597
G1 X74.474 Y138.811 E6.69364
G1 X74.168 Y138.338 E6.71238
G1 X73.579 Y137.358 E6.7504
G1 X73.543 Y137.279 E6.75329
G1 X73.216 Y136.698 E6.77547
G1 X72.996 Y136.236 E6.79249
G1 X72.623 Y135.372 E6.82379
G1 X72.3 Y134.553 E6.85307
G1 X71.956 Y133.505 E6.88976
G1 X71.736 Y132.656 E6.91893
G1 X71.541 Y131.793 E6.94835
G1 X71.341 Y130.576 E6.98937
G1 X71.289 Y130.064 E7.00649
G1 X71.205 Y128.864 E7.0465
G1 X71.179 Y128.122 E7.07119
G1 X71.176 Y92.347 E8.26108
G1 X71.201 Y91.183 E8.2998
G1 X71.266 Y90.238 E8.3313
G1 X71.333 Y89.526 E8.35509
G1 X71.46 Y88.603 E8.38608
G1 X71.637 Y87.756 E8.41486
G1 X71.916 Y86.643 E8.45302
G1 X72.123 Y85.938 E8.47746
G1 X72.422 Y85.125 E8.50627
G1 X72.602 Y84.678 E8.5223
G1 X72.938 Y83.896 E8.55061
G1 X73.212 Y83.31 E8.57212
G1 X73.487 Y82.797 E8.59148
G1 X73.913 Y82.076 E8.61934
G1 X74.404 Y81.301 E8.64985
G1 X74.963 Y80.504 E8.68223
G1 X75.326 Y80.047 E8.70164
G1 X76.211 Y79.024 E8.74663
G1 X76.966 Y78.246 E8.78269
G0 F6000 X77.235 Y78.542
G1 F960 X77.585 Y78.224 E8.79842
G1 X78.089 Y77.787 E8.8206
G1 X78.706 Y77.277 E8.84723
G1 X79.595 Y76.626 E8.88388
G1 X80.042 Y76.336 E8.9016
G1 X81.041 Y75.739 E8.94031
G1 X81.823 Y75.316 E8.96988
G1 X82.614 Y74.959 E8.99874
G1 X83.747 Y74.505 E9.03934
G1 X84.81 Y74.156 E9.07655
G1 X85.495 Y73.977 E9.1001
G1 X86.447 Y73.761 E9.13257
G1 X87.64 Y73.564 E9.17278
G1 X88.139 Y73.513 E9.18947
G1 X89.302 Y73.431 E9.22824
G1 X89.73 Y73.412 E9.24249
G1 X90.519 Y73.4 E9.26874
G1 X123.82 Y73.401 E10.37634
G1 X124.846 Y73.421 E10.41047
G1 X125.922 Y73.488 E10.44632
G1 X126.603 Y73.553 E10.46908
G1 X127.424 Y73.664 E10.49663
G1 X127.801 Y73.736 E10.5094
G1 X128.409 Y73.87 E10.53011
G1 X129.422 Y74.12 E10.56481
G1 X130.32 Y74.397 E10.59606
G1 X131.979 Y75.066 E10.65556
G1 X132.823 Y75.463 E10.68658
G1 X133.344 Y75.756 E10.70646
G1 X134.141 Y76.236 E10.73741
G1 X134.781 Y76.64 E10.76258
G1 X135.558 Y77.202 E10.79448
G1 X136.181 Y77.714 E10.8213
G1 X136.394 Y77.909 E10.8309
G1 X136.833 Y78.284 E10.8501
G1 X137.707 Y79.153 E10.8911
G1 X138.334 Y79.855 E10.9224
G1 X138.821 Y80.43 E10.94747
G1 X139.107 Y80.791 E10.96278
G1 X139.565 Y81.439 E10.98918
G1 X140.097 Y82.283 E11.02236
G1 X140.451 Y82.883 E11.04553
G1 X140.909 Y83.748 E11.07808
G1 X141.179 Y84.35 E11.10003
G1 X141.624 Y85.456 E11.13968
G1 X142.007 Y86.626 E11.18063
G1 X142.254 Y87.565 E11.21292
G1 X142.421 Y88.29 E11.23766
G1 X142.61 Y89.518 E11.27899
G1 X142.692 Y90.384 E11.30792
G1 X142.762 Y91.398 E11.34173
G1 X142.885 Y93.705 E11.41857
G1 X143.088 Y96.223 E11.50259
G1 X143.366 Y98.751 E11.58718
G1 X143.71 Y101.241 E11.67078
G1 X144.126 Y103.725 E11.75455
G1 X144.617 Y106.227 E11.83935
G1 X145.173 Y108.683 E11.92311
G1 X145.799 Y111.137 E12.00734
G1 X146.498 Y113.573 E12.09163
G1 X147.247 Y115.937 E12.17411
G1 X148.646 Y119.875 E12.31311
G1 X148.901 Y120.778 E12.34432
G1 X149.076 Y121.7 E12.37553
G1 X149.168 Y122.629 E12.40658
G1 X149.184 Y123.264 E12.42771
G1 X149.173 Y125.15 E12.49044
G1 X149.184 Y126.817 E12.54588
G1 X149.144 Y127.719 E12.57591
G1 X149.014 Y128.684 E12.6083
G1 X148.807 Y129.599 E12.6395
G1 X148.522 Y130.487 E12.67052
G1 X148.231 Y131.203 E12.69623
G1 X147.861 Y131.991 E12.72518
G1 X147.422 Y132.78 E12.75521
G1 X147.062 Y133.329 E12.77705
G1 X146.503 Y134.08 E12.80819
G1 X145.897 Y134.797 E12.83941
G1 X145.256 Y135.433 E12.86944
G1 X144.349 Y136.171 E12.90834
G1 X143.7 Y136.637 E12.93491
G1 X141.21 Y138.374 E13.03589
G1 X139.215 Y139.858 E13.11859
G1 X136.309 Y142.177 E13.24224
G1 X135.574 Y142.785 E13.27397
G1 X135.108 Y143.137 E13.29339
G1 X134.666 Y143.436 E13.31114
G1 X133.948 Y143.884 E13.33929
G1 X133.385 Y144.221 E13.36111
G1 X132.824 Y144.536 E13.38251
G1 X132.064 Y144.9 E13.41054
G1 X131.29 Y145.226 E13.43847
G1 X130.285 Y145.617 E13.47434
G1 X129.31 Y145.908 E13.50818
G1 X127.958 Y146.227 E13.55439
G1 X126.964 Y146.406 E13.58798
G1 X125.991 Y146.506 E13.62051
G1 X124.782 Y146.582 E13.6608
G1 X123.845 Y146.6 E13.69197
G1 X90.53 Y146.599 E14.80003
G1 X89.39 Y146.575 E14.83796
G1 X88.702 Y146.531 E14.86089
G1 X87.766 Y146.447 E14.89214
G1 X86.85 Y146.32 E14.9229
G1 X86.293 Y146.209 E14.94179
G1 X85.772 Y146.089 E14.95957
G1 X84.955 Y145.882 E14.98761
G1 X83.79 Y145.512 E15.02826
G1 X83.183 Y145.276 E15.04992
G1 X82.233 Y144.871 E15.08427
G1 X81.718 Y144.622 E15.1033
G1 X81.692 Y144.618 E15.10417
G1 X81.394 Y144.464 E15.11533
G1 X80.555 Y143.979 E15.14756
G1 X79.711 Y143.447 E15.18074
G1 X79.294 Y143.168 E15.19743
G1 X78.734 Y142.747 E15.22073
G1 X78.258 Y142.358 E15.24118
G1 X77.465 Y141.666 E15.27619
G1 X76.982 Y141.213 E15.29821
G1 X76.605 Y140.817 E15.3164
G1 X75.962 Y140.086 E15.34878
G1 X75.453 Y139.469 E15.37538
G1 X74.81 Y138.594 E15.4115
G1 X74.511 Y138.132 E15.4298
G1 X73.922 Y137.152 E15.46783
G1 X73.911 Y137.117 E15.46905
G1 X73.577 Y136.526 E15.49163
G1 X73.363 Y136.077 E15.50817
G1 X72.995 Y135.225 E15.53904
G1 X72.68 Y134.428 E15.56754
G1 X72.336 Y133.38 E15.60423
G1 X72.126 Y132.568 E15.63212
G1 X71.936 Y131.728 E15.66077
G1 X71.739 Y130.535 E15.70098
G1 X71.688 Y130.036 E15.71767
G1 X71.605 Y128.85 E15.75721
G1 X71.579 Y128.122 E15.78144
G1 X71.576 Y92.355 E16.97105
G1 X71.6 Y91.21 E17.00915
G1 X71.664 Y90.275 E17.04032
G1 X71.729 Y89.581 E17.0635
G1 X71.856 Y88.658 E17.09449
G1 X72.025 Y87.853 E17.12185
G1 X72.3 Y86.756 E17.15946
G1 X72.507 Y86.051 E17.1839
G1 X72.793 Y85.275 E17.21141
G1 X72.97 Y84.836 E17.22715
G1 X73.306 Y84.054 E17.25546
G1 X73.565 Y83.499 E17.27583
G1 X73.84 Y82.986 E17.29519
G1 X74.251 Y82.29 E17.32207
G1 X74.732 Y81.53 E17.35199
G1 X75.276 Y80.753 E17.38354
G1 X75.629 Y80.309 E17.4024
G1 X76.514 Y79.286 E17.44739
G1 X77.235 Y78.542 E17.48185
G0 F6000 X77.504 Y78.838
G1 F960 X77.847 Y78.526 E17.49727
G1 X78.344 Y78.095 E17.51915
G1 X78.943 Y77.6 E17.545
G1 X79.813 Y76.962 E17.58088
G1 X80.26 Y76.672 E17.5986
G1 X81.231 Y76.091 E17.63624
G1 X81.988 Y75.681 E17.66487
G1 X82.779 Y75.324 E17.69374
G1 X83.872 Y74.885 E17.73291
G1 X84.911 Y74.543 E17.76929
G1 X85.584 Y74.367 E17.79243
G1 X86.512 Y74.156 E17.82408
G1 X87.681 Y73.962 E17.8635
G1 X88.167 Y73.912 E17.87975
G1 X89.32 Y73.831 E17.91819
G1 X89.736 Y73.812 E17.93204
G1 X90.519 Y73.8 E17.95809
G1 X123.812 Y73.801 E19.06542
G1 X124.821 Y73.82 E19.09898
G1 X125.884 Y73.886 E19.13441
G1 X126.549 Y73.949 E19.15662
G1 X127.349 Y74.057 E19.18347
G1 X127.715 Y74.127 E19.19587
G1 X128.313 Y74.258 E19.21623
G1 X129.305 Y74.502 E19.2502
G1 X130.169 Y74.767 E19.28026
G1 X131.809 Y75.428 E19.33907
G1 X132.627 Y75.812 E19.36913
G1 X133.138 Y76.099 E19.38862
G1 X133.927 Y76.574 E19.41925
G1 X134.567 Y76.978 E19.44443
G1 X135.304 Y77.511 E19.47468
G1 X135.911 Y78.009 E19.50079
G1 X136.124 Y78.204 E19.5104
G1 X136.551 Y78.568 E19.52906
G1 X137.409 Y79.42 E19.56927
G1 X138.029 Y80.113 E19.6002
G1 X138.508 Y80.679 E19.62486
G1 X138.781 Y81.022 E19.63944
G1 X139.227 Y81.652 E19.66512
G1 X139.753 Y82.486 E19.69791
G1 X140.098 Y83.07 E19.72047
G1 X140.544 Y83.912 E19.75216
G1 X140.808 Y84.5 E19.7736
G1 X141.244 Y85.581 E19.81237
G1 X141.62 Y86.728 E19.85252
G1 X141.864 Y87.655 E19.8844
G1 X142.031 Y88.38 E19.90914
G1 X142.212 Y89.556 E19.94872
G1 X142.293 Y90.412 E19.97732
G1 X142.363 Y91.419 E20.01089
G1 X142.486 Y93.737 E20.0881
G1 X142.69 Y96.267 E20.17252
G1 X142.968 Y98.795 E20.25711
G1 X143.315 Y101.307 E20.34145
G1 X143.733 Y103.802 E20.42559
G1 X144.224 Y106.304 E20.51039
G1 X144.785 Y108.782 E20.5949
G1 X145.412 Y111.236 E20.67914
G1 X146.117 Y113.694 E20.76419
G1 X146.87 Y116.071 E20.84712
G1 X148.261 Y119.984 E20.98525
G1 X148.508 Y120.853 E21.01529
G1 X148.678 Y121.74 E21.04533
G1 X148.768 Y122.639 E21.07538
G1 X148.784 Y123.262 E21.09611
G1 X148.773 Y125.148 E21.15884
G1 X148.784 Y126.799 E21.21375
G1 X148.744 Y127.701 E21.24378
G1 X148.624 Y128.596 E21.27382
G1 X148.426 Y129.477 E21.30385
G1 X148.151 Y130.337 E21.33388
G1 X147.869 Y131.033 E21.35886
G1 X147.511 Y131.797 E21.38692
G1 X147.072 Y132.586 E21.41695
G1 X146.741 Y133.09 E21.43701
G1 X146.197 Y133.822 E21.46734
G1 X145.615 Y134.513 E21.49739
G1 X144.974 Y135.149 E21.52742
G1 X144.116 Y135.846 E21.56419
G1 X143.471 Y136.309 E21.5906
G1 X140.971 Y138.053 E21.69198
G1 X138.976 Y139.537 E21.77468
G1 X136.06 Y141.864 E21.89876
G1 X135.333 Y142.466 E21.93016
G1 X134.883 Y142.806 E21.94892
G1 X134.454 Y143.097 E21.96616
G1 X133.743 Y143.541 E21.99404
G1 X133.189 Y143.872 E22.0155
G1 X132.628 Y144.187 E22.0369
G1 X131.908 Y144.531 E22.06344
G1 X131.145 Y144.853 E22.09099
G1 X130.14 Y145.244 E22.12685
G1 X129.218 Y145.519 E22.15885
G1 X127.887 Y145.833 E22.20434
G1 X126.893 Y146.012 E22.23793
G1 X125.966 Y146.107 E22.26892
G1 X124.774 Y146.182 E22.30865
G1 X123.845 Y146.2 E22.33955
G1 X90.538 Y146.199 E23.44735
G1 X89.415 Y146.176 E23.48471
G1 X88.738 Y146.133 E23.50727
G1 X87.821 Y146.051 E23.53789
G1 X86.928 Y145.928 E23.56787
G1 X86.383 Y145.819 E23.58636
G1 X85.87 Y145.701 E23.60387
G1 X85.053 Y145.494 E23.6319
G1 X83.935 Y145.139 E23.67091
G1 X83.34 Y144.908 E23.69214
G1 X82.407 Y144.511 E23.72587
G1 X81.879 Y144.256 E23.74537
G1 X81.875 Y144.263 E23.74564
G1 X81.594 Y144.118 E23.75615
G1 X80.768 Y143.641 E23.78788
G1 X79.933 Y143.115 E23.8207
G1 X79.534 Y142.848 E23.83667
G1 X78.987 Y142.437 E23.85943
G1 X78.521 Y142.057 E23.87942
G1 X77.739 Y141.374 E23.91396
G1 X77.256 Y140.921 E23.93598
G1 X76.905 Y140.553 E23.9529
G1 X76.27 Y139.831 E23.98488
G1 X75.775 Y139.232 E24.01072
G1 X75.146 Y138.376 E24.04605
G1 X74.854 Y137.926 E24.0639
G1 X74.265 Y136.946 E24.10192
G1 X74.271 Y136.942 E24.10216
G1 X73.938 Y136.353 E24.12467
G1 X73.73 Y135.918 E24.14071
G1 X73.367 Y135.078 E24.17114
G1 X73.06 Y134.303 E24.19887
G1 X72.716 Y133.255 E24.23555
G1 X72.516 Y132.48 E24.26217
G1 X72.331 Y131.663 E24.29004
G1 X72.137 Y130.494 E24.32945
G1 X72.087 Y130.008 E24.3457
G1 X72.005 Y128.835 E24.38481
G1 X71.979 Y128.122 E24.40854
G1 X71.976 Y92.363 E25.59789
G1 X71.999 Y91.237 E25.63535
G1 X72.062 Y90.312 E25.66618
G1 X72.125 Y89.635 E25.6888
G1 X72.248 Y88.74 E25.71884
G1 X72.413 Y87.95 E25.74569
G1 X72.684 Y86.869 E25.78275
G1 X72.891 Y86.164 E25.80719
G1 X73.164 Y85.424 E25.83343
G1 X73.337 Y84.994 E25.84884
G1 X73.669 Y84.223 E25.87676
G1 X73.918 Y83.688 E25.89639
G1 X74.193 Y83.175 E25.91575
G1 X74.589 Y82.504 E25.94166
G1 X75.06 Y81.759 E25.97098
G1 X75.589 Y81.002 E26.00169
G1 X75.932 Y80.57 E26.02004
G1 X76.801 Y79.564 E26.06426
G1 X77.504 Y78.838 E26.09787
G1 F2700 E25.29787
G0 F6000 X116.897 Y92.04
G1 F2700 E26.09787
G1 F960 X125.984 Y92.049 E26.4001
G1 X126.014 Y92.141 E26.40332
G1 X126.148 Y92.22 E26.4085
G1 X126.175 Y92.224 E26.4094
G1 X126.175 Y92.66 E26.4239
G1 X124.204 Y92.66 E26.48946
G1 X116.668 Y92.639 E26.74011
G1 X116.585 Y92.476 E26.74619
G1 X116.897 Y92.04 E26.76403
G1 F2700 E25.96403
G0 F6000 X116.673 Y97.364
G1 F2700 E26.76403
G1 F960 X123.801 Y97.343 E27.0011
G1 X126.175 Y97.341 E27.08006
G1 X126.175 Y97.783 E27.09476
G1 X126.142 Y97.788 E27.09588
G1 X126.032 Y97.845 E27.1
G1 X125.988 Y97.952 E27.10384
G1 X116.904 Y97.962 E27.40598
G1 X116.59 Y97.527 E27.42382
G1 X116.673 Y97.364 E27.42991
G1 F2700 E26.62991
G0 F6000 X120.066 Y106.995
G1 F2700 E27.42991
G1 F960 X120.213 Y106.987 E27.4348
G1 X120.227 Y106.985 E27.43527
G1 X121.108 Y106.874 E27.46481
G1 X121.151 Y106.849 E27.46646
G1 X122.04 Y106.866 E27.49604
G1 X122.046 Y106.866 E27.49623
G1 X122.394 Y106.862 E27.50781
G1 X122.443 Y106.881 E27.50956
G1 X123.415 Y106.997 E27.54212
G1 X123.435 Y106.998 E27.54278
G1 X123.566 Y107.001 E27.54714
G1 X125.257 Y108.197 E27.61603
