;FLAVOR:Marlin
;TIME:3686
;Filament used: 1.81727m
;Layer height: 0.2
;MINX:58.908
;MINY:88.91
;MINZ:0.2
;MAXX:161.087
;MAXY:131.091
;MAXZ:41.4
;TARGET_MACHINE.NAME:Creality Ender-3 S1
;Generated with Cura_SteamEngine 5.11.0
; Ender 3 S1 Start G-code
; M413 S0 ; Disable power loss recovery
G92 E0 ; Reset Extruder

; Prep surfaces before auto home for better accuracy
M140 S55.0
M104 S208.0

G28 ; Home all axes
G1 Z10.0 F3000 ; Move Z Axis up little to prevent scratching of Heat Bed
G1 X0 Y0

M190 S55.0
M109 S208.0

G1 X0.1 Y20 Z0.3 F5000.0 ; Move to start position
G1 X0.1 Y200.0 Z0.3 F1500.0 E15 ; Draw the first line
G1 X0.4 Y200.0 Z0.3 F5000.0 ; Move to side a little
G1 X0.4 Y20 Z0.3 F1500.0 E30 ; Draw the second line
G92 E0 ; Reset Extruder
G1 Z2.0 F3000 ; Move Z Axis up little to prevent scratching of Heat Bed
G1 X5 Y20 Z0.3 F5000.0 ; Move over to prevent blob squish

M82 ;absolute extrusion mode
G92 E0
G92 E0
G1 F2700 E-0.8
;LAYER_COUNT:207
;LAYER:0
M107
G0 F6000 X101.314 Y92.887 Z0.2
;TYPE:SKIRT
G1 F2700 E0
G1 F960 X101.855 Y92.314 E0.02621
G1 X102.587 Y91.634 E0.05944
G1 X103.357 Y91.037 E0.09185
G1 X104.176 Y90.511 E0.12422
G1 X105.034 Y90.061 E0.15645
G1 X105.762 Y89.752 E0.18275
G1 X106.084 Y89.628 E0.19423
G1 X106.974 Y89.332 E0.22542
G1 X107.956 Y89.1 E0.25898
G1 X108.85 Y88.969 E0.28903
G1 X109.894 Y88.91 E0.32381
G1 X110.867 Y88.945 E0.3562
G1 X111.832 Y89.065 E0.38854
G1 X112.78 Y89.268 E0.42079
G1 X113.542 Y89.496 E0.44724
G1 X113.846 Y89.6 E0.45793
G1 X114.687 Y89.929 E0.48796
G1 X115.623 Y90.395 E0.52274
G1 X116.451 Y90.907 E0.55512
G1 X117.235 Y91.493 E0.58767
G1 X118.062 Y92.242 E0.62478
G1 X118.7 Y92.897 E0.65519
G1 X119.361 Y93.692 E0.68958
G1 X119.916 Y94.495 E0.72205
G1 X120.395 Y95.344 E0.75447
G1 X120.817 Y96.276 E0.7885
G1 X121.192 Y97.251 E0.82324
G1 X121.34 Y97.684 E0.83846
G1 X121.523 Y98.319 E0.86044
G1 X121.634 Y98.801 E0.87689
G1 X121.721 Y99.23 E0.89145
G1 X121.87 Y100.143 E0.92222
G1 X121.94 Y100.643 E0.93901
G1 X121.995 Y101.162 E0.95637
G1 X122.058 Y101.943 E0.98243
G1 X122.09 Y102.474 E1.00013
G1 X122.134 Y103.861 E1.04628
G1 X122.161 Y110.786 E1.27661
G1 X122.139 Y115.937 E1.44793
G1 X122.093 Y117.419 E1.49725
G1 X122.033 Y118.432 E1.531
G1 X121.933 Y119.389 E1.563
G1 X121.859 Y119.946 E1.58169
G1 X121.777 Y120.441 E1.59838
G1 X121.576 Y121.457 E1.63283
G1 X121.462 Y121.907 E1.64827
G1 X121.28 Y122.502 E1.66896
G1 X121.113 Y122.976 E1.68568
G1 X120.819 Y123.729 E1.71256
G1 X120.398 Y124.655 E1.7464
G1 X119.918 Y125.503 E1.77881
G1 X119.406 Y126.247 E1.80884
G1 X118.688 Y127.108 E1.84613
G1 X118.127 Y127.702 E1.87331
G1 X117.414 Y128.366 E1.90571
G1 X116.644 Y128.963 E1.93812
G1 X115.826 Y129.49 E1.97048
G1 X114.998 Y129.926 E2.00161
G1 X114.18 Y130.273 E2.03116
G1 X113.864 Y130.392 E2.04239
G1 X112.937 Y130.694 E2.07482
G1 X111.989 Y130.91 E2.10716
G1 X111.024 Y131.042 E2.13955
G1 X110.05 Y131.091 E2.17199
G1 X109.078 Y131.051 E2.20434
G1 X108.113 Y130.926 E2.23671
G1 X107.231 Y130.734 E2.26673
G1 X106.506 Y130.518 E2.29189
G1 X106.204 Y130.416 E2.30249
G1 X105.297 Y130.063 E2.33487
G1 X104.455 Y129.648 E2.36609
G1 X103.594 Y129.122 E2.39965
G1 X102.804 Y128.537 E2.43234
G1 X101.938 Y127.756 E2.47113
G1 X101.578 Y127.392 E2.48815
G1 X100.924 Y126.669 E2.52058
G1 X100.338 Y125.893 E2.55292
G1 X99.858 Y125.128 E2.58296
G1 X99.389 Y124.212 E2.61719
G1 X99.172 Y123.701 E2.63565
G1 X98.785 Y122.68 E2.67197
G1 X98.515 Y121.819 E2.70198
G1 X98.378 Y121.249 E2.72148
G1 X98.278 Y120.757 E2.73818
G1 X98.128 Y119.844 E2.76895
G1 X98.045 Y119.222 E2.78982
G1 X97.941 Y118.048 E2.82902
G1 X97.91 Y117.522 E2.84655
G1 X97.86 Y115.846 E2.90232
G1 X97.839 Y109.214 E3.1229
G1 X97.861 Y104.063 E3.29422
G1 X97.907 Y102.583 E3.34347
G1 X97.956 Y101.707 E3.37265
G1 X97.993 Y101.272 E3.38717
G1 X98.069 Y100.599 E3.4097
G1 X98.15 Y99.992 E3.43007
G1 X98.321 Y99.032 E3.4625
G1 X98.536 Y98.117 E3.49376
G1 X98.739 Y97.445 E3.51711
G1 X98.947 Y96.866 E3.53757
G1 X99.175 Y96.289 E3.55821
G1 X99.573 Y95.401 E3.59057
G1 X100.049 Y94.551 E3.62298
G1 X100.556 Y93.804 E3.653
G1 X101.314 Y92.887 E3.69257
G0 F6000 X101.605 Y93.162
G1 F960 X102.146 Y92.589 E3.71879
G1 X102.833 Y91.95 E3.74999
G1 X103.574 Y91.373 E3.78123
G1 X104.362 Y90.865 E3.81241
G1 X105.191 Y90.429 E3.84356
G1 X105.905 Y90.125 E3.86937
G1 X106.21 Y90.008 E3.88024
G1 X107.1 Y89.712 E3.91144
G1 X108.014 Y89.496 E3.94267
G1 X108.908 Y89.365 E3.97272
G1 X109.88 Y89.31 E4.00511
G1 X110.818 Y89.342 E4.03632
G1 X111.749 Y89.456 E4.06752
G1 X112.665 Y89.651 E4.09867
G1 X113.413 Y89.875 E4.12464
G1 X113.7 Y89.973 E4.13472
G1 X114.541 Y90.302 E4.16476
G1 X115.413 Y90.736 E4.19716
G1 X116.212 Y91.228 E4.22837
G1 X116.967 Y91.79 E4.25967
G1 X117.775 Y92.521 E4.29591
G1 X118.413 Y93.176 E4.32632
G1 X119.032 Y93.92 E4.35851
G1 X119.568 Y94.692 E4.38977
G1 X120.031 Y95.509 E4.42101
G1 X120.444 Y96.419 E4.45424
G1 X120.813 Y97.38 E4.48848
G1 X120.961 Y97.813 E4.5037
G1 X121.133 Y98.409 E4.52433
G1 X121.242 Y98.88 E4.54041
G1 X121.326 Y99.295 E4.5545
G1 X121.474 Y100.198 E4.58493
G1 X121.542 Y100.685 E4.60128
G1 X121.596 Y101.194 E4.61831
G1 X121.659 Y101.967 E4.6441
G1 X121.69 Y102.487 E4.66143
G1 X121.734 Y103.863 E4.70722
G1 X121.761 Y110.784 E4.93742
G1 X121.739 Y115.925 E5.10841
G1 X121.694 Y117.395 E5.15732
G1 X121.635 Y118.391 E5.19051
G1 X121.537 Y119.336 E5.22211
G1 X121.464 Y119.881 E5.2404
G1 X121.385 Y120.363 E5.25664
G1 X121.188 Y121.359 E5.29041
G1 X121.079 Y121.79 E5.3052
G1 X120.897 Y122.385 E5.32589
G1 X120.74 Y122.831 E5.34162
G1 X120.446 Y123.584 E5.3685
G1 X120.05 Y124.458 E5.40042
G1 X119.588 Y125.276 E5.43166
G1 X119.076 Y126.02 E5.4617
G1 X118.397 Y126.834 E5.49696
G1 X117.854 Y127.41 E5.52329
G1 X117.168 Y128.05 E5.55449
G1 X116.427 Y128.627 E5.58573
G1 X115.639 Y129.136 E5.61693
G1 X114.841 Y129.558 E5.64695
G1 X114.039 Y129.899 E5.67594
G1 X113.74 Y130.012 E5.68657
G1 X112.847 Y130.304 E5.71782
G1 X111.934 Y130.514 E5.74898
G1 X111.004 Y130.643 E5.78021
G1 X110.066 Y130.691 E5.81145
G1 X109.129 Y130.654 E5.84263
G1 X108.198 Y130.535 E5.87385
G1 X107.316 Y130.343 E5.90387
G1 X106.634 Y130.139 E5.92755
G1 X106.349 Y130.043 E5.93755
G1 X105.474 Y129.704 E5.96876
G1 X104.632 Y129.289 E5.99999
G1 X103.831 Y128.8 E6.0312
G1 X103.072 Y128.24 E6.06257
G1 X102.222 Y127.474 E6.10063
G1 X101.874 Y127.123 E6.11707
G1 X101.243 Y126.428 E6.14829
G1 X100.677 Y125.68 E6.17949
G1 X100.197 Y124.915 E6.20953
G1 X99.757 Y124.055 E6.24166
G1 X99.546 Y123.559 E6.25958
G1 X99.167 Y122.56 E6.29512
G1 X98.897 Y121.699 E6.32513
G1 X98.77 Y121.169 E6.34326
G1 X98.673 Y120.692 E6.35945
G1 X98.524 Y119.791 E6.38982
G1 X98.443 Y119.187 E6.41009
G1 X98.34 Y118.025 E6.44889
G1 X98.31 Y117.51 E6.46605
G1 X98.26 Y115.845 E6.52145
G1 X98.239 Y109.216 E6.74194
G1 X98.261 Y104.075 E6.91293
G1 X98.306 Y102.606 E6.96181
G1 X98.355 Y101.741 E6.99063
G1 X98.391 Y101.316 E7.00481
G1 X98.465 Y100.652 E7.02703
G1 X98.544 Y100.062 E7.04683
G1 X98.715 Y99.102 E7.07927
G1 X98.919 Y98.232 E7.10899
G1 X99.115 Y97.58 E7.13163
G1 X99.319 Y97.013 E7.15167
G1 X99.54 Y96.452 E7.17173
G1 X99.922 Y95.596 E7.2029
G1 X100.38 Y94.776 E7.23414
G1 X100.887 Y94.029 E7.26417
G1 X101.605 Y93.162 E7.30161
G0 F6000 X101.896 Y93.436
G1 F960 X102.419 Y92.881 E7.32698
G1 X103.079 Y92.265 E7.357
G1 X103.791 Y91.709 E7.38705
G1 X104.549 Y91.219 E7.41707
G1 X105.348 Y90.797 E7.44712
G1 X106.048 Y90.498 E7.47244
G1 X106.337 Y90.387 E7.48274
G1 X107.193 Y90.101 E7.51276
G1 X108.072 Y89.892 E7.54281
G1 X108.966 Y89.761 E7.57286
G1 X109.867 Y89.71 E7.60287
G1 X110.77 Y89.739 E7.63292
G1 X111.666 Y89.847 E7.66294
G1 X112.55 Y90.034 E7.69299
G1 X113.284 Y90.254 E7.71848
G1 X113.554 Y90.346 E7.72797
G1 X114.395 Y90.675 E7.758
G1 X115.204 Y91.077 E7.78805
G1 X115.974 Y91.549 E7.81809
G1 X116.699 Y92.087 E7.84811
G1 X117.488 Y92.8 E7.88348
G1 X118.126 Y93.455 E7.9139
G1 X118.704 Y94.149 E7.94394
G1 X119.22 Y94.89 E7.97397
G1 X119.667 Y95.675 E8.00401
G1 X120.071 Y96.563 E8.03646
G1 X120.435 Y97.509 E8.07017
G1 X120.577 Y97.924 E8.08476
G1 X120.743 Y98.5 E8.1047
G1 X120.85 Y98.959 E8.12038
G1 X120.931 Y99.36 E8.13398
G1 X121.078 Y100.253 E8.16408
G1 X121.144 Y100.727 E8.18
G1 X121.197 Y101.227 E8.19673
G1 X121.26 Y101.99 E8.22219
G1 X121.29 Y102.5 E8.23918
G1 X121.334 Y103.865 E8.2846
G1 X121.361 Y110.782 E8.51467
G1 X121.339 Y115.913 E8.68533
G1 X121.295 Y117.371 E8.73384
G1 X121.237 Y118.35 E8.76646
G1 X121.14 Y119.283 E8.79766
G1 X121.069 Y119.817 E8.81558
G1 X120.993 Y120.285 E8.83135
G1 X120.8 Y121.261 E8.86444
G1 X120.696 Y121.673 E8.87857
G1 X120.514 Y122.268 E8.89926
G1 X120.367 Y122.686 E8.914
G1 X120.073 Y123.439 E8.94089
G1 X119.701 Y124.262 E8.97093
G1 X119.258 Y125.049 E9.00097
G1 X118.746 Y125.793 E9.031
G1 X118.106 Y126.56 E9.06423
G1 X117.581 Y127.118 E9.08971
G1 X116.922 Y127.735 E9.11974
G1 X116.21 Y128.291 E9.14978
G1 X115.452 Y128.782 E9.17982
G1 X114.654 Y129.204 E9.20985
G1 X113.898 Y129.525 E9.23716
G1 X113.615 Y129.632 E9.24723
G1 X112.757 Y129.914 E9.27727
G1 X111.878 Y130.118 E9.30728
G1 X110.983 Y130.244 E9.33734
G1 X110.081 Y130.291 E9.36738
G1 X109.179 Y130.257 E9.3974
G1 X108.283 Y130.144 E9.42744
G1 X107.401 Y129.952 E9.45746
G1 X106.761 Y129.76 E9.47969
G1 X106.493 Y129.67 E9.48909
G1 X105.65 Y129.345 E9.51914
G1 X104.84 Y128.947 E9.54916
G1 X104.068 Y128.478 E9.5792
G1 X103.34 Y127.943 E9.60925
G1 X102.506 Y127.192 E9.64658
G1 X102.17 Y126.854 E9.66243
G1 X101.562 Y126.186 E9.69247
G1 X101.016 Y125.467 E9.7225
G1 X100.536 Y124.702 E9.75254
G1 X100.125 Y123.898 E9.78257
G1 X99.92 Y123.417 E9.79996
G1 X99.549 Y122.44 E9.83472
G1 X99.279 Y121.579 E9.86473
G1 X99.162 Y121.09 E9.88145
G1 X99.068 Y120.626 E9.8972
G1 X98.92 Y119.737 E9.92718
G1 X98.841 Y119.152 E9.94681
G1 X98.739 Y118.002 E9.98521
G1 X98.71 Y117.498 E10.002
G1 X98.66 Y115.844 E10.05704
G1 X98.639 Y109.218 E10.27742
G1 X98.661 Y104.087 E10.44808
G1 X98.705 Y102.629 E10.49659
G1 X98.754 Y101.775 E10.52504
G1 X98.789 Y101.36 E10.5389
G1 X98.861 Y100.705 E10.56081
G1 X98.938 Y100.132 E10.58004
G1 X99.109 Y99.172 E10.61248
G1 X99.302 Y98.347 E10.64066
G1 X99.492 Y97.715 E10.66261
G1 X99.691 Y97.159 E10.68225
G1 X99.905 Y96.615 E10.70169
G1 X100.272 Y95.79 E10.73172
G1 X100.711 Y95.001 E10.76175
G1 X101.218 Y94.254 E10.79178
G1 X101.896 Y93.436 E10.82712
G1 F2700 E10.02712
;MESH:Page_Holder-thin.stl
G0 F6000 X109.064 Y117.663
G0 X109.998 Y117.564
;TYPE:WALL-OUTER
G1 F2700 E10.82712
G1 F994.8 X109.892 Y117.385 E10.83379
G1 X109.806 Y116.563 E10.86032
G1 F955.2 X109.789 Y115.761 E10.88714
G1 F888.9 X109.775 Y112.793 E10.99375
G1 F834.8 X109.761 Y109.825 E11.10727
G1 F818.8 X109.77 Y108.49 E11.15934
G1 F868.8 X109.789 Y104.244 E11.31539
G1 F952.9 X109.805 Y103.444 E11.3422
G1 F992.2 X109.892 Y102.611 E11.36915
G1 X109.997 Y102.434 E11.37578
G1 X110.105 Y102.615 E11.38256
G1 X110.19 Y103.433 E11.40902
G1 F952.9 X110.207 Y104.228 E11.43567
G1 F868.8 X110.232 Y108.49 E11.59231
G1 F820.5 X110.236 Y110.17 E11.65769
G1 F836.6 X110.222 Y112.963 E11.76429
G1 F888.9 X110.207 Y115.756 E11.86462
G1 F955.2 X110.191 Y116.552 E11.89123
G1 F994.8 X110.103 Y117.383 E11.91805
G1 X109.998 Y117.564 E11.92477
M104 S208
G1 F2700 E11.12477
;MESH:NONMESH
G0 F300 X109.998 Y117.564 Z0.4
G0 F6000 X109.064 Y117.663
G0 X101.896 Y93.436
;TIME_ELAPSED:28.091226
;LAYER:1
M106 S85
;TYPE:SKIRT
G1 F2700 E11.92477
G1 F960 X102.419 Y92.881 E11.95013
G1 X103.079 Y92.265 E11.98016
G1 X103.791 Y91.709 E12.0102
G1 X104.549 Y91.219 E12.04022
G1 X105.348 Y90.797 E12.07028
G1 X106.048 Y90.498 E12.09559
G1 X106.337 Y90.387 E12.10589
G1 X107.193 Y90.101 E12.13591
G1 X108.072 Y89.892 E12.16596
G1 X108.966 Y89.761 E12.19601
G1 X109.867 Y89.71 E12.22603
G1 X110.77 Y89.739 E12.25608
G1 X111.666 Y89.847 E12.28609
G1 X112.55 Y90.034 E12.31615
G1 X113.284 Y90.254 E12.34163
G1 X113.554 Y90.346 E12.35112
G1 X114.395 Y90.675 E12.38115
G1 X115.204 Y91.077 E12.4112
G1 X115.974 Y91.549 E12.44124
G1 X116.699 Y92.087 E12.47127
G1 X117.488 Y92.8 E12.50664
G1 X118.126 Y93.455 E12.53705
G1 X118.704 Y94.149 E12.56709
G1 X119.22 Y94.89 E12.59712
G1 X119.667 Y95.675 E12.62717
G1 X120.071 Y96.563 E12.65962
G1 X120.435 Y97.509 E12.69333
G1 X120.577 Y97.924 E12.70792
G1 X120.743 Y98.5 E12.72785
G1 X120.85 Y98.959 E12.74353
G1 X120.931 Y99.36 E12.75714
G1 X121.078 Y100.253 E12.78724
G1 X121.144 Y100.727 E12.80316
G1 X121.197 Y101.227 E12.81988
G1 X121.26 Y101.99 E12.84534
G1 X121.29 Y102.5 E12.86233
G1 X121.334 Y103.865 E12.90776
G1 X121.361 Y110.782 E13.13782
G1 X121.339 Y115.913 E13.30848
G1 X121.295 Y117.371 E13.35699
G1 X121.237 Y118.35 E13.38961
G1 X121.14 Y119.283 E13.42081
G1 X121.069 Y119.817 E13.43873
G1 X120.993 Y120.285 E13.4545
G1 X120.8 Y121.261 E13.48759
G1 X120.696 Y121.673 E13.50172
G1 X120.514 Y122.268 E13.52242
G1 X120.367 Y122.686 E13.53715
G1 X120.073 Y123.439 E13.56404
G1 X119.701 Y124.262 E13.59408
G1 X119.258 Y125.049 E13.62412
G1 X118.746 Y125.793 E13.65416
G1 X118.106 Y126.56 E13.68738
G1 X117.581 Y127.118 E13.71286
G1 X116.922 Y127.735 E13.74289
G1 X116.21 Y128.291 E13.77294
G1 X115.452 Y128.782 E13.80297
G1 X114.654 Y129.204 E13.833
G1 X113.898 Y129.525 E13.86032
G1 X113.615 Y129.632 E13.87038
G1 X112.757 Y129.914 E13.90042
G1 X111.878 Y130.118 E13.93043
G1 X110.983 Y130.244 E13.96049
G1 X110.081 Y130.291 E13.99053
G1 X109.179 Y130.257 E14.02056
G1 X108.283 Y130.144 E14.05059
G1 X107.401 Y129.952 E14.08062
G1 X106.761 Y129.76 E14.10284
G1 X106.493 Y129.67 E14.11224
G1 X105.65 Y129.345 E14.14229
G1 X104.84 Y128.947 E14.17231
G1 X104.068 Y128.478 E14.20235
G1 X103.34 Y127.943 E14.2324
G1 X102.506 Y127.192 E14.26973
G1 X102.17 Y126.854 E14.28558
G1 X101.562 Y126.186 E14.31562
G1 X101.016 Y125.467 E14.34565
G1 X100.536 Y124.702 E14.37569
G1 X100.125 Y123.898 E14.40572
G1 X99.92 Y123.417 E14.42311
G1 X99.549 Y122.44 E14.45787
G1 X99.279 Y121.579 E14.48788
G1 X99.162 Y121.09 E14.50461
G1 X99.068 Y120.626 E14.52035
G1 X98.92 Y119.737 E14.55033
G1 X98.841 Y119.152 E14.56996
G1 X98.739 Y118.002 E14.60836
G1 X98.71 Y117.498 E14.62515
G1 X98.66 Y115.844 E14.68019
G1 X98.639 Y109.218 E14.90057
G1 X98.661 Y104.087 E15.07123
G1 X98.705 Y102.629 E15.11975
G1 X98.754 Y101.775 E15.1482
G1 X98.789 Y101.36 E15.16205
G1 X98.861 Y100.705 E15.18397
G1 X98.938 Y100.132 E15.2032
G1 X99.109 Y99.172 E15.23563
G1 X99.302 Y98.347 E15.26381
G1 X99.492 Y97.715 E15.28576
G1 X99.691 Y97.159 E15.3054
G1 X99.905 Y96.615 E15.32484
G1 X100.272 Y95.79 E15.35488
G1 X100.711 Y95.001 E15.38491
G1 X101.218 Y94.254 E15.41493
G1 X101.896 Y93.436 E15.45027
G1 F2700 E14.65027
;MESH:Page_Holder-thin.stl
G0 F6300 X108.568 Y102.511
G0 X109.999 Y102.697
G0 X109.996 Y103.171
G0 X110.018 Y103.454
G0 X109.999 Y104.249
G0 X109.975 Y109.503
G0 X109.94 Y110.863
G0 X109.897 Y116.745
G0 X109.809 Y117.305
;TYPE:WALL-INNER
G1 F2700 E15.45027
G1 F1133.9 X109.907 Y118.056 E15.47426
G1 X109.998 Y118.458 E15.48732
G1 F1136.8 X110 Y118.449 E15.48761
G1 X110.091 Y118.048 E15.50061
G1 F1133.9 X110.188 Y117.293 E15.52472
G1 F1066.7 X110.214 Y116.524 E15.55063
G1 F981.8 X110.223 Y115.752 E15.57888
G1 F939.1 X110.236 Y110.496 E15.77992
G1 F935.1 X110.225 Y106.979 E15.91503
G1 F977.4 X110.215 Y103.462 E16.04428
G1 F1061.4 X110.188 Y102.673 E16.071
G1 F1133.9 X110.09 Y101.938 E16.09449
G1 X109.998 Y101.547 E16.10722
G1 X109.904 Y101.947 E16.12023
G1 X109.81 Y102.673 E16.14343
G1 F1061.4 X109.784 Y103.491 E16.17112
G1 F977.4 X109.773 Y104.244 E16.1988
G1 F935.1 X109.76 Y109.5 E16.40071
G1 X109.773 Y115.756 E16.64104
G1 F981.8 X109.784 Y116.531 E16.6694
G1 F1066.7 X109.809 Y117.305 E16.69548
G1 F2700 E15.89548
G0 F6300 X109.897 Y116.745
G0 X110.029 Y118.623
G0 X110.336 Y118.734
;TYPE:WALL-OUTER
G1 F2700 E16.69548
G1 F1080 X110.474 Y118.12 E16.71641
G1 X110.576 Y117.336 E16.7427
G1 X110.628 Y116.547 E16.769
G1 X110.648 Y115.754 E16.79539
G1 X110.671 Y110.494 E16.97034
G1 X110.648 Y104.222 E17.17895
G1 X110.63 Y103.436 E17.20509
G1 X110.577 Y102.64 E17.23163
G1 X110.475 Y101.872 E17.2574
G1 X110.328 Y101.256 E17.27846
G1 X110.135 Y100.927 E17.29115
G1 X109.998 Y100.847 E17.29642
G1 X109.861 Y100.927 E17.3017
