;FLAVOR:Marlin
;TIME:3479
;Filament used: 1.95152m
;Layer height: 0.2
;MINX:54.943
;MINY:77.018
;MINZ:0.2
;MAXX:164.879
;MAXY:142.791
;MAXZ:12.8
;TARGET_MACHINE.NAME:Creality Ender-3 S1
;Generated with Cura_SteamEngine 5.11.0
; Ender 3 S1 Start G-code
; M413 S0 ; Disable power loss recovery
G92 E0 ; Reset Extruder

; Prep surfaces before auto home for better accuracy
M140 S55.0
M104 S208.0

G28 ; Home all axes
G1 Z10.0 F3000 ; Move Z Axis up little to prevent scratching of Heat Bed
G1 X0 Y0

M190 S55.0
M109 S208.0

G1 X0.1 Y20 Z0.3 F5000.0 ; Move to start position
G1 X0.1 Y200.0 Z0.3 F1500.0 E15 ; Draw the first line
G1 X0.4 Y200.0 Z0.3 F5000.0 ; Move to side a little
G1 X0.4 Y20 Z0.3 F1500.0 E30 ; Draw the second line
G92 E0 ; Reset Extruder
G1 Z2.0 F3000 ; Move Z Axis up little to prevent scratching of Heat Bed
G1 X5 Y20 Z0.3 F5000.0 ; Move over to prevent blob squish

M82 ;absolute extrusion mode
G92 E0
G92 E0
G1 F2700 E-0.8
;LAYER_COUNT:64
;LAYER:0
M107
G0 F6000 X60.557 Y98.562 Z0.2
;TYPE:SKIRT
G1 F2700 E0
G1 F960 X61.398 Y98.076 E0.03231
G1 X62.191 Y97.702 E0.06147
G1 X62.48 Y97.58 E0.0719
G1 X63.361 Y97.254 E0.10315
G1 X64.057 Y97.053 E0.12724
G1 X64.947 Y96.833 E0.15773
G1 X66.504 Y96.5 E0.21069
G1 X68.992 Y95.921 E0.29565
G1 X71.402 Y95.288 E0.37853
G1 X73.84 Y94.574 E0.46302
G1 X76.198 Y93.809 E0.54547
G1 X78.584 Y92.96 E0.62971
G1 X80.93 Y92.051 E0.71339
G1 X83.292 Y91.057 E0.79862
G1 X85.532 Y90.04 E0.88044
G1 X87.795 Y88.933 E0.96423
G1 X90.029 Y87.76 E1.04816
G1 X92.235 Y86.522 E1.13229
G1 X94.39 Y85.233 E1.21581
G1 X96.51 Y83.88 E1.29946
G1 X98.622 Y82.445 E1.38439
G1 X99.324 Y81.953 E1.4129
G1 X101.856 Y80.117 E1.51692
G1 X102.56 Y79.588 E1.54621
G1 X103.007 Y79.268 E1.5645
G1 X104.019 Y78.639 E1.60413
G1 X104.441 Y78.41 E1.6201
G1 X105.318 Y77.983 E1.65254
G1 X106.229 Y77.639 E1.68493
G1 X107.097 Y77.392 E1.71494
G1 X107.995 Y77.211 E1.74541
G1 X108.526 Y77.128 E1.76329
G1 X109.482 Y77.034 E1.79524
G1 X110.11 Y77.018 E1.81613
G1 X111.012 Y77.058 E1.84616
G1 X112.048 Y77.198 E1.88093
G1 X113.008 Y77.418 E1.91369
G1 X114.219 Y77.829 E1.95622
G1 X114.732 Y78.046 E1.97475
G1 X115.558 Y78.455 E2.00541
G1 X116.572 Y79.011 E2.04387
G1 X118.863 Y80.227 E2.13014
G1 X121.087 Y81.329 E2.21269
G1 X123.389 Y82.387 E2.29695
G1 X125.717 Y83.381 E2.38115
G1 X128.026 Y84.289 E2.46367
G1 X130.4 Y85.147 E2.54763
G1 X132.805 Y85.939 E2.63184
G1 X135.239 Y86.666 E2.71633
G1 X137.613 Y87.302 E2.79808
G1 X140.104 Y87.894 E2.88323
G1 X142.564 Y88.406 E2.96681
G1 X145.002 Y88.841 E3.04918
G1 X148.525 Y89.354 E3.16759
G1 X149.161 Y89.469 E3.18908
G1 X150.493 Y89.747 E3.23434
G1 X151.476 Y90.027 E3.26834
G1 X152.22 Y90.304 E3.29474
G1 X152.729 Y90.522 E3.31316
G1 X153.124 Y90.708 E3.32768
G1 X153.993 Y91.164 E3.36032
G1 X154.944 Y91.787 E3.39813
G1 X155.591 Y92.279 E3.42517
G1 X156.054 Y92.668 E3.44528
G1 X156.487 Y93.069 E3.46491
G1 X157.056 Y93.644 E3.49182
G1 X157.391 Y94.002 E3.50812
G1 X157.913 Y94.623 E3.53511
G1 X158.104 Y94.87 E3.54549
G1 X158.758 Y95.814 E3.58369
G1 X159.12 Y96.43 E3.60745
G1 X159.301 Y96.761 E3.62
G1 X159.849 Y97.916 E3.66252
G1 X160.141 Y98.652 E3.68885
G1 X160.413 Y99.429 E3.71623
G1 X160.605 Y100.113 E3.73986
G1 X160.721 Y100.601 E3.75655
G1 X161.38 Y103.824 E3.86596
G1 X161.957 Y106.301 E3.95055
G1 X162.597 Y108.731 E4.03413
G1 X163.526 Y111.852 E4.14244
G1 X163.814 Y112.791 E4.1751
G1 X163.996 Y113.497 E4.19935
G1 X164.34 Y115.088 E4.25349
G1 X164.428 Y115.584 E4.27025
G1 X164.6 Y116.726 E4.30866
G1 X164.702 Y117.515 E4.33512
G1 X164.752 Y117.994 E4.35114
G1 X164.812 Y118.769 E4.37699
G1 X164.865 Y120.035 E4.41914
G1 X164.879 Y121.351 E4.46291
G1 X164.845 Y122.662 E4.50653
G1 X164.79 Y123.748 E4.5427
G1 X164.753 Y124.24 E4.55911
G1 X164.663 Y125.067 E4.58677
G1 X164.535 Y126.035 E4.61925
G1 X164.449 Y126.576 E4.63747
G1 X164.335 Y127.176 E4.65778
G1 X164.112 Y128.122 E4.69011
G1 X163.855 Y129.075 E4.72294
G1 X163.186 Y131.376 E4.80264
G1 X162.632 Y133.143 E4.86423
G1 X162.254 Y134.1 E4.89845
G1 X161.817 Y134.972 E4.93089
G1 X161.344 Y135.741 E4.96092
G1 X160.754 Y136.538 E4.9939
G1 X160.435 Y136.931 E5.01074
G1 X159.773 Y137.671 E5.04376
G1 X159.063 Y138.335 E5.0761
G1 X158.354 Y138.894 E5.10613
G1 X157.477 Y139.465 E5.14093
G1 X156.603 Y139.926 E5.1738
G1 X155.337 Y140.432 E5.21914
G1 X154.993 Y140.544 E5.23118
G1 X154.123 Y140.787 E5.26122
G1 X153.365 Y140.938 E5.28693
G1 X152.402 Y141.053 E5.31918
G1 X151.591 Y141.083 E5.34618
G1 X150.662 Y141.084 E5.37707
G1 X148.049 Y141.123 E5.46399
G1 X145.542 Y141.232 E5.54745
G1 X143.016 Y141.413 E5.63169
G1 X140.555 Y141.66 E5.71395
G1 X137.988 Y141.99 E5.80003
G1 X135.538 Y142.376 E5.88252
G1 X133.984 Y142.649 E5.935
G1 X133.016 Y142.763 E5.96742
G1 X132.114 Y142.791 E5.99743
G1 X131.071 Y142.731 E6.03218
G1 X130.105 Y142.586 E6.06467
G1 X129.115 Y142.344 E6.09857
G1 X128.69 Y142.212 E6.11337
G1 X128.176 Y142.033 E6.13147
G1 X127.484 Y141.738 E6.15649
G1 X127.351 Y141.698 E6.16111
G1 X124.662 Y140.516 E6.25881
G1 X122.353 Y139.581 E6.34166
G1 X119.96 Y138.69 E6.42659
G1 X117.592 Y137.884 E6.50979
G1 X115.192 Y137.141 E6.59335
G1 X112.765 Y136.465 E6.67715
G1 X110.336 Y135.863 E6.76038
G1 X107.819 Y135.313 E6.84607
G1 X106.202 Y134.998 E6.90086
G1 X104.979 Y134.775 E6.94221
G1 X103.92 Y134.556 E6.97818
G1 X103.431 Y134.444 E6.99487
G1 X102.626 Y134.236 E7.02252
G1 X101.748 Y133.983 E7.05291
G1 X101.002 Y133.742 E7.07898
G1 X100.51 Y133.566 E7.09636
G1 X99.323 Y133.11 E7.13866
G1 X98.758 Y132.876 E7.159
G1 X98.138 Y132.6 E7.18157
G1 X97.563 Y132.327 E7.20274
G1 X97.013 Y132.05 E7.22322
G1 X93.58 Y130.214 E7.35271
G1 X91.384 Y129.107 E7.4345
G1 X89.08 Y128.028 E7.51912
G1 X86.765 Y127.023 E7.60306
G1 X84.39 Y126.07 E7.68817
G1 X82.08 Y125.219 E7.77005
G1 X79.695 Y124.416 E7.85375
G1 X77.28 Y123.679 E7.93773
G1 X74.848 Y123.01 E8.02163
G1 X72.374 Y122.404 E8.10635
G1 X69.957 Y121.884 E8.18858
G1 X67.434 Y121.416 E8.27392
G1 X66.362 Y121.229 E8.31012
G1 X65.678 Y121.091 E8.33332
G1 X64.968 Y120.927 E8.35756
G1 X64.337 Y120.758 E8.37929
G1 X63.529 Y120.505 E8.40745
G1 X62.61 Y120.155 E8.44016
G1 X61.859 Y119.821 E8.46749
G1 X61.059 Y119.403 E8.49751
G1 X60.466 Y119.036 E8.52071
G1 X59.857 Y118.605 E8.54552
G1 X59.506 Y118.334 E8.56027
G1 X58.897 Y117.821 E8.58676
G1 X58.206 Y117.138 E8.61907
G1 X57.744 Y116.595 E8.64278
G1 X57.188 Y115.881 E8.67288
G1 X56.668 Y115.101 E8.70406
G1 X56.181 Y114.215 E8.73769
G1 X55.775 Y113.262 E8.77214
G1 X55.547 Y112.619 E8.79483
G1 X55.264 Y111.637 E8.82882
G1 X55.091 Y110.751 E8.85885
G1 X54.992 Y109.881 E8.88797
G1 X54.943 Y108.897 E8.92074
G1 X55.008 Y107.634 E8.9628
G1 X55.087 Y106.989 E8.98442
G1 X55.253 Y106.063 E9.01571
G1 X55.412 Y105.486 E9.03561
G1 X55.438 Y105.349 E9.04025
G1 X55.537 Y105.032 E9.0513
G1 X55.743 Y104.448 E9.07189
G1 X56.094 Y103.616 E9.10193
G1 X56.581 Y102.697 E9.13652
G1 X57.051 Y101.963 E9.16551
G1 X57.214 Y101.729 E9.175
G1 X57.678 Y101.112 E9.20067
G1 X58.274 Y100.433 E9.23072
G1 X59.112 Y99.643 E9.26903
G1 X59.76 Y99.121 E9.2967
G1 X60.557 Y98.562 E9.32908
G0 F6000 X60.758 Y98.908
G1 F960 X61.568 Y98.438 E9.36023
G1 X62.347 Y98.071 E9.38887
G1 X62.636 Y97.949 E9.3993
G1 X63.5 Y97.629 E9.42995
G1 X64.153 Y97.441 E9.45255
G1 X65.031 Y97.224 E9.48263
G1 X66.595 Y96.89 E9.53582
G1 X69.083 Y96.311 E9.62078
G1 X71.504 Y95.675 E9.70404
G1 X73.952 Y94.958 E9.78888
G1 X76.332 Y94.186 E9.8721
G1 X78.718 Y93.337 E9.95633
G1 X81.085 Y92.42 E10.04076
G1 X83.447 Y91.426 E10.12599
G1 X85.708 Y90.399 E10.20859
G1 X87.971 Y89.292 E10.29238
G1 X90.225 Y88.109 E10.37705
G1 X92.431 Y86.871 E10.46118
G1 X94.605 Y85.57 E10.54545
G1 X96.735 Y84.211 E10.62948
G1 X98.852 Y82.773 E10.7146
G1 X99.554 Y82.281 E10.74312
G1 X102.097 Y80.437 E10.84759
G1 X102.793 Y79.913 E10.87657
G1 X103.218 Y79.608 E10.89397
G1 X104.23 Y78.979 E10.9336
G1 X104.616 Y78.769 E10.94821
G1 X105.46 Y78.357 E10.97945
G1 X106.338 Y78.024 E11.01068
G1 X107.206 Y77.777 E11.0407
G1 X108.057 Y77.606 E11.06957
G1 X108.566 Y77.526 E11.08671
G1 X109.493 Y77.434 E11.11769
G1 X110.092 Y77.418 E11.13762
G1 X110.994 Y77.458 E11.16765
G1 X111.959 Y77.588 E11.20004
G1 X112.88 Y77.797 E11.23145
G1 X114.064 Y78.198 E11.27303
G1 X114.555 Y78.405 E11.29075
G1 X115.366 Y78.806 E11.32084
G1 X116.384 Y79.364 E11.35945
G1 X118.676 Y80.581 E11.44576
G1 X120.909 Y81.687 E11.52864
G1 X123.232 Y82.755 E11.61368
G1 X125.56 Y83.749 E11.69787
G1 X127.89 Y84.665 E11.78114
G1 X130.275 Y85.527 E11.86549
G1 X132.68 Y86.319 E11.94971
G1 X135.127 Y87.05 E12.03465
G1 X137.52 Y87.691 E12.11705
G1 X140.023 Y88.286 E12.20262
G1 X142.484 Y88.798 E12.28622
G1 X144.94 Y89.236 E12.3692
G1 X148.454 Y89.748 E12.48731
G1 X149.079 Y89.861 E12.50843
G1 X150.411 Y90.139 E12.55369
G1 X151.337 Y90.402 E12.58571
G1 X152.063 Y90.672 E12.61147
G1 X152.559 Y90.884 E12.62941
G1 X152.939 Y91.062 E12.64337
G1 X153.774 Y91.499 E12.67471
G1 X154.725 Y92.122 E12.71253
G1 X155.334 Y92.585 E12.73797
G1 X155.783 Y92.962 E12.75747
G1 X156.203 Y93.35 E12.77649
G1 X156.764 Y93.917 E12.80302
G1 X157.085 Y94.26 E12.81864
G1 X157.597 Y94.868 E12.84508
G1 X157.775 Y95.098 E12.85475
G1 X158.413 Y96.017 E12.89196
G1 X158.769 Y96.622 E12.91531
G1 X158.95 Y96.953 E12.92786
G1 X159.477 Y98.064 E12.96876
G1 X159.763 Y98.784 E12.99452
G1 X160.035 Y99.561 E13.0219
G1 X160.216 Y100.206 E13.04419
G1 X160.329 Y100.681 E13.06043
G1 X160.99 Y103.915 E13.17021
G1 X161.57 Y106.403 E13.25518
G1 X162.21 Y108.833 E13.33876
G1 X163.144 Y111.969 E13.44759
G1 X163.427 Y112.891 E13.47967
G1 X163.605 Y113.582 E13.5034
G1 X163.946 Y115.158 E13.55703
G1 X164.032 Y115.644 E13.57345
G1 X164.203 Y116.777 E13.61156
G1 X164.304 Y117.557 E13.63772
G1 X164.353 Y118.025 E13.65337
G1 X164.412 Y118.786 E13.67876
G1 X164.465 Y120.039 E13.72047
G1 X164.479 Y121.341 E13.76378
G1 X164.446 Y122.642 E13.80706
G1 X164.391 Y123.718 E13.8429
G1 X164.355 Y124.197 E13.85887
G1 X164.266 Y125.015 E13.88624
G1 X164.14 Y125.972 E13.91835
G1 X164.056 Y126.501 E13.93616
G1 X163.944 Y127.09 E13.9561
G1 X163.845 Y127.538 E13.97136
G1 X163.726 Y128.018 E13.98781
G1 X163.471 Y128.963 E14.02037
G1 X162.804 Y131.256 E14.09979
G1 X162.25 Y133.023 E14.16138
G1 X161.896 Y133.921 E14.19349
G1 X161.476 Y134.762 E14.22475
G1 X161.003 Y135.531 E14.25478
G1 X160.443 Y136.286 E14.28605
G1 X160.124 Y136.679 E14.30288
G1 X159.499 Y137.379 E14.33409
G1 X158.815 Y138.021 E14.3653
G1 X158.106 Y138.58 E14.39532
G1 X157.29 Y139.112 E14.42772
G1 X156.454 Y139.555 E14.45919
G1 X155.213 Y140.052 E14.50365
G1 X154.885 Y140.159 E14.51513
G1 X154.015 Y140.402 E14.54517
G1 X153.317 Y140.541 E14.56884
G1 X152.387 Y140.653 E14.6
G1 X151.591 Y140.683 E14.62649
G1 X150.656 Y140.684 E14.65759
G1 X148.032 Y140.723 E14.74488
G1 X145.525 Y140.832 E14.82834
G1 X142.983 Y141.014 E14.9131
G1 X140.504 Y141.263 E14.99597
G1 X137.937 Y141.593 E15.08205
G1 X135.469 Y141.982 E15.16515
G1 X133.937 Y142.252 E15.21689
G1 X133.004 Y142.363 E15.24814
G1 X132.102 Y142.391 E15.27816
G1 X131.13 Y142.335 E15.31054
G1 X130.2 Y142.197 E15.34181
G1 X129.21 Y141.955 E15.37571
G1 X128.821 Y141.834 E15.38925
G1 X128.333 Y141.665 E15.40643
G1 X127.615 Y141.359 E15.43239
G1 X127.512 Y141.332 E15.43593
G1 X124.812 Y140.145 E15.53403
G1 X122.493 Y139.206 E15.61724
G1 X120.089 Y138.311 E15.70256
G1 X117.721 Y137.505 E15.78576
G1 X115.31 Y136.759 E15.8697
G1 X112.861 Y136.077 E15.95425
G1 X110.421 Y135.472 E16.03787
G1 X107.895 Y134.92 E16.12386
G1 X106.278 Y134.606 E16.17865
G1 X105.06 Y134.383 E16.21983
G1 X104.009 Y134.166 E16.25553
G1 X103.531 Y134.057 E16.27183
G1 X102.737 Y133.852 E16.29911
G1 X101.871 Y133.602 E16.32909
G1 X101.136 Y133.365 E16.35477
G1 X100.654 Y133.193 E16.3718
G1 X99.476 Y132.74 E16.41377
G1 X98.921 Y132.511 E16.43374
G1 X98.309 Y132.238 E16.45603
G1 X97.743 Y131.97 E16.47686
G1 X97.202 Y131.697 E16.49701
G1 X93.769 Y129.861 E16.6265
G1 X91.554 Y128.745 E16.70899
G1 X89.239 Y127.661 E16.79401
G1 X86.924 Y126.656 E16.87795
G1 X84.539 Y125.699 E16.96343
G1 X82.208 Y124.84 E17.04605
G1 X79.812 Y124.033 E17.13014
G1 X77.397 Y123.296 E17.21412
G1 X74.943 Y122.621 E17.29878
G1 X72.469 Y122.015 E17.38349
G1 X70.041 Y121.493 E17.46609
G1 X67.503 Y121.022 E17.55195
G1 X66.441 Y120.837 E17.5878
G1 X65.768 Y120.701 E17.61064
G1 X65.072 Y120.541 E17.63439
G1 X64.457 Y120.376 E17.65557
G1 X63.649 Y120.123 E17.68373
G1 X62.772 Y119.789 E17.71495
G1 X62.044 Y119.466 E17.74144
G1 X61.244 Y119.048 E17.77146
G1 X60.677 Y118.696 E17.79365
G1 X60.101 Y118.288 E17.81713
G1 X59.75 Y118.017 E17.83188
G1 X59.73 Y117.992 E17.83294
G1 X59.178 Y117.536 E17.85676
G1 X58.51 Y116.878 E17.88794
G1 X58.059 Y116.349 E17.91107
G1 X57.521 Y115.659 E17.94017
G1 X57.019 Y114.908 E17.97021
G1 X56.532 Y114.022 E18.00384
G1 X56.152 Y113.128 E18.03615
G1 X55.924 Y112.485 E18.05884
G1 X55.657 Y111.56 E18.09086
G1 X55.484 Y110.674 E18.12089
G1 X55.391 Y109.86 E18.14814
G1 X55.342 Y108.917 E18.17954
G1 X55.405 Y107.682 E18.22067
G1 X55.481 Y107.059 E18.24155
G1 X55.639 Y106.169 E18.27161
G1 X55.803 Y105.574 E18.29214
G1 X55.82 Y105.468 E18.29571
G1 X55.914 Y105.165 E18.30626
G1 X56.112 Y104.603 E18.32608
G1 X56.463 Y103.771 E18.35611
G1 X56.918 Y102.913 E18.38841
G1 X57.38 Y102.191 E18.41692
G1 X57.534 Y101.969 E18.42591
G1 X57.979 Y101.376 E18.45057
G1 X58.575 Y100.697 E18.48062
G1 X59.363 Y99.954 E18.51664
G1 X59.99 Y99.448 E18.54344
G1 X60.758 Y98.908 E18.57467
G0 F6000 X60.959 Y99.254
G1 F960 X61.739 Y98.8 E18.60468
G1 X62.503 Y98.44 E18.63277
G1 X62.792 Y98.318 E18.64321
G1 X63.639 Y98.004 E18.67325
G1 X64.249 Y97.829 E18.69436
G1 X65.114 Y97.615 E18.724
G1 X66.686 Y97.28 E18.77746
G1 X69.174 Y96.701 E18.86242
G1 X71.606 Y96.062 E18.94605
G1 X74.064 Y95.342 E19.03124
G1 X76.466 Y94.563 E19.11523
G1 X78.858 Y93.712 E19.19967
G1 X81.23 Y92.793 E19.28428
G1 X83.602 Y91.795 E19.36987
G1 X85.884 Y90.758 E19.45324
G1 X88.147 Y89.651 E19.53703
G1 X90.421 Y88.458 E19.62244
G1 X92.627 Y87.22 E19.70658
G1 X94.82 Y85.907 E19.79159
G1 X96.96 Y84.542 E19.87601
G1 X99.082 Y83.101 E19.96133
G1 X99.784 Y82.609 E19.98984
G1 X102.338 Y80.757 E20.09477
G1 X103.034 Y80.233 E20.12374
G1 X103.429 Y79.948 E20.13994
G1 X104.441 Y79.319 E20.17957
G1 X104.792 Y79.128 E20.19287
G1 X105.603 Y78.731 E20.2229
G1 X106.447 Y78.409 E20.25294
G1 X107.315 Y78.162 E20.28296
G1 X108.119 Y78.001 E20.31023
G1 X108.606 Y77.924 E20.32663
G1 X109.504 Y77.834 E20.35665
G1 X110.074 Y77.818 E20.37561
G1 X110.976 Y77.858 E20.40564
G1 X111.871 Y77.978 E20.43568
G1 X112.752 Y78.176 E20.46571
G1 X113.936 Y78.577 E20.50729
G1 X114.378 Y78.764 E20.52325
G1 X115.174 Y79.157 E20.55278
G1 X116.196 Y79.717 E20.59154
G1 X118.488 Y80.934 E20.67785
G1 X120.742 Y82.05 E20.7615
G1 X123.075 Y83.123 E20.84691
G1 X125.403 Y84.117 E20.9311
G1 X127.754 Y85.041 E21.01512
G1 X130.15 Y85.907 E21.09986
G1 X132.555 Y86.699 E21.18407
G1 X135.023 Y87.436 E21.26974
G1 X137.427 Y88.08 E21.35252
G1 X139.942 Y88.678 E21.4385
G1 X142.404 Y89.19 E21.52214
G1 X144.878 Y89.631 E21.60572
G1 X148.383 Y90.142 E21.72353
G1 X148.997 Y90.253 E21.74428
G1 X150.329 Y90.531 E21.78954
G1 X151.198 Y90.777 E21.81958
G1 X151.906 Y91.04 E21.8447
G1 X152.389 Y91.246 E21.86216
G1 X152.754 Y91.417 E21.87557
G1 X153.555 Y91.834 E21.90561
G1 X154.506 Y92.457 E21.94342
G1 X155.077 Y92.891 E21.96727
G1 X155.512 Y93.256 E21.98616
G1 X155.919 Y93.631 E22.00457
G1 X156.472 Y94.19 E22.03072
G1 X156.779 Y94.518 E22.04566
G1 X157.281 Y95.114 E22.07158
G1 X157.446 Y95.326 E22.08052
G1 X158.084 Y96.245 E22.11773
G1 X158.418 Y96.814 E22.13967
G1 X158.599 Y97.145 E22.15222
G1 X159.105 Y98.212 E22.19149
G1 X159.385 Y98.916 E22.21669
G1 X159.657 Y99.693 E22.24407
G1 X159.827 Y100.299 E22.26501
G1 X159.937 Y100.761 E22.2808
G1 X160.6 Y104.006 E22.39096
G1 X161.183 Y106.505 E22.47631
G1 X161.823 Y108.935 E22.55989
G1 X162.762 Y112.087 E22.66928
G1 X163.04 Y112.991 E22.70074
G1 X163.214 Y113.667 E22.72395
G1 X163.552 Y115.228 E22.77707
G1 X163.636 Y115.704 E22.79315
G1 X163.806 Y116.829 E22.83099
G1 X163.906 Y117.599 E22.85682
G1 X163.954 Y118.056 E22.8721
G1 X164.012 Y118.803 E22.89702
G1 X164.065 Y120.043 E22.9383
