;FLAVOR:Marlin
;TIME:4816
;Filament used: 2.79829m
;Layer height: 0.2
;MINX:49.452
;MINY:74.603
;MINZ:0.2
;MAXX:170.548
;MAXY:145.41
;MAXZ:12
;TARGET_MACHINE.NAME:Creality Ender-3 S1
;Generated with Cura_SteamEngine 5.11.0
; Ender 3 S1 Start G-code
; M413 S0 ; Disable power loss recovery
G92 E0 ; Reset Extruder

; Prep surfaces before auto home for better accuracy
M140 S55.0
M104 S208.0

G28 ; Home all axes
G1 Z10.0 F3000 ; Move Z Axis up little to prevent scratching of Heat Bed
G1 X0 Y0

M190 S55.0
M109 S208.0

G1 X0.1 Y20 Z0.3 F5000.0 ; Move to start position
G1 X0.1 Y200.0 Z0.3 F1500.0 E15 ; Draw the first line
G1 X0.4 Y200.0 Z0.3 F5000.0 ; Move to side a little
G1 X0.4 Y20 Z0.3 F1500.0 E30 ; Draw the second line
G92 E0 ; Reset Extruder
G1 Z2.0 F3000 ; Move Z Axis up little to prevent scratching of Heat Bed
G1 X5 Y20 Z0.3 F5000.0 ; Move over to prevent blob squish

M82 ;absolute extrusion mode
G92 E0
G92 E0
G1 F2700 E-0.8
;LAYER_COUNT:60
;LAYER:0
M107
G0 F6000 X56.08 Y100.429 Z0.2
;TYPE:SKIRT
G1 F2700 E0
G1 F960 X56.785 Y100.107 E0.02578
G1 X57.37 Y99.883 E0.04661
G1 X58.471 Y99.54 E0.08497
G1 X58.904 Y99.438 E0.09976
G1 X60.402 Y99.122 E0.15068
G1 X62.885 Y98.555 E0.2354
G1 X65.312 Y97.928 E0.31877
G1 X67.704 Y97.236 E0.40159
G1 X70.14 Y96.458 E0.48664
G1 X72.475 Y95.637 E0.56897
G1 X74.863 Y94.722 E0.65402
G1 X77.167 Y93.763 E0.73703
G1 X79.486 Y92.721 E0.82158
G1 X81.762 Y91.619 E0.90569
G1 X83.941 Y90.486 E0.98738
G1 X86.175 Y89.244 E1.07239
G1 X88.323 Y87.969 E1.15547
G1 X90.481 Y86.604 E1.2404
G1 X92.56 Y85.205 E1.32375
G1 X94.577 Y83.763 E1.40621
G1 X96.618 Y82.214 E1.49143
G1 X98.567 Y80.646 E1.57463
G1 X100.5 Y79.001 E1.65905
G1 X101.998 Y77.658 E1.72597
G1 X102.367 Y77.342 E1.74213
G1 X103.158 Y76.746 E1.77507
G1 X103.745 Y76.363 E1.79838
G1 X104.749 Y75.8 E1.83666
G1 X105.607 Y75.419 E1.86789
G1 X106.548 Y75.096 E1.90098
G1 X107.099 Y74.951 E1.91993
G1 X107.537 Y74.853 E1.93486
G1 X108.206 Y74.728 E1.95749
G1 X108.626 Y74.667 E1.97161
G1 X108.892 Y74.678 E1.98046
G1 X109.063 Y74.732 E1.98643
G1 X109.344 Y74.942 E1.9981
G1 X109.525 Y75.286 E2.01102
G1 X109.57 Y75.643 E2.02299
G1 X109.913 Y75.599 E2.03449
G1 X109.931 Y75.348 E2.04286
G1 X109.999 Y75.09 E2.05174
G1 X110.208 Y74.806 E2.06347
G1 X110.543 Y74.63 E2.07605
G1 X110.726 Y74.603 E2.0822
G1 X111.204 Y74.645 E2.09816
G1 X111.872 Y74.734 E2.12058
G1 X112.758 Y74.907 E2.1506
G1 X113.756 Y75.196 E2.18516
G1 X114.549 Y75.497 E2.21337
G1 X115.481 Y75.92 E2.24741
G1 X116.328 Y76.4 E2.27979
G1 X117.1 Y76.931 E2.31096
G1 X117.759 Y77.468 E2.33923
G1 X118.606 Y78.216 E2.37682
G1 X119.434 Y78.964 E2.41393
G1 X121.362 Y80.608 E2.4982
G1 X123.295 Y82.164 E2.58074
G1 X125.343 Y83.72 E2.66628
G1 X127.362 Y85.165 E2.74886
G1 X129.46 Y86.579 E2.83301
G1 X131.601 Y87.936 E2.91732
G1 X133.782 Y89.233 E3.00172
G1 X135.906 Y90.415 E3.08256
G1 X138.203 Y91.611 E3.1687
G1 X140.451 Y92.701 E3.25179
G1 X142.758 Y93.741 E3.33596
G1 X145.046 Y94.695 E3.41841
G1 X147.44 Y95.615 E3.50371
G1 X149.75 Y96.428 E3.58516
G1 X152.205 Y97.214 E3.6709
G1 X154.623 Y97.916 E3.75464
G1 X157.022 Y98.536 E3.83706
G1 X159.758 Y99.161 E3.9304
G1 X161.047 Y99.436 E3.97424
G1 X161.937 Y99.665 E4.0048
G1 X162.493 Y99.84 E4.02419
G1 X163.409 Y100.192 E4.05683
G1 X163.958 Y100.448 E4.07697
G1 X164.833 Y100.938 E4.11033
G1 X165.603 Y101.461 E4.14129
G1 X166.161 Y101.888 E4.16466
G1 X166.912 Y102.549 E4.19793
G1 X167.586 Y103.259 E4.23049
G1 X168.242 Y104.09 E4.26571
G1 X168.457 Y104.392 E4.27804
G1 X168.999 Y105.254 E4.3119
G1 X169.413 Y106.057 E4.34195
G1 X169.793 Y106.988 E4.3754
G1 X170.1 Y107.958 E4.40924
G1 X170.325 Y108.904 E4.44158
G1 X170.458 Y109.797 E4.47161
G1 X170.517 Y110.708 E4.50197
G1 X170.544 Y111.966 E4.54382
G1 X170.548 Y113.831 E4.60585
G1 X170.537 Y114.668 E4.63369
G1 X170.48 Y115.637 E4.66598
G1 X170.345 Y116.565 E4.69717
G1 X170.143 Y117.432 E4.72678
G1 X169.965 Y118.06 E4.74849
G1 X169.623 Y119.027 E4.7826
G1 X169.216 Y119.91 E4.81494
G1 X168.752 Y120.726 E4.84616
G1 X168.219 Y121.499 E4.87739
G1 X167.86 Y121.97 E4.89709
G1 X167.223 Y122.707 E4.92949
G1 X166.575 Y123.336 E4.95953
G1 X165.545 Y124.155 E5.00329
G1 X165.044 Y124.496 E5.02345
G1 X164.234 Y124.975 E5.05475
G1 X163.132 Y125.491 E5.09522
G1 X162.807 Y125.62 E5.10685
G1 X161.919 Y125.923 E5.13806
G1 X160.945 Y126.163 E5.17142
G1 X160.162 Y126.289 E5.1978
G1 X158.979 Y126.436 E5.23745
G1 X156.406 Y126.791 E5.32384
G1 X153.894 Y127.21 E5.40854
G1 X151.452 Y127.691 E5.49132
G1 X149.026 Y128.24 E5.57405
G1 X146.551 Y128.871 E5.65901
G1 X144.137 Y129.564 E5.74254
G1 X141.753 Y130.321 E5.82573
G1 X139.342 Y131.161 E5.91065
G1 X137.024 Y132.043 E5.99314
G1 X134.659 Y133.022 E6.07827
G1 X132.375 Y134.041 E6.16146
G1 X130.131 Y135.121 E6.24429
G1 X127.86 Y136.295 E6.32932
G1 X125.681 Y137.499 E6.41212
G1 X123.533 Y138.769 E6.49511
G1 X121.369 Y140.13 E6.58014
G1 X119.285 Y141.526 E6.66357
G1 X117.585 Y142.744 E6.73313
G1 X116.942 Y143.193 E6.75921
G1 X115.867 Y143.856 E6.80122
G1 X115.194 Y144.211 E6.82652
G1 X114.254 Y144.628 E6.86073
G1 X113.366 Y144.931 E6.89193
G1 X112.395 Y145.171 E6.9252
G1 X111.63 Y145.297 E6.95099
G1 X110.66 Y145.397 E6.98342
G1 X109.678 Y145.41 E7.01609
G1 X108.553 Y145.317 E7.05363
G1 X108.164 Y145.262 E7.0667
G1 X107.205 Y145.083 E7.09915
G1 X106.269 Y144.82 E7.13148
G1 X105.361 Y144.476 E7.16378
G1 X104.602 Y144.114 E7.19175
G1 X103.761 Y143.639 E7.22387
G1 X103.056 Y143.17 E7.25203
G1 X102.992 Y143.138 E7.25441
G1 X101.907 Y142.365 E7.29872
G1 X99.762 Y140.88 E7.3855
G1 X97.705 Y139.539 E7.46717
G1 X95.514 Y138.197 E7.55262
G1 X93.341 Y136.952 E7.63592
G1 X91.129 Y135.764 E7.71943
G1 X88.881 Y134.639 E7.80304
G1 X86.585 Y133.569 E7.88729
G1 X84.293 Y132.579 E7.97033
G1 X81.957 Y131.647 E8.05398
G1 X79.542 Y130.763 E8.13951
G1 X77.224 Y129.987 E8.22082
G1 X74.785 Y129.247 E8.30559
G1 X72.341 Y128.58 E8.38985
G1 X69.901 Y127.988 E8.47336
G1 X67.458 Y127.467 E8.55644
G1 X64.964 Y127.01 E8.64077
G1 X62.472 Y126.626 E8.72464
G1 X59.729 Y126.273 E8.81662
G1 X59.257 Y126.194 E8.83254
G1 X58.719 Y126.079 E8.85084
G1 X57.917 Y125.863 E8.87846
G1 X56.996 Y125.547 E8.91085
G1 X56.135 Y125.166 E8.94216
G1 X55.161 Y124.622 E8.97927
G1 X54.748 Y124.351 E8.9957
G1 X54.189 Y123.949 E9.0186
G1 X53.415 Y123.321 E9.05175
G1 X52.717 Y122.643 E9.08411
G1 X52.085 Y121.913 E9.11623
G1 X51.593 Y121.246 E9.1438
G1 X51.101 Y120.488 E9.17385
G1 X50.612 Y119.564 E9.20862
G1 X50.248 Y118.696 E9.23993
G1 X50.117 Y118.323 E9.25308
G1 X49.907 Y117.642 E9.27678
G1 X49.68 Y116.694 E9.3092
G1 X49.546 Y115.801 E9.33924
G1 X49.484 Y114.864 E9.37047
G1 X49.456 Y113.555 E9.41402
G1 X49.452 Y111.729 E9.47475
G1 X49.464 Y110.865 E9.50349
G1 X49.52 Y109.905 E9.53547
G1 X49.599 Y109.311 E9.5554
G1 X49.688 Y108.812 E9.57226
G1 X49.798 Y108.318 E9.5891
G1 X50.07 Y107.361 E9.62219
G1 X50.415 Y106.455 E9.65443
G1 X50.775 Y105.702 E9.68219
G1 X51.141 Y105.031 E9.70761
G1 X51.327 Y104.719 E9.71969
G1 X51.877 Y103.915 E9.75209
G1 X52.508 Y103.151 E9.78505
G1 X53.475 Y102.204 E9.83007
G1 X54.255 Y101.572 E9.86346
G1 X55.025 Y101.028 E9.89481
G1 X56.08 Y100.429 E9.93517
G1 F2700 E9.13517
G0 F6000 X109.168 Y75.675
G1 F2700 E9.93517
G1 F960 X109.128 Y75.336 E9.94652
G1 X109.013 Y75.167 E9.95332
G1 X108.86 Y75.077 E9.95922
G1 X108.683 Y75.063 E9.96513
G1 X108.263 Y75.124 E9.97924
G1 X107.61 Y75.246 E10.00134
G1 X107.187 Y75.341 E10.01576
G1 X106.65 Y75.483 E10.03423
G1 X105.769 Y75.785 E10.06521
G1 X104.911 Y76.166 E10.09643
G1 X103.941 Y76.712 E10.13345
G1 X103.399 Y77.065 E10.15497
G1 X102.608 Y77.661 E10.18791
G1 X102.259 Y77.961 E10.20321
G1 X100.759 Y79.306 E10.27022
G1 X98.818 Y80.958 E10.355
G1 X96.86 Y82.533 E10.43858
G1 X94.819 Y84.082 E10.5238
G1 X92.783 Y85.537 E10.60703
G1 X90.695 Y86.942 E10.69073
G1 X88.535 Y88.308 E10.77574
G1 X86.369 Y89.594 E10.85952
G1 X84.135 Y90.836 E10.94453
G1 X81.936 Y91.979 E11.02696
G1 X79.65 Y93.086 E11.11144
G1 X77.331 Y94.128 E11.196
G1 X75.006 Y95.096 E11.27976
G1 X72.618 Y96.011 E11.36482
G1 X70.262 Y96.839 E11.44788
G1 X67.826 Y97.617 E11.53293
G1 X65.418 Y98.313 E11.6163
G1 X62.974 Y98.945 E11.70026
G1 X60.491 Y99.512 E11.78497
G1 X58.986 Y99.829 E11.83613
G1 X58.59 Y99.922 E11.84966
G1 X57.513 Y100.257 E11.88717
G1 X56.928 Y100.481 E11.90801
G1 X56.246 Y100.793 E11.93295
G1 X55.256 Y101.355 E11.97082
G1 X54.486 Y101.899 E12.00217
G1 X53.755 Y102.49 E12.03344
G1 X52.788 Y103.437 E12.07845
G1 X52.186 Y104.169 E12.10998
G1 X51.658 Y104.944 E12.14117
G1 X51.516 Y105.195 E12.15076
G1 X51.492 Y105.223 E12.15199
G1 X51.126 Y105.894 E12.17741
G1 X50.776 Y106.627 E12.20442
G1 X50.444 Y107.503 E12.23558
G1 X50.183 Y108.427 E12.26752
G1 X50.079 Y108.898 E12.28356
G1 X49.993 Y109.381 E12.29988
G1 X49.917 Y109.957 E12.3192
G1 X49.863 Y110.888 E12.35022
G1 X49.852 Y111.734 E12.37836
G1 X49.856 Y113.554 E12.43889
G1 X49.884 Y114.855 E12.48217
G1 X49.942 Y115.742 E12.51174
G1 X50.076 Y116.635 E12.54177
G1 X50.296 Y117.548 E12.57301
G1 X50.499 Y118.205 E12.59588
G1 X50.617 Y118.541 E12.60772
G1 X50.981 Y119.409 E12.63903
G1 X51.437 Y120.27 E12.67143
G1 X51.929 Y121.028 E12.70149
G1 X52.407 Y121.675 E12.72825
G1 X53.019 Y122.381 E12.75932
G1 X53.693 Y123.034 E12.79053
G1 X54.423 Y123.624 E12.82175
G1 X54.982 Y124.026 E12.84465
G1 X55.381 Y124.288 E12.86053
G1 X56.297 Y124.8 E12.89543
G1 X57.158 Y125.181 E12.92675
G1 X58.046 Y125.484 E12.95795
G1 X58.823 Y125.693 E12.98472
G1 X59.323 Y125.799 E13.00172
G1 X59.795 Y125.878 E13.01763
G1 X62.523 Y126.229 E13.10911
G1 X65.025 Y126.615 E13.19332
G1 X67.541 Y127.076 E13.27839
G1 X69.995 Y127.599 E13.36185
G1 X72.435 Y128.191 E13.44535
G1 X74.901 Y128.864 E13.53037
G1 X77.34 Y129.604 E13.61515
G1 X79.679 Y130.387 E13.69719
G1 X82.105 Y131.275 E13.78311
G1 X84.441 Y132.207 E13.86676
G1 X86.754 Y133.206 E13.95056
G1 X89.05 Y134.276 E14.03481
G1 X91.308 Y135.406 E14.11879
G1 X93.54 Y136.605 E14.20306
G1 X95.723 Y137.856 E14.28675
G1 X97.914 Y139.198 E14.3722
G1 X99.99 Y140.551 E14.45462
G1 X102.139 Y142.039 E14.54156
G1 X103.224 Y142.812 E14.58587
G1 X103.256 Y142.822 E14.58698
G1 X103.983 Y143.306 E14.61603
G1 X104.798 Y143.765 E14.64714
G1 X105.533 Y144.115 E14.67422
G1 X106.41 Y144.446 E14.7054
G1 X107.313 Y144.698 E14.73658
G1 X108.237 Y144.869 E14.76783
G1 X108.586 Y144.918 E14.77955
G1 X109.711 Y145.011 E14.8171
G1 X110.654 Y144.997 E14.84847
G1 X111.588 Y144.899 E14.8797
G1 X112.33 Y144.776 E14.90472
G1 X113.237 Y144.552 E14.93579
G1 X114.125 Y144.249 E14.967
G1 X115.007 Y143.857 E14.9991
G1 X115.68 Y143.502 E15.02441
G1 X116.713 Y142.865 E15.06477
G1 X117.356 Y142.416 E15.09086
G1 X119.062 Y141.194 E15.16065
G1 X121.156 Y139.791 E15.24449
G1 X123.32 Y138.43 E15.32951
G1 X125.477 Y137.155 E15.41285
G1 X127.676 Y135.94 E15.49641
G1 X129.947 Y134.766 E15.58144
G1 X132.212 Y133.676 E15.66505
G1 X134.506 Y132.652 E15.7486
G1 X136.871 Y131.673 E15.83373
G1 X139.21 Y130.783 E15.91697
G1 X141.621 Y129.943 E16.00189
G1 X144.016 Y129.183 E16.08546
G1 X146.452 Y128.484 E16.16975
G1 X148.927 Y127.852 E16.25471
G1 X151.364 Y127.301 E16.33781
G1 X153.828 Y126.816 E16.42134
G1 X156.34 Y126.397 E16.50604
G1 X158.93 Y126.039 E16.59301
G1 X160.113 Y125.892 E16.63265
G1 X160.881 Y125.768 E16.65853
G1 X161.79 Y125.544 E16.68967
G1 X162.678 Y125.241 E16.72087
G1 X162.984 Y125.119 E16.73183
G1 X164.064 Y124.613 E16.7715
G1 X164.84 Y124.152 E16.80152
G1 X165.319 Y123.825 E16.82081
G1 X166.296 Y123.049 E16.86231
G1 X166.944 Y122.42 E16.89234
G1 X167.557 Y121.709 E16.92357
G1 X167.901 Y121.257 E16.94246
G1 X168.404 Y120.528 E16.97192
G1 X168.868 Y119.712 E17.00314
G1 X169.259 Y118.86 E17.03432
G1 X169.58 Y117.951 E17.06638
G1 X169.758 Y117.323 E17.08809
G1 X169.949 Y116.507 E17.11597
G1 X170.084 Y115.579 E17.14716
G1 X170.138 Y114.645 E17.17827
G1 X170.148 Y113.826 E17.20552
G1 X170.144 Y111.967 E17.26735
G1 X170.117 Y110.717 E17.30893
G1 X170.062 Y109.856 E17.33763
G1 X169.929 Y108.963 E17.36766
G1 X169.711 Y108.051 E17.39884
G1 X169.412 Y107.109 E17.43171
G1 X169.057 Y106.24 E17.46294
G1 X168.643 Y105.437 E17.49298
G1 X168.131 Y104.624 E17.52494
G1 X167.916 Y104.322 E17.53727
G1 X167.272 Y103.507 E17.57182
G1 X166.622 Y102.825 E17.60315
G1 X165.918 Y102.206 E17.63433
G1 X165.36 Y101.779 E17.6577
G1 X164.608 Y101.269 E17.68792
G1 X163.789 Y100.811 E17.71913
G1 X163.24 Y100.555 E17.73928
G1 X162.373 Y100.222 E17.77017
G1 X161.817 Y100.047 E17.78956
G1 X160.947 Y99.823 E17.81944
G1 X159.669 Y99.551 E17.8629
G1 X156.933 Y98.926 E17.95624
G1 X154.511 Y98.3 E18.03945
G1 X152.086 Y97.596 E18.12343
G1 X149.628 Y96.809 E18.20927
G1 X147.307 Y95.992 E18.29111
G1 X144.892 Y95.064 E18.37716
G1 X142.594 Y94.106 E18.45997
G1 X140.287 Y93.066 E18.54414
G1 X138.018 Y91.966 E18.628
G1 X135.721 Y90.77 E18.71414
G1 X133.578 Y89.577 E18.79572
G1 X131.388 Y88.275 E18.88046
G1 X129.236 Y86.911 E18.9652
G1 X127.138 Y85.497 E19.04935
G1 X125.101 Y84.039 E19.13266
G1 X123.053 Y82.483 E19.21821
G1 X121.111 Y80.92 E19.30112
G1 X119.174 Y79.268 E19.3858
G1 X118.338 Y78.513 E19.42326
G1 X117.494 Y77.768 E19.46071
G1 X116.873 Y77.261 E19.48737
G1 X116.101 Y76.73 E19.51854
G1 X115.284 Y76.268 E19.54975
G1 X114.407 Y75.871 E19.58177
G1 X113.614 Y75.57 E19.60998
G1 X112.681 Y75.3 E19.64229
G1 X111.795 Y75.127 E19.67231
G1 X111.152 Y75.042 E19.69389
G1 X110.691 Y75.002 E19.70928
G1 X110.502 Y75.077 E19.71604
G1 X110.382 Y75.207 E19.72192
G1 X110.33 Y75.377 E19.72784
G1 X110.312 Y75.628 E19.73621
G0 F6000 X110.711 Y75.657
G1 F960 X110.729 Y75.406 E19.74458
G1 X111.1 Y75.439 E19.75696
G1 X111.718 Y75.52 E19.77769
G1 X112.604 Y75.693 E19.80772
G1 X113.472 Y75.944 E19.83777
G1 X114.265 Y76.245 E19.86598
G1 X115.088 Y76.617 E19.89602
G1 X115.875 Y77.06 E19.92606
G1 X116.62 Y77.571 E19.95611
G1 X117.229 Y78.068 E19.98225
G1 X118.07 Y78.81 E20.01955
G1 X118.914 Y79.572 E20.05737
G1 X120.86 Y81.232 E20.14245
G1 X122.811 Y82.802 E20.22574
G1 X124.859 Y84.358 E20.31129
G1 X126.914 Y85.829 E20.39534
G1 X129.012 Y87.243 E20.47949
G1 X131.175 Y88.614 E20.56467
G1 X133.374 Y89.921 E20.64975
G1 X135.536 Y91.125 E20.73206
G1 X137.843 Y92.326 E20.81856
G1 X140.113 Y93.427 E20.90248
G1 X142.43 Y94.471 E20.987
G1 X144.748 Y95.437 E21.07053
G1 X147.167 Y96.367 E21.15672
G1 X149.506 Y97.19 E21.23919
G1 X151.964 Y97.977 E21.32503
G1 X154.405 Y98.685 E21.40957
G1 X156.844 Y99.316 E21.49336
G1 X159.58 Y99.941 E21.58671
G1 X160.847 Y100.21 E21.62978
G1 X161.697 Y100.429 E21.65898
G1 X162.253 Y100.604 E21.67837
G1 X163.096 Y100.928 E21.7084
G1 X163.595 Y101.161 E21.72672
G1 X164.384 Y101.6 E21.75675
G1 X165.117 Y102.097 E21.78621
G1 X165.654 Y102.507 E21.80868
G1 X166.333 Y103.102 E21.83871
G1 X166.958 Y103.755 E21.86877
G1 X167.59 Y104.554 E21.90265
G1 X167.805 Y104.856 E21.91498
G1 X168.287 Y105.62 E21.94503
G1 X168.701 Y106.423 E21.97508
G1 X169.031 Y107.23 E22.00408
G1 X169.322 Y108.144 E22.03598
G1 X169.533 Y109.022 E22.06601
G1 X169.666 Y109.915 E22.09604
G1 X169.717 Y110.726 E22.12307
G1 X169.744 Y111.968 E22.16439
G1 X169.748 Y113.822 E22.22605
G1 X169.739 Y114.622 E22.25266
G1 X169.688 Y115.522 E22.28264
G1 X169.559 Y116.416 E22.31269
G1 X169.373 Y117.214 E22.33994
G1 X169.195 Y117.842 E22.36165
G1 X168.895 Y118.694 E22.39169
G1 X168.52 Y119.515 E22.42171
G1 X168.075 Y120.301 E22.45175
G1 X167.583 Y121.015 E22.48059
G1 X167.253 Y121.448 E22.4987
G1 X166.665 Y122.133 E22.52873
G1 X166.017 Y122.762 E22.55876
G1 X165.093 Y123.495 E22.59799
G1 X164.636 Y123.808 E22.61642
G1 X163.86 Y124.269 E22.64644
G1 X162.835 Y124.748 E22.68407
G1 X162.548 Y124.863 E22.69435
G1 X161.694 Y125.156 E22.72438
G1 X160.817 Y125.373 E22.75443
G1 X160.064 Y125.495 E22.7798
G1 X158.881 Y125.642 E22.81945
G1 X156.274 Y126.003 E22.90699
G1 X153.762 Y126.422 E22.99169
G1 X151.276 Y126.911 E23.07596
G1 X148.828 Y127.464 E23.15943
G1 X146.353 Y128.097 E23.2444
G1 X143.895 Y128.802 E23.32945
G1 X141.489 Y129.565 E23.4134
G1 X139.078 Y130.405 E23.49832
G1 X136.718 Y131.303 E23.5823
G1 X134.353 Y132.282 E23.66744
G1 X132.049 Y133.311 E23.75136
G1 X129.763 Y134.411 E23.83574
G1 X127.492 Y135.585 E23.92077
G1 X125.273 Y136.811 E24.00509
