;FLAVOR:Marlin
;TIME:10150
;Filament used: 4.56665m
;Layer height: 0.2
;MINX:21.135
;MINY:22.629
;MINZ:0.2
;MAXX:192.639
;MAXY:208.804
;MAXZ:5.8
;TARGET_MACHINE.NAME:Creality Ender-3 S1
;Generated with Cura_SteamEngine 5.11.0
; Ender 3 S1 Start G-code
; M413 S0 ; Disable power loss recovery
G92 E0 ; Reset Extruder

; Prep surfaces before auto home for better accuracy
M140 S55.0
M104 S208.0

G28 ; Home all axes
G1 Z10.0 F3000 ; Move Z Axis up little to prevent scratching of Heat Bed
G1 X0 Y0

M190 S55.0
M109 S208.0

G1 X0.1 Y20 Z0.3 F5000.0 ; Move to start position
G1 X0.1 Y200.0 Z0.3 F1500.0 E15 ; Draw the first line
G1 X0.4 Y200.0 Z0.3 F5000.0 ; Move to side a little
G1 X0.4 Y20 Z0.3 F1500.0 E30 ; Draw the second line
G92 E0 ; Reset Extruder
G1 Z2.0 F3000 ; Move Z Axis up little to prevent scratching of Heat Bed
G1 X5 Y20 Z0.3 F5000.0 ; Move over to prevent blob squish

M82 ;absolute extrusion mode
G92 E0
G92 E0
G1 F2700 E-0.8
;LAYER_COUNT:29
;LAYER:0
M107
G0 F6000 X62.67 Y82.889 Z0.2
;TYPE:SKIRT
G1 F2700 E0
G1 F960 X63.422 Y82.392 E0.02998
G1 X63.95 Y82.092 E0.05018
G1 X65.965 Y81.042 E0.12575
G1 X68.132 Y79.845 E0.20809
G1 X70.292 Y78.568 E0.29155
G1 X72.456 Y77.207 E0.37657
G1 X74.734 Y75.678 E0.46783
G1 X75.291 Y75.293 E0.49035
G1 X75.843 Y74.937 E0.51219
G1 X76.366 Y74.621 E0.53252
G1 X77.123 Y74.206 E0.56123
G1 X77.975 Y73.813 E0.59244
G1 X78.891 Y73.464 E0.62504
G1 X79.668 Y73.249 E0.65185
G1 X79.718 Y73.228 E0.65366
G1 X80.939 Y72.927 E0.69548
G1 X83.509 Y72.256 E0.78383
G1 X85.911 Y71.555 E0.86705
G1 X88.283 Y70.789 E0.94996
G1 X90.684 Y69.942 E1.03464
G1 X93.023 Y69.037 E1.11805
G1 X95.363 Y68.057 E1.20243
G1 X97.607 Y67.04 E1.28437
G1 X99.949 Y65.901 E1.37099
G1 X102.113 Y64.768 E1.45224
G1 X104.338 Y63.524 E1.53702
G1 X106.473 Y62.25 E1.61971
G1 X108.638 Y60.872 E1.70507
G1 X110.688 Y59.485 E1.78739
G1 X112.75 Y58.003 E1.87185
G1 X114.758 Y56.472 E1.95584
G1 X116.687 Y54.912 E2.03835
G1 X118.625 Y53.254 E2.12318
G1 X120.48 Y51.572 E2.20646
G1 X122.319 Y49.809 E2.2912
G1 X124.05 Y48.051 E2.37325
G1 X125.786 Y46.187 E2.45797
G1 X127.441 Y44.305 E2.54133
G1 X129.058 Y42.358 E2.62551
G1 X130.616 Y40.369 E2.70954
G1 X132.114 Y38.344 E2.79332
G1 X133.242 Y36.735 E2.85868
G1 X133.565 Y36.291 E2.87694
G1 X134.108 Y35.603 E2.90609
G1 X134.691 Y34.931 E2.93568
G1 X135.288 Y34.307 E2.9644
G1 X135.919 Y33.705 E2.99341
G1 X136.588 Y33.127 E3.02281
G1 X137.316 Y32.558 E3.05355
G1 X138.004 Y32.074 E3.08152
G1 X138.554 Y31.717 E3.10333
G1 X139.559 Y31.116 E3.14228
G1 X149.693 Y25.266 E3.53147
G1 X150.307 Y24.922 E3.55487
G1 X150.873 Y24.622 E3.57618
G1 X151.683 Y24.232 E3.60608
G1 X152.501 Y23.886 E3.63562
G1 X153.027 Y23.687 E3.65433
G1 X153.851 Y23.414 E3.6832
G1 X154.23 Y23.303 E3.69633
G1 X155.086 Y23.086 E3.7257
G1 X155.631 Y22.97 E3.74424
G1 X156.5 Y22.82 E3.77357
G1 X157.357 Y22.716 E3.80228
G1 X157.76 Y22.681 E3.81574
G1 X158.649 Y22.635 E3.84534
G1 X159.168 Y22.629 E3.86261
G1 X160.019 Y22.651 E3.89092
G1 X160.969 Y22.722 E3.92261
G1 X161.883 Y22.84 E3.95326
G1 X162.769 Y23 E3.9832
G1 X163.59 Y23.189 E4.01122
G1 X163.975 Y23.291 E4.02447
G1 X164.817 Y23.548 E4.05375
G1 X165.719 Y23.874 E4.08565
G1 X166.523 Y24.211 E4.11465
G1 X167.32 Y24.591 E4.14401
G1 X167.828 Y24.86 E4.16313
G1 X168.57 Y25.289 E4.19164
G1 X169.332 Y25.783 E4.22184
G1 X169.666 Y26.018 E4.23543
G1 X170.346 Y26.529 E4.26372
G1 X170.763 Y26.871 E4.28165
G1 X171.425 Y27.453 E4.31097
G1 X172.083 Y28.094 E4.34153
G1 X172.329 Y28.351 E4.35336
G1 X172.721 Y28.784 E4.37278
G1 X173.282 Y29.455 E4.40187
G1 X173.768 Y30.096 E4.42863
G1 X174.322 Y30.906 E4.46127
G1 X174.783 Y31.659 E4.49063
G1 X175.186 Y32.39 E4.5184
G1 X175.396 Y32.811 E4.53405
G1 X175.762 Y33.616 E4.56346
G1 X176.078 Y34.405 E4.59173
G1 X176.534 Y35.797 E4.64045
G1 X176.704 Y36.437 E4.66247
G1 X176.952 Y37.543 E4.70017
G1 X177.159 Y38.548 E4.7343
G1 X177.717 Y41.042 E4.8193
G1 X178.118 Y42.613 E4.87323
G1 X178.485 Y44.121 E4.92485
G1 X178.608 Y44.686 E4.94408
G1 X178.826 Y45.785 E4.98134
G1 X179.373 Y48.303 E5.06705
G1 X179.677 Y49.531 E5.10912
G1 X179.859 Y50.316 E5.13592
G1 X180.566 Y53.6 E5.24765
G1 X180.885 Y54.86 E5.29088
G1 X180.967 Y55.258 E5.3044
G1 X181.28 Y56.552 E5.34868
G1 X181.475 Y57.459 E5.37953
G1 X181.691 Y58.531 E5.41591
G1 X182.269 Y61.037 E5.50144
G1 X182.489 Y61.904 E5.53119
G1 X182.645 Y62.579 E5.55424
G1 X182.889 Y63.766 E5.59454
G1 X183.47 Y66.381 E5.68364
G1 X183.935 Y68.254 E5.74783
G1 X184.048 Y68.759 E5.76504
G1 X184.263 Y69.837 E5.8016
G1 X184.811 Y72.399 E5.88874
G1 X185.393 Y74.845 E5.97236
G1 X185.563 Y75.732 E6.0024
G1 X185.643 Y76.412 E6.02517
G1 X185.836 Y78.92 E6.10884
G1 X186.097 Y81.42 E6.19244
G1 X186.427 Y83.906 E6.27585
G1 X186.831 Y86.418 E6.36047
G1 X187.296 Y88.854 E6.44296
G1 X187.851 Y91.369 E6.52862
G1 X188.444 Y93.748 E6.61017
G1 X189.131 Y96.199 E6.69483
G1 X189.888 Y98.632 E6.77958
G1 X190.684 Y100.957 E6.86131
G1 X191.286 Y102.555 E6.91811
G1 X191.913 Y104.28 E6.97916
G1 X192.08 Y104.833 E6.99837
G1 X192.292 Y105.762 E7.03006
G1 X192.433 Y106.567 E7.05724
G1 X192.559 Y107.504 E7.08869
G1 X192.612 Y108.169 E7.11088
G1 X192.639 Y109.134 E7.14299
G1 X192.634 Y109.621 E7.15918
G1 X192.612 Y110.233 E7.17955
G1 X192.571 Y110.759 E7.1971
G1 X192.52 Y111.211 E7.21223
G1 X192.391 Y112.067 E7.24102
G1 X192.273 Y112.66 E7.26113
G1 X192.109 Y113.333 E7.28417
G1 X191.926 Y113.965 E7.30605
G1 X191.598 Y114.95 E7.34058
G1 X191.402 Y115.455 E7.3586
G1 X191.209 Y115.898 E7.37467
G1 X190.972 Y116.393 E7.39293
G1 X190.662 Y116.987 E7.41521
G1 X190.116 Y117.934 E7.45157
G1 X189.779 Y118.447 E7.47198
G1 X189.247 Y119.176 E7.502
G1 X188.842 Y119.675 E7.52338
G1 X188.462 Y120.114 E7.54269
G1 X187.759 Y120.854 E7.57664
G1 X187.244 Y121.345 E7.6003
G1 X186.55 Y121.952 E7.63097
G1 X185.816 Y122.512 E7.66168
G1 X185.238 Y122.901 E7.68485
G1 X184.537 Y123.34 E7.71236
G1 X184.064 Y123.619 E7.73062
G1 X183.347 Y123.991 E7.75749
G1 X182.785 Y124.255 E7.77814
G1 X181.561 Y124.806 E7.82279
G1 X179.351 Y125.877 E7.90447
G1 X177.078 Y127.059 E7.98968
G1 X174.692 Y128.388 E8.08052
G1 X163.461 Y134.873 E8.51186
G1 X161.163 Y136.244 E8.60086
G1 X159.013 Y137.609 E8.68557
G1 X156.964 Y138.994 E8.76783
G1 X154.907 Y140.47 E8.85203
G1 X152.941 Y141.968 E8.93424
G1 X149.484 Y144.792 E9.08271
G1 X148.82 Y145.293 E9.11037
G1 X148.378 Y145.598 E9.12824
G1 X147.699 Y146.032 E9.15504
G1 X147.067 Y146.407 E9.17948
G1 X41.998 Y207.069 E13.21471
G1 X41.054 Y207.584 E13.25048
G1 X40.167 Y207.986 E13.28287
G1 X39.248 Y208.308 E13.31526
G1 X38.374 Y208.533 E13.34528
G1 X37.74 Y208.65 E13.36672
G1 X37.108 Y208.734 E13.38792
G1 X36.138 Y208.804 E13.42027
G1 X35.164 Y208.788 E13.45267
G1 X34.265 Y208.696 E13.48273
G1 X33.349 Y208.529 E13.51369
G1 X32.125 Y208.204 E13.55582
G1 X31.136 Y207.824 E13.59105
G1 X30.298 Y207.414 E13.62208
G1 X29.667 Y207.043 E13.64643
G1 X29.165 Y206.715 E13.66637
G1 X28.365 Y206.12 E13.69954
G1 X27.689 Y205.52 E13.7296
G1 X26.973 Y204.759 E13.76435
G1 X26.394 Y204.022 E13.79552
G1 X25.911 Y203.292 E13.82464
G1 X25.422 Y202.469 E13.85648
G1 X24.699 Y201.177 E13.90572
G1 X22.643 Y197.662 E14.04116
G1 X22.458 Y197.326 E14.05392
G1 X22.173 Y196.75 E14.07529
G1 X22.039 Y196.446 E14.08634
G1 X21.811 Y195.86 E14.10726
G1 X21.582 Y195.139 E14.13242
G1 X21.328 Y194.015 E14.17074
G1 X21.211 Y193.202 E14.19806
G1 X21.187 Y192.817 E14.21089
G1 X21.166 Y192.678 E14.21557
G1 X21.135 Y191.77 E14.24579
G1 X21.175 Y190.868 E14.27582
G1 X21.316 Y189.826 E14.31079
G1 X21.53 Y188.883 E14.34295
G1 X21.761 Y188.144 E14.3687
G1 X23.053 Y184.61 E14.49385
G1 X23.834 Y182.249 E14.57657
G1 X24.565 Y179.815 E14.66109
G1 X25.223 Y177.372 E14.74524
G1 X25.808 Y174.928 E14.82883
G1 X26.314 Y172.514 E14.91086
G1 X26.768 Y169.998 E14.9959
G1 X27.144 Y167.507 E15.07969
G1 X27.451 Y165.008 E15.16343
G1 X27.685 Y162.518 E15.24661
G1 X27.847 Y160.023 E15.32977
G1 X27.941 Y157.491 E15.41404
G1 X27.964 Y154.948 E15.49863
G1 X27.914 Y152.473 E15.58096
G1 X27.769 Y149.523 E15.6792
G1 X27.691 Y148.381 E15.71727
G1 X27.658 Y147.602 E15.7432
G1 X27.65 Y147.1 E15.7599
G1 X27.664 Y145.405 E15.81628
G1 X27.648 Y142.805 E15.90276
G1 X27.561 Y140.297 E15.98622
G1 X27.404 Y137.779 E16.07013
G1 X27.179 Y135.311 E16.15256
G1 X27.066 Y134.391 E16.18339
G1 X26.923 Y133.068 E16.22765
G1 X26.864 Y132.154 E16.25811
G1 X26.854 Y131.436 E16.282
G1 X26.894 Y130.534 E16.31203
G1 X26.984 Y129.779 E16.33731
G1 X27.063 Y129.298 E16.35353
G1 X27.357 Y128.059 E16.39588
G1 X27.536 Y127.477 E16.41613
G1 X27.863 Y126.601 E16.44723
G1 X28.168 Y125.94 E16.47144
G1 X28.529 Y125.248 E16.4974
G1 X29.024 Y124.428 E16.52926
G1 X29.33 Y123.991 E16.54701
G1 X29.531 Y123.722 E16.55817
G1 X29.967 Y123.182 E16.58126
G1 X30.608 Y122.473 E16.61305
G1 X30.963 Y122.129 E16.62949
G1 X31.349 Y121.785 E16.64669
G1 X31.757 Y121.444 E16.66437
G1 X34.459 Y119.303 E16.77903
G1 X36.385 Y117.678 E16.86285
G1 X38.257 Y116.005 E16.94635
G1 X40.096 Y114.268 E17.03049
G1 X41.879 Y112.484 E17.11438
G1 X43.616 Y110.646 E17.19849
G1 X45.263 Y108.799 E17.2808
G1 X46.913 Y106.842 E17.36594
G1 X48.475 Y104.879 E17.44937
G1 X49.959 Y102.901 E17.53162
G1 X51.432 Y100.817 E17.6165
G1 X52.826 Y98.722 E17.7002
G1 X54.16 Y96.589 E17.78387
G1 X55.414 Y94.454 E17.86622
G1 X56.655 Y92.194 E17.95198
G1 X57.802 Y89.96 E18.0355
G1 X59.1 Y87.226 E18.13616
G1 X59.484 Y86.47 E18.16437
G1 X60.014 Y85.614 E18.19785
G1 X60.597 Y84.835 E18.23022
G1 X61.248 Y84.11 E18.26262
G1 X61.96 Y83.446 E18.295
G1 X62.67 Y82.889 E18.32502
G0 F6000 X62.917 Y83.204
G1 F960 X63.62 Y82.74 E18.35303
G1 X64.135 Y82.447 E18.37274
G1 X66.15 Y81.397 E18.44831
G1 X68.336 Y80.189 E18.53138
G1 X70.505 Y78.907 E18.61518
G1 X72.669 Y77.546 E18.70021
G1 X74.957 Y76.01 E18.79187
G1 X75.508 Y75.629 E18.81415
G1 X76.05 Y75.279 E18.83561
G1 X76.558 Y74.972 E18.85535
G1 X77.315 Y74.557 E18.88406
G1 X78.118 Y74.187 E18.91347
G1 X78.998 Y73.85 E18.94481
G1 X79.79 Y73.631 E18.97214
G1 X79.814 Y73.616 E18.97308
G1 X81.04 Y73.314 E19.01508
G1 X83.617 Y72.641 E19.10366
G1 X86.034 Y71.936 E19.1874
G1 X88.406 Y71.17 E19.27031
G1 X90.825 Y70.316 E19.35563
G1 X93.178 Y69.406 E19.43954
G1 X95.518 Y68.426 E19.52392
G1 X97.782 Y67.4 E19.60659
G1 X100.124 Y66.26 E19.69323
G1 X102.308 Y65.117 E19.77521
G1 X104.533 Y63.873 E19.86
G1 X106.687 Y62.587 E19.94344
G1 X108.853 Y61.209 E20.02882
G1 X110.921 Y59.81 E20.11187
G1 X112.983 Y58.328 E20.19632
G1 X115.01 Y56.783 E20.28109
G1 X116.939 Y55.223 E20.36361
G1 X118.885 Y53.558 E20.44879
G1 X120.757 Y51.861 E20.53283
G1 X122.596 Y50.098 E20.61756
G1 X124.343 Y48.324 E20.70037
G1 X126.078 Y46.46 E20.78507
G1 X127.749 Y44.561 E20.8692
G1 X129.366 Y42.614 E20.95338
G1 X130.931 Y40.616 E21.03779
G1 X132.436 Y38.582 E21.12195
G1 X133.566 Y36.97 E21.18742
G1 X133.879 Y36.539 E21.20514
G1 X134.41 Y35.865 E21.23368
G1 X134.98 Y35.208 E21.26261
G1 X135.577 Y34.584 E21.29133
G1 X136.181 Y34.008 E21.31909
G1 X136.85 Y33.43 E21.3485
G1 X137.547 Y32.885 E21.37792
G1 X138.222 Y32.409 E21.4054
G1 X138.759 Y32.06 E21.4267
G1 X139.759 Y31.462 E21.46545
G1 X149.888 Y25.615 E21.85444
G1 X150.495 Y25.275 E21.87758
G1 X151.047 Y24.982 E21.89837
G1 X151.839 Y24.6 E21.92762
G1 X152.642 Y24.26 E21.95662
G1 X153.153 Y24.067 E21.97479
G1 X153.964 Y23.798 E22.00321
G1 X154.329 Y23.691 E22.01586
G1 X155.17 Y23.477 E22.04472
G1 X155.699 Y23.364 E22.06271
G1 X156.549 Y23.217 E22.0914
G1 X157.392 Y23.114 E22.11965
G1 X157.781 Y23.08 E22.13264
G1 X158.654 Y23.035 E22.16171
G1 X159.158 Y23.029 E22.17847
G1 X159.989 Y23.05 E22.20612
G1 X160.918 Y23.119 E22.23711
G1 X161.812 Y23.234 E22.26709
G1 X162.68 Y23.39 E22.29642
G1 X163.487 Y23.575 E22.32396
G1 X163.858 Y23.674 E22.33673
G1 X164.7 Y23.931 E22.36601
G1 X165.565 Y24.243 E22.39659
G1 X166.351 Y24.572 E22.42493
G1 X167.133 Y24.945 E22.45375
G1 X167.628 Y25.206 E22.47236
G1 X168.352 Y25.625 E22.50018
G1 X169.102 Y26.111 E22.52991
G1 X169.426 Y26.338 E22.54307
G1 X170.093 Y26.839 E22.57081
G1 X170.499 Y27.171 E22.58825
G1 X171.146 Y27.74 E22.61691
G1 X171.794 Y28.371 E22.64699
G1 X172.04 Y28.628 E22.65883
G1 X172.414 Y29.041 E22.67736
G1 X172.963 Y29.697 E22.70581
G1 X173.449 Y30.338 E22.73257
G1 X173.668 Y30.647 E22.74516
G1 X173.981 Y31.115 E22.76389
G1 X174.433 Y31.852 E22.79264
G1 X174.828 Y32.569 E22.81987
G1 X175.032 Y32.977 E22.83504
G1 X175.391 Y33.765 E22.86384
G1 X175.698 Y34.529 E22.89123
G1 X176.147 Y35.9 E22.93921
G1 X176.317 Y36.54 E22.96124
G1 X176.56 Y37.624 E22.99819
G1 X176.768 Y38.629 E23.03232
G1 X177.329 Y41.141 E23.11793
G1 X177.729 Y42.708 E23.17172
G1 X178.094 Y44.206 E23.223
G1 X178.216 Y44.764 E23.242
G1 X178.435 Y45.87 E23.2795
G1 X178.982 Y48.388 E23.3652
G1 X179.287 Y49.622 E23.40748
G1 X179.468 Y50.4 E23.43404
G1 X180.178 Y53.698 E23.54625
G1 X180.493 Y54.941 E23.5889
G1 X180.578 Y55.352 E23.60286
G1 X180.889 Y56.636 E23.6468
G1 X181.083 Y57.538 E23.67749
G1 X181.301 Y58.621 E23.71423
G1 X181.881 Y61.135 E23.80004
G1 X182.099 Y61.994 E23.82952
G1 X182.253 Y62.66 E23.85225
G1 X182.498 Y63.847 E23.89256
G1 X183.082 Y66.477 E23.98217
G1 X183.545 Y68.342 E24.04608
G1 X183.656 Y68.837 E24.06296
G1 X183.872 Y69.921 E24.09972
G1 X184.422 Y72.492 E24.18716
G1 X185 Y74.92 E24.27018
G1 X185.17 Y75.807 E24.30022
G1 X185.244 Y76.443 E24.32151
G1 X185.438 Y78.962 E24.40554
G1 X185.7 Y81.473 E24.48951
G1 X186.03 Y83.959 E24.57292
G1 X186.438 Y86.493 E24.65829
G1 X186.905 Y88.94 E24.74114
G1 X187.46 Y91.455 E24.82681
G1 X188.059 Y93.856 E24.90911
G1 X188.749 Y96.318 E24.99415
G1 X189.507 Y98.751 E25.07891
G1 X190.31 Y101.098 E25.16142
G1 X190.91 Y102.692 E25.21806
G1 X191.53 Y104.396 E25.27837
G1 X191.697 Y104.949 E25.29759
G1 X191.898 Y105.831 E25.32767
G1 X192.037 Y106.62 E25.35432
G1 X192.16 Y107.536 E25.38506
G1 X192.212 Y108.188 E25.40682
G1 X192.227 Y108.5 E25.4172
G1 X192.239 Y109.13 E25.43816
G1 X192.234 Y109.607 E25.45403
G1 X192.213 Y110.202 E25.47383
G1 X192.173 Y110.714 E25.49091
G1 X192.124 Y111.151 E25.50554
G1 X191.995 Y112.007 E25.53433
G1 X191.884 Y112.565 E25.55325
G1 X191.72 Y113.238 E25.57629
G1 X191.542 Y113.854 E25.59762
G1 X191.225 Y114.805 E25.63096
G1 X191.035 Y115.295 E25.64844
G1 X190.848 Y115.725 E25.66403
G1 X190.617 Y116.208 E25.68184
G1 X190.315 Y116.787 E25.70356
G1 X189.769 Y117.734 E25.73992
G1 X189.456 Y118.211 E25.7589
G1 X188.936 Y118.924 E25.78825
G1 X188.539 Y119.414 E25.80922
G1 X188.172 Y119.839 E25.8279
G1 X187.483 Y120.565 E25.86119
G1 X186.981 Y121.044 E25.88427
G1 X186.287 Y121.651 E25.91493
G1 X185.593 Y122.18 E25.94396
G1 X185.026 Y122.562 E25.96669
G1 X184.333 Y122.996 E25.99389
G1 X183.88 Y123.264 E26.0114
G1 X183.177 Y123.629 E26.03774
G1 X182.621 Y123.89 E26.05817
G1 X181.397 Y124.441 E26.10282
G1 X179.166 Y125.522 E26.18527
G1 X176.893 Y126.704 E26.27048
G1 X174.497 Y128.039 E26.36171
G1 X163.256 Y134.529 E26.79343
G1 X160.958 Y135.9 E26.88243
G1 X158.799 Y137.271 E26.96749
G1 X156.731 Y138.669 E27.05051
G1 X154.674 Y140.145 E27.13472
G1 X152.688 Y141.658 E27.21776
G1 X149.243 Y144.473 E27.36573
G1 X148.593 Y144.964 E27.39282
G1 X148.163 Y145.261 E27.41021
G1 X147.495 Y145.688 E27.43657
G1 X146.867 Y146.061 E27.46087
G1 X41.806 Y206.718 E31.49579
G1 X40.888 Y207.22 E31.53059
G1 X40.034 Y207.609 E31.5618
G1 X39.148 Y207.921 E31.59304
G1 X38.274 Y208.146 E31.62306
G1 X37.687 Y208.254 E31.64291
G1 X37.079 Y208.335 E31.66331
G1 X36.144 Y208.404 E31.69449
G1 X35.205 Y208.39 E31.72573
G1 X34.306 Y208.298 E31.75579
G1 X33.452 Y208.142 E31.78466
G1 X32.228 Y207.817 E31.82678
G1 X31.312 Y207.465 E31.85942
G1 X30.474 Y207.055 E31.89045
G1 X29.886 Y206.708 E31.91316
G1 X29.384 Y206.38 E31.9331
G1 X28.631 Y205.821 E31.96429
G1 X27.955 Y205.221 E31.99436
G1 X27.288 Y204.512 E32.02673
G1 X26.709 Y203.775 E32.05791
G1 X26.255 Y203.087 E32.08532
G1 X25.771 Y202.274 E32.11679
G1 X25.048 Y200.982 E32.16603
G1 X22.993 Y197.469 E32.3014
G1 X22.816 Y197.148 E32.31359
G1 X22.539 Y196.589 E32.33434
G1 X22.412 Y196.301 E32.34481
G1 X22.184 Y195.715 E32.36572
G1 X21.972 Y195.05 E32.38894
G1 X21.724 Y193.958 E32.42618
G1 X21.607 Y193.145 E32.4535
G1 X21.584 Y192.766 E32.46613
