;FLAVOR:Marlin
;TIME:10954
;Filament used: 5.17343m
;Layer height: 0.2
;MINX:15.079
;MINY:45.158
;MINZ:0.2
;MAXX:209.025
;MAXY:175.622
;MAXZ:5.8
;TARGET_MACHINE.NAME:Creality Ender-3 S1
;Generated with Cura_SteamEngine 5.11.0
; Ender 3 S1 Start G-code
; M413 S0 ; Disable power loss recovery
G92 E0 ; Reset Extruder

; Prep surfaces before auto home for better accuracy
M140 S55.0
M104 S208.0

G28 ; Home all axes
G1 Z10.0 F3000 ; Move Z Axis up little to prevent scratching of Heat Bed
G1 X0 Y0

M190 S55.0
M109 S208.0

G1 X0.1 Y20 Z0.3 F5000.0 ; Move to start position
G1 X0.1 Y200.0 Z0.3 F1500.0 E15 ; Draw the first line
G1 X0.4 Y200.0 Z0.3 F5000.0 ; Move to side a little
G1 X0.4 Y20 Z0.3 F1500.0 E30 ; Draw the second line
G92 E0 ; Reset Extruder
G1 Z2.0 F3000 ; Move Z Axis up little to prevent scratching of Heat Bed
G1 X5 Y20 Z0.3 F5000.0 ; Move over to prevent blob squish

M82 ;absolute extrusion mode
G92 E0
G92 E0
G1 F2700 E-0.8
;LAYER_COUNT:29
;LAYER:0
M107
G0 F6000 X26.694 Y83.473 Z0.2
;TYPE:SKIRT
G1 F2700 E0
G1 F960 X27.155 Y83.357 E0.01581
G1 X30.454 Y82.654 E0.128
G1 X32.899 Y82.055 E0.21173
G1 X35.323 Y81.389 E0.29534
G1 X37.726 Y80.655 E0.37891
G1 X40.116 Y79.85 E0.46279
G1 X42.456 Y78.988 E0.54573
G1 X44.814 Y78.042 E0.63023
G1 X47.149 Y77.027 E0.71491
G1 X49.37 Y75.989 E0.79645
G1 X51.643 Y74.844 E0.8811
G1 X53.845 Y73.656 E0.96432
G1 X56.072 Y72.372 E1.04982
G1 X58.162 Y71.088 E1.1314
G1 X60.304 Y69.687 E1.21653
G1 X62.359 Y68.256 E1.29982
G1 X64.398 Y66.751 E1.38411
G1 X66.386 Y65.194 E1.4681
G1 X68.281 Y63.622 E1.54999
G1 X70.216 Y61.922 E1.63566
G1 X72.014 Y60.251 E1.7173
G1 X73.85 Y58.443 E1.803
G1 X75.566 Y56.657 E1.88538
G1 X77.27 Y54.778 E1.96975
G1 X78.921 Y52.851 E2.05415
G1 X80.964 Y50.307 E2.16267
G1 X81.569 Y49.599 E2.19364
G1 X82.02 Y49.143 E2.21497
G1 X82.56 Y48.638 E2.23956
G1 X83.202 Y48.102 E2.26738
G1 X83.828 Y47.651 E2.29304
G1 X84.647 Y47.141 E2.32513
G1 X85.465 Y46.699 E2.35606
G1 X86.002 Y46.455 E2.37568
G1 X86.358 Y46.309 E2.38847
G1 X86.946 Y46.091 E2.40933
G1 X87.936 Y45.79 E2.44375
G1 X88.533 Y45.654 E2.46411
G1 X89.239 Y45.532 E2.48794
G1 X89.925 Y45.45 E2.51092
G1 X91.337 Y45.326 E2.55806
G1 X92.777 Y45.229 E2.60607
G1 X93.801 Y45.173 E2.64018
G1 X94.459 Y45.158 E2.66207
G1 X95.054 Y45.171 E2.68186
G1 X95.825 Y45.229 E2.70758
G1 X96.533 Y45.321 E2.73132
G1 X97.68 Y45.558 E2.77028
G1 X98.106 Y45.671 E2.78494
G1 X99.03 Y45.962 E2.81716
G1 X99.861 Y46.3 E2.847
G1 X100.774 Y46.745 E2.88078
G1 X101.104 Y46.927 E2.89331
G1 X101.963 Y47.453 E2.92681
G1 X102.27 Y47.663 E2.93919
G1 X102.989 Y48.201 E2.96905
G1 X103.671 Y48.79 E2.99902
G1 X104.1 Y49.198 E3.01872
G1 X105.394 Y50.516 E3.08015
G1 X107.186 Y52.264 E3.16341
G1 X109.081 Y54.011 E3.24914
G1 X110.956 Y55.644 E3.33183
G1 X112.889 Y57.236 E3.41512
G1 X114.859 Y58.765 E3.49807
G1 X117.518 Y60.696 E3.60737
G1 X118.473 Y61.365 E3.64615
G1 X118.98 Y61.751 E3.66734
G1 X119.376 Y62.083 E3.68453
G1 X120.115 Y62.737 E3.71735
G1 X122.066 Y64.41 E3.80283
G1 X124.026 Y65.997 E3.88671
G1 X126.01 Y67.512 E3.96974
G1 X128.072 Y68.999 E4.05429
G1 X130.147 Y70.405 E4.13766
G1 X132.293 Y71.774 E4.22232
G1 X134.434 Y73.053 E4.30527
G1 X136.635 Y74.287 E4.3892
G1 X138.869 Y75.458 E4.47309
G1 X141.132 Y76.564 E4.55687
G1 X143.392 Y77.588 E4.63939
G1 X145.759 Y78.583 E4.72479
G1 X148.077 Y79.481 E4.80747
G1 X150.443 Y80.32 E4.89096
G1 X152.849 Y81.099 E4.97508
G1 X155.254 Y81.803 E5.05843
G1 X157.699 Y82.443 E5.14249
G1 X160.19 Y83.022 E5.22755
G1 X162.618 Y83.513 E5.30994
G1 X165.079 Y83.94 E5.39301
G1 X167.626 Y84.307 E5.4786
G1 X170.076 Y84.59 E5.56063
G1 X172.588 Y84.809 E5.6445
G1 X175.129 Y84.956 E5.72915
G1 X177.62 Y85.031 E5.81204
G1 X178.733 Y85.031 E5.84906
G1 X180.05 Y85.046 E5.89287
G1 X180.582 Y85.063 E5.91057
G1 X181.152 Y85.095 E5.92956
G1 X181.968 Y85.174 E5.95682
G1 X182.863 Y85.301 E5.98689
G1 X183.744 Y85.472 E6.01674
G1 X184.575 Y85.673 E6.04518
G1 X185.393 Y85.916 E6.07356
G1 X186.298 Y86.232 E6.10544
G1 X187.056 Y86.539 E6.13264
G1 X187.876 Y86.916 E6.16266
G1 X188.46 Y87.213 E6.18445
G1 X189.279 Y87.668 E6.21561
G1 X199.507 Y93.574 E6.60844
G1 X200.373 Y94.091 E6.64198
G1 X201.192 Y94.622 E6.67445
G1 X201.509 Y94.845 E6.68734
G1 X202.187 Y95.357 E6.7156
G1 X202.628 Y95.72 E6.73459
G1 X202.941 Y95.992 E6.74839
G1 X203.575 Y96.581 E6.77717
G1 X203.915 Y96.922 E6.79318
G1 X204.378 Y97.415 E6.81568
G1 X204.799 Y97.899 E6.83701
G1 X205.128 Y98.302 E6.85432
G1 X205.518 Y98.813 E6.8757
G1 X205.892 Y99.344 E6.8973
G1 X206.363 Y100.073 E6.92617
G1 X206.81 Y100.843 E6.95578
G1 X207.222 Y101.643 E6.98571
G1 X207.6 Y102.478 E7.01619
G1 X207.92 Y103.286 E7.0451
G1 X208.21 Y104.142 E7.07516
G1 X208.369 Y104.684 E7.09395
G1 X208.586 Y105.547 E7.12354
G1 X208.763 Y106.428 E7.15343
G1 X208.895 Y107.323 E7.18352
G1 X208.984 Y108.228 E7.21377
G1 X209.024 Y109.079 E7.2421
G1 X209.025 Y109.989 E7.27237
G1 X208.981 Y110.871 E7.30174
G1 X208.947 Y111.269 E7.31503
G1 X208.886 Y111.814 E7.33327
G1 X208.75 Y112.693 E7.36285
G1 X208.577 Y113.547 E7.39183
G1 X208.359 Y114.405 E7.42128
G1 X208.081 Y115.309 E7.45273
G1 X207.782 Y116.128 E7.48173
G1 X207.624 Y116.515 E7.49563
G1 X207.275 Y117.298 E7.52415
G1 X207.027 Y117.797 E7.54268
G1 X206.614 Y118.557 E7.57145
G1 X206.404 Y118.913 E7.5852
G1 X205.952 Y119.622 E7.61316
G1 X205.408 Y120.385 E7.64433
G1 X205.073 Y120.818 E7.66254
G1 X204.515 Y121.483 E7.69141
G1 X203.913 Y122.134 E7.7209
G1 X203.283 Y122.753 E7.75028
G1 X202.609 Y123.37 E7.78067
G1 X202.226 Y123.705 E7.79759
G1 X200.355 Y125.401 E7.88158
G1 X197.649 Y128.021 E8.00686
G1 X197.189 Y128.441 E8.02758
G1 X195.512 Y129.916 E8.10186
G1 X193.942 Y131.394 E8.17358
G1 X192.909 Y132.349 E8.22037
G1 X191.034 Y134.029 E8.3041
G1 X189.209 Y135.759 E8.38774
G1 X188.276 Y136.657 E8.43081
G1 X187.616 Y137.253 E8.46039
G1 X186.83 Y137.943 E8.49517
G1 X184.966 Y139.675 E8.5798
G1 X184.259 Y140.363 E8.61261
G1 X183.79 Y140.797 E8.63387
G1 X183.389 Y141.149 E8.65161
G1 X181.489 Y142.871 E8.7369
G1 X180.443 Y143.885 E8.78536
G1 X179.007 Y145.237 E8.85095
G1 X176.766 Y147.222 E8.95053
G1 X174.613 Y149.247 E9.04883
G1 X173.658 Y150.054 E9.09042
G1 X173.359 Y150.271 E9.10271
G1 X172.762 Y150.675 E9.12668
G1 X170.631 Y152.157 E9.21301
G1 X168.603 Y153.652 E9.29681
G1 X166.608 Y155.212 E9.38104
G1 X164.691 Y156.803 E9.4639
G1 X162.807 Y158.455 E9.54724
G1 X160.93 Y160.198 E9.63244
G1 X159.143 Y161.954 E9.71577
G1 X157.389 Y163.78 E9.79998
G1 X155.712 Y165.626 E9.88293
G1 X154.044 Y167.572 E9.96818
G1 X152.94 Y168.914 E10.02597
G1 X152.44 Y169.493 E10.05142
G1 X151.734 Y170.236 E10.08551
G1 X151.246 Y170.703 E10.10797
G1 X150.786 Y171.118 E10.12858
G1 X150.364 Y171.461 E10.14667
G1 X149.602 Y172.022 E10.17814
G1 X149.095 Y172.361 E10.19842
G1 X148.527 Y172.712 E10.22063
G1 X147.608 Y173.244 E10.25595
G1 X146.892 Y173.613 E10.28274
G1 X146.272 Y173.878 E10.30517
G1 X145.935 Y174.003 E10.31712
G1 X145.261 Y174.218 E10.34065
G1 X144.211 Y174.491 E10.37674
G1 X143.27 Y174.699 E10.40879
G1 X142.447 Y174.83 E10.43651
G1 X141.326 Y174.94 E10.47397
G1 X140.589 Y174.981 E10.49852
G1 X140.035 Y174.984 E10.51695
G1 X139.313 Y174.963 E10.54097
G1 X138.785 Y174.927 E10.55857
G1 X138.154 Y174.856 E10.57969
G1 X137.495 Y174.753 E10.60188
G1 X136.743 Y174.611 E10.62733
G1 X135.784 Y174.384 E10.66011
G1 X135.083 Y174.173 E10.68446
G1 X134.195 Y173.862 E10.71575
G1 X131.693 Y172.899 E10.80492
G1 X129.327 Y172.065 E10.88836
G1 X126.936 Y171.297 E10.97189
G1 X124.515 Y170.593 E11.05574
G1 X122.12 Y169.972 E11.13804
G1 X119.604 Y169.394 E11.2239
G1 X117.154 Y168.902 E11.30701
G1 X114.674 Y168.478 E11.3907
G1 X112.19 Y168.125 E11.47414
G1 X109.73 Y167.847 E11.55648
G1 X107.157 Y167.627 E11.64237
G1 X104.676 Y167.489 E11.72502
G1 X102.141 Y167.418 E11.80937
G1 X99.651 Y167.418 E11.89219
G1 X97.087 Y167.491 E11.9775
G1 X94.627 Y167.632 E12.05945
G1 X92.109 Y167.845 E12.1435
G1 X89.571 Y168.135 E12.22847
G1 X87.103 Y168.487 E12.31138
G1 X84.629 Y168.912 E12.39487
G1 X82.185 Y169.403 E12.47778
G1 X79.695 Y169.978 E12.56278
G1 X77.258 Y170.612 E12.64654
G1 X74.866 Y171.308 E12.72939
G1 X72.45 Y172.085 E12.8138
G1 X69 Y173.325 E12.93574
G1 X68.891 Y173.349 E12.93945
G1 X68.283 Y173.572 E12.96099
G1 X67.253 Y173.837 E12.99636
G1 X66.48 Y173.964 E13.02242
G1 X66.147 Y174.002 E13.03356
G1 X65.595 Y174.046 E13.05198
G1 X63.404 Y174.143 E13.12493
G1 X60.924 Y174.312 E13.2076
G1 X58.418 Y174.554 E13.29134
G1 X55.905 Y174.869 E13.37558
G1 X53.258 Y175.279 E13.46467
G1 X52.431 Y175.419 E13.49256
G1 X51.803 Y175.506 E13.51365
G1 X50.956 Y175.591 E13.54196
G1 X50.166 Y175.622 E13.56826
G1 X49.285 Y175.604 E13.59757
G1 X47.89 Y175.457 E13.64422
G1 X46.939 Y175.251 E13.67659
G1 X46.009 Y174.964 E13.70896
G1 X45.172 Y174.624 E13.73901
G1 X44.508 Y174.294 E13.76367
G1 X44.2 Y174.124 E13.77537
G1 X43.455 Y173.654 E13.80467
G1 X42.648 Y173.045 E13.83829
G1 X41.88 Y172.345 E13.87285
G1 X41.621 Y172.078 E13.88523
G1 X40.976 Y171.357 E13.9174
G1 X39.957 Y170.17 E13.96943
G1 X38.277 Y168.319 E14.05258
G1 X36.506 Y166.477 E14.13756
G1 X34.773 Y164.775 E14.21835
G1 X32.91 Y163.066 E14.30244
G1 X31.821 Y162.045 E14.35209
G1 X31.186 Y161.39 E14.38243
G1 X30.8 Y160.955 E14.40177
G1 X30.445 Y160.53 E14.42019
G1 X29.967 Y159.906 E14.44634
G1 X29.409 Y159.022 E14.48111
G1 X28.967 Y158.157 E14.51341
G1 X28.627 Y157.326 E14.54328
G1 X28.513 Y156.994 E14.55495
G1 X28.243 Y156.056 E14.58742
G1 X28.059 Y155.101 E14.61977
G1 X27.96 Y154.143 E14.6518
G1 X27.941 Y153.47 E14.67419
G1 X27.98 Y151.903 E14.72633
G1 X28.017 Y149.366 E14.81072
G1 X27.982 Y146.856 E14.89421
G1 X27.875 Y144.348 E14.9777
G1 X27.697 Y141.808 E15.06239
G1 X27.451 Y139.334 E15.14508
G1 X27.13 Y136.825 E15.22921
G1 X26.742 Y134.348 E15.3126
G1 X26.282 Y131.867 E15.39652
G1 X25.749 Y129.392 E15.48073
G1 X25.159 Y126.989 E15.56303
G1 X24.478 Y124.512 E15.64847
G1 X23.751 Y122.135 E15.73114
G1 X22.946 Y119.745 E15.81502
G1 X22.076 Y117.383 E15.89874
G1 X21.13 Y115.027 E15.98319
G1 X20.129 Y112.724 E16.06671
G1 X19.07 Y110.465 E16.14969
G1 X17.944 Y108.231 E16.23289
G1 X16.484 Y105.535 E16.33487
G1 X16.075 Y104.682 E16.36633
G1 X15.712 Y103.779 E16.3987
G1 X15.448 Y102.916 E16.42872
G1 X15.234 Y101.896 E16.46338
G1 X15.129 Y101.038 E16.49213
G1 X15.084 Y100.408 E16.51314
G1 X15.079 Y99.435 E16.5455
G1 X15.151 Y98.535 E16.57553
G1 X15.416 Y97.116 E16.62354
G1 X15.697 Y96.152 E16.65694
G1 X16.031 Y95.284 E16.68787
G1 X16.297 Y94.715 E16.70877
G1 X16.535 Y94.265 E16.7257
G1 X16.777 Y93.841 E16.74193
G1 X17.304 Y92.966 E16.77591
G1 X19.044 Y89.955 E16.89157
G1 X19.489 Y89.151 E16.92214
G1 X19.752 Y88.701 E16.93947
G1 X20.084 Y88.174 E16.96019
G1 X20.618 Y87.446 E16.99022
G1 X21.421 Y86.548 E17.03029
G1 X22.187 Y85.844 E17.06489
G1 X22.721 Y85.422 E17.08753
G1 X23.101 Y85.146 E17.10315
G1 X23.928 Y84.62 E17.13575
G1 X24.526 Y84.299 E17.15832
G1 X25.141 Y84.016 E17.18084
G1 X25.605 Y83.83 E17.19746
G1 X26.694 Y83.473 E17.23558
G0 F6000 X26.819 Y83.853
G1 F960 X27.238 Y83.748 E17.24995
G1 X30.549 Y83.043 E17.36254
G1 X32.994 Y82.444 E17.44627
G1 X35.441 Y81.772 E17.53067
G1 X37.843 Y81.038 E17.6142
G1 X40.244 Y80.229 E17.69847
G1 X42.605 Y79.359 E17.78216
G1 X44.973 Y78.409 E17.86702
G1 X47.308 Y77.394 E17.95171
G1 X49.55 Y76.346 E18.03402
G1 X51.833 Y75.196 E18.11904
G1 X54.045 Y74.003 E18.20263
G1 X56.272 Y72.719 E18.28813
G1 X58.381 Y71.423 E18.37046
G1 X60.523 Y70.022 E18.45559
G1 X62.597 Y68.578 E18.53965
G1 X64.636 Y67.073 E18.62394
G1 X66.633 Y65.509 E18.7083
G1 X68.545 Y63.923 E18.79093
G1 X70.48 Y62.223 E18.87659
G1 X72.295 Y60.536 E18.95901
G1 X74.131 Y58.728 E19.04471
G1 X75.862 Y56.926 E19.12782
G1 X77.566 Y55.047 E19.21219
G1 X79.225 Y53.111 E19.29699
G1 X81.268 Y50.567 E19.40551
G1 X81.873 Y49.859 E19.43648
G1 X82.293 Y49.435 E19.45633
G1 X82.817 Y48.945 E19.4802
G1 X83.436 Y48.427 E19.50704
G1 X84.062 Y47.976 E19.5327
G1 X84.837 Y47.493 E19.56308
G1 X85.655 Y47.051 E19.594
G1 X86.154 Y46.825 E19.61222
G1 X86.498 Y46.684 E19.62458
G1 X87.062 Y46.474 E19.6446
G1 X88.052 Y46.173 E19.67902
G1 X88.601 Y46.048 E19.69774
G1 X89.287 Y45.929 E19.7209
G1 X89.96 Y45.848 E19.74345
G1 X91.364 Y45.725 E19.79032
G1 X92.799 Y45.628 E19.83816
G1 X93.81 Y45.573 E19.87184
G1 X94.451 Y45.558 E19.89316
G1 X95.024 Y45.57 E19.91222
G1 X95.773 Y45.626 E19.93721
G1 X96.481 Y45.718 E19.96095
G1 X97.578 Y45.945 E19.99821
G1 X97.986 Y46.053 E20.01225
G1 X98.88 Y46.333 E20.04341
G1 X99.686 Y46.66 E20.07234
G1 X100.599 Y47.105 E20.10612
G1 X100.895 Y47.268 E20.11736
G1 X101.738 Y47.784 E20.15023
G1 X102.03 Y47.983 E20.16198
G1 X102.749 Y48.521 E20.19185
G1 X103.395 Y49.08 E20.22027
G1 X103.824 Y49.488 E20.23996
G1 X105.115 Y50.802 E20.30122
G1 X106.915 Y52.558 E20.38486
G1 X108.818 Y54.313 E20.47096
G1 X110.693 Y55.946 E20.55366
G1 X112.644 Y57.552 E20.63771
G1 X114.624 Y59.089 E20.72108
G1 X117.288 Y61.024 E20.83059
G1 X118.243 Y61.693 E20.86937
G1 X118.723 Y62.058 E20.88943
G1 X119.111 Y62.383 E20.90626
G1 X119.855 Y63.041 E20.9393
G1 X121.814 Y64.721 E21.02513
G1 X123.783 Y66.315 E21.10939
G1 X125.776 Y67.837 E21.1928
G1 X127.838 Y69.323 E21.27733
G1 X129.932 Y70.742 E21.36147
G1 X132.079 Y72.111 E21.44616
G1 X134.238 Y73.402 E21.52982
G1 X136.439 Y74.636 E21.61375
G1 X138.693 Y75.817 E21.69839
G1 X140.956 Y76.923 E21.78216
G1 X143.237 Y77.957 E21.86546
G1 X145.604 Y78.952 E21.95086
G1 X147.943 Y79.858 E22.03429
G1 X150.32 Y80.701 E22.11817
G1 X152.726 Y81.48 E22.20228
G1 X155.146 Y82.188 E22.28615
G1 X157.608 Y82.833 E22.3708
G1 X160.099 Y83.412 E22.45586
G1 X162.542 Y83.906 E22.53876
G1 X165.022 Y84.336 E22.62247
G1 X167.569 Y84.703 E22.70806
G1 X170.041 Y84.989 E22.79083
G1 X172.553 Y85.207 E22.87469
G1 X175.117 Y85.356 E22.96011
G1 X177.608 Y85.431 E23.043
G1 X178.728 Y85.431 E23.08025
G1 X180.038 Y85.446 E23.12383
G1 X180.56 Y85.462 E23.1412
G1 X181.114 Y85.493 E23.15965
G1 X181.912 Y85.57 E23.18632
G1 X182.787 Y85.694 E23.21571
G1 X183.65 Y85.861 E23.24495
G1 X184.481 Y86.062 E23.27338
G1 X185.261 Y86.294 E23.30045
G1 X186.148 Y86.603 E23.33169
G1 X186.889 Y86.903 E23.35828
G1 X187.695 Y87.273 E23.38778
G1 X188.266 Y87.563 E23.40908
G1 X189.079 Y88.014 E23.44
G1 X199.302 Y93.917 E23.83263
G1 X200.156 Y94.427 E23.86571
G1 X200.962 Y94.949 E23.89765
G1 X201.268 Y95.164 E23.91009
G1 X201.933 Y95.666 E23.9378
G1 X202.366 Y96.022 E23.95645
G1 X202.669 Y96.285 E23.96979
G1 X203.292 Y96.863 E23.99806
G1 X203.624 Y97.196 E24.0137
G1 X204.076 Y97.677 E24.03565
G1 X204.489 Y98.152 E24.05659
G1 X204.81 Y98.545 E24.07346
G1 X205.191 Y99.044 E24.09435
G1 X205.556 Y99.561 E24.11539
G1 X206.017 Y100.274 E24.14363
G1 X206.454 Y101.026 E24.17256
G1 X206.866 Y101.826 E24.20249
G1 X207.228 Y102.625 E24.23167
G1 X207.541 Y103.415 E24.25993
G1 X207.826 Y104.255 E24.28943
G1 X207.981 Y104.782 E24.3077
G1 X208.194 Y105.626 E24.33665
G1 X208.367 Y106.487 E24.36586
G1 X208.497 Y107.362 E24.39529
G1 X208.584 Y108.247 E24.42486
G1 X208.624 Y109.079 E24.45257
G1 X208.625 Y109.969 E24.48217
G1 X208.582 Y110.837 E24.51107
G1 X208.549 Y111.225 E24.52403
G1 X208.488 Y111.77 E24.54227
G1 X208.358 Y112.614 E24.57067
G1 X208.189 Y113.448 E24.59897
G1 X207.971 Y114.306 E24.62842
G1 X207.705 Y115.172 E24.65855
G1 X207.411 Y115.977 E24.68705
G1 X207.258 Y116.353 E24.70055
G1 X206.917 Y117.12 E24.72847
G1 X206.676 Y117.606 E24.74651
G1 X206.269 Y118.354 E24.77484
G1 X206.067 Y118.698 E24.7881
G1 X205.626 Y119.39 E24.8154
G1 X205.091 Y120.141 E24.84607
G1 X204.767 Y120.561 E24.86371
G1 X204.221 Y121.211 E24.89194
G1 X203.619 Y121.862 E24.92143
G1 X203.013 Y122.458 E24.9497
G1 X202.346 Y123.069 E24.97979
G1 X201.963 Y123.404 E24.99671
G1 X200.086 Y125.105 E25.08096
G1 X197.379 Y127.726 E25.20629
G1 X196.925 Y128.141 E25.22674
G1 X195.248 Y129.616 E25.30103
G1 X193.671 Y131.1 E25.37305
G1 X192.642 Y132.051 E25.41965
G1 X190.767 Y133.731 E25.50339
G1 X188.934 Y135.469 E25.5874
G1 X188.008 Y136.36 E25.63014
G1 X187.352 Y136.952 E25.65953
G1 X186.566 Y137.642 E25.69432
G1 X184.687 Y139.388 E25.77963
G1 X183.987 Y140.069 E25.81211
G1 X183.518 Y140.503 E25.83337
G1 X183.12 Y140.853 E25.85099
