;FLAVOR:Marlin
;TIME:10569
;Filament used: 5.05587m
;Layer height: 0.2
;MINX:18.465
;MINY:41.424
;MINZ:0.2
;MAXX:195.217
;MAXY:155.012
;MAXZ:5.8
;TARGET_MACHINE.NAME:Creality Ender-3 S1
;Generated with Cura_SteamEngine 5.11.0
; Ender 3 S1 Start G-code
; M413 S0 ; Disable power loss recovery
G92 E0 ; Reset Extruder

; Prep surfaces before auto home for better accuracy
M140 S55.0
M104 S208.0

G28 ; Home all axes
G1 Z10.0 F3000 ; Move Z Axis up little to prevent scratching of Heat Bed
G1 X0 Y0

M190 S55.0
M109 S208.0

G1 X0.1 Y20 Z0.3 F5000.0 ; Move to start position
G1 X0.1 Y200.0 Z0.3 F1500.0 E15 ; Draw the first line
G1 X0.4 Y200.0 Z0.3 F5000.0 ; Move to side a little
G1 X0.4 Y20 Z0.3 F1500.0 E30 ; Draw the second line
G92 E0 ; Reset Extruder
G1 Z2.0 F3000 ; Move Z Axis up little to prevent scratching of Heat Bed
G1 X5 Y20 Z0.3 F5000.0 ; Move over to prevent blob squish

M82 ;absolute extrusion mode
G92 E0
G92 E0
G1 F2700 E-0.8
;LAYER_COUNT:29
;LAYER:0
M107
G0 F6000 X27.36 Y115.975 Z0.2
;TYPE:SKIRT
G1 F2700 E0
G1 F960 X27.815 Y115.872 E0.01552
G1 X28.329 Y115.776 E0.03291
G1 X28.998 Y115.668 E0.05545
G1 X31.562 Y115.218 E0.14203
G1 X34.074 Y114.706 E0.2273
G1 X36.476 Y114.144 E0.30934
G1 X38.937 Y113.494 E0.394
G1 X41.337 Y112.787 E0.47722
G1 X43.737 Y112.006 E0.56117
G1 X46.127 Y111.152 E0.64558
G1 X48.435 Y110.254 E0.72795
G1 X50.776 Y109.266 E0.81246
G1 X53.07 Y108.22 E0.89632
G1 X55.329 Y107.111 E0.98002
G1 X57.565 Y105.934 E1.06406
G1 X59.756 Y104.701 E1.14768
G1 X61.87 Y103.431 E1.22971
G1 X64.945 Y101.439 E1.35157
G1 X65.623 Y100.981 E1.37878
G1 X66.33 Y100.538 E1.40653
G1 X67.003 Y100.161 E1.43219
G1 X67.783 Y99.773 E1.46116
G1 X68.485 Y99.465 E1.48666
G1 X69.003 Y99.262 E1.50516
G1 X69.668 Y99.023 E1.52867
G1 X71.051 Y98.558 E1.5772
G1 X73.408 Y97.71 E1.66051
G1 X75.759 Y96.789 E1.74449
G1 X78.057 Y95.811 E1.82756
G1 X80.369 Y94.75 E1.91216
G1 X82.619 Y93.64 E1.99561
G1 X84.846 Y92.461 E2.07942
G1 X87.071 Y91.203 E2.16443
G1 X89.201 Y89.917 E2.24719
G1 X91.295 Y88.569 E2.33002
G1 X93.372 Y87.148 E2.41372
G1 X95.44 Y85.646 E2.49873
G1 X97.438 Y84.106 E2.58263
G1 X99.363 Y82.533 E2.66531
G1 X101.28 Y80.876 E2.74959
G1 X103.134 Y79.179 E2.83319
G1 X104.55 Y77.821 E2.89844
G1 X105.051 Y77.365 E2.92097
G1 X105.49 Y76.991 E2.94016
G1 X106.295 Y76.369 E2.97399
G1 X106.717 Y76.076 E2.99108
G1 X107.585 Y75.532 E3.02515
G1 X108.106 Y75.24 E3.04501
G1 X108.899 Y74.839 E3.07457
G1 X109.558 Y74.555 E3.09844
G1 X109.927 Y74.409 E3.11164
G1 X110.489 Y74.204 E3.13153
G1 X111.267 Y73.946 E3.15879
G1 X113.74 Y73.088 E3.24586
G1 X116.098 Y72.192 E3.32976
G1 X118.399 Y71.244 E3.41253
G1 X120.689 Y70.223 E3.49592
G1 X122.99 Y69.118 E3.58082
G1 X125.225 Y67.967 E3.66443
G1 X127.415 Y66.759 E3.74762
G1 X129.603 Y65.469 E3.8321
G1 X131.724 Y64.137 E3.9154
G1 X133.83 Y62.73 E3.99964
G1 X135.838 Y61.304 E4.08156
G1 X137.883 Y59.764 E4.1667
G1 X139.864 Y58.184 E4.25098
G1 X141.76 Y56.578 E4.33363
G1 X143.639 Y54.895 E4.41752
G1 X145.476 Y53.155 E4.50168
G1 X147.244 Y51.381 E4.58498
G1 X148.976 Y49.542 E4.66901
G1 X151.049 Y47.232 E4.77224
G1 X151.652 Y46.616 E4.80091
G1 X152.307 Y46.008 E4.83063
G1 X152.723 Y45.653 E4.84882
G1 X153.402 Y45.116 E4.87762
G1 X154.127 Y44.597 E4.90727
G1 X154.902 Y44.098 E4.93793
G1 X155.575 Y43.708 E4.9638
G1 X156.421 Y43.269 E4.9955
G1 X157.163 Y42.93 E5.02263
G1 X158.068 Y42.568 E5.05505
G1 X158.432 Y42.438 E5.06791
G1 X159.198 Y42.192 E5.09467
G1 X159.726 Y42.043 E5.11291
G1 X160.531 Y41.85 E5.14045
G1 X161.446 Y41.676 E5.17143
G1 X162.336 Y41.552 E5.20131
G1 X163.149 Y41.478 E5.22846
G1 X163.854 Y41.44 E5.25195
G1 X164.944 Y41.424 E5.2882
G1 X176.691 Y41.425 E5.67891
G1 X177.363 Y41.432 E5.70126
G1 X178.021 Y41.455 E5.72316
G1 X178.935 Y41.524 E5.75365
G1 X179.55 Y41.594 E5.77424
G1 X180.384 Y41.727 E5.80232
G1 X181.213 Y41.899 E5.83048
G1 X181.598 Y41.993 E5.84367
G1 X182.432 Y42.225 E5.87246
G1 X182.972 Y42.4 E5.89134
G1 X183.503 Y42.591 E5.91011
G1 X184.149 Y42.85 E5.93326
G1 X184.636 Y43.063 E5.95093
G1 X185.434 Y43.449 E5.98042
G1 X185.985 Y43.745 E6.00122
G1 X186.555 Y44.08 E6.02321
G1 X187.028 Y44.378 E6.04181
G1 X187.691 Y44.832 E6.06853
G1 X188.006 Y45.063 E6.08152
G1 X188.696 Y45.609 E6.11079
G1 X189.448 Y46.272 E6.14413
G1 X190.054 Y46.863 E6.17229
G1 X190.655 Y47.507 E6.20159
G1 X191.259 Y48.22 E6.23267
G1 X191.788 Y48.914 E6.26169
G1 X192.307 Y49.67 E6.29219
G1 X192.606 Y50.146 E6.31088
G1 X193.015 Y50.856 E6.33814
G1 X193.442 Y51.692 E6.36936
G1 X193.819 Y52.534 E6.40004
G1 X194.134 Y53.337 E6.42873
G1 X194.259 Y53.69 E6.44119
G1 X194.529 Y54.557 E6.47139
G1 X194.752 Y55.411 E6.50075
G1 X194.87 Y55.958 E6.51936
G1 X195.023 Y56.831 E6.54884
G1 X195.114 Y57.513 E6.57172
G1 X195.171 Y58.138 E6.5926
G1 X195.209 Y58.797 E6.61455
G1 X195.217 Y59.451 E6.63631
G1 X195.202 Y60.3 E6.66455
G1 X195.177 Y60.852 E6.68293
G1 X195.096 Y61.691 E6.71096
G1 X194.981 Y62.492 E6.73788
G1 X194.789 Y63.469 E6.77099
G1 X194.659 Y64.01 E6.7895
G1 X194.418 Y64.873 E6.8193
G1 X193.876 Y66.554 E6.87804
G1 X193.811 Y66.783 E6.88596
G1 X193.397 Y68.042 E6.93004
G1 X192.678 Y70.455 E7.01379
G1 X192.257 Y71.986 E7.0666
G1 X192.121 Y72.432 E7.08211
G1 X191.413 Y74.534 E7.15588
G1 X190.688 Y76.857 E7.23682
G1 X190.315 Y78.105 E7.28014
G1 X189.879 Y79.436 E7.32672
G1 X189.067 Y82.015 E7.41665
G1 X188.524 Y83.912 E7.48228
G1 X187.708 Y86.668 E7.57788
G1 X187.071 Y89.071 E7.66056
G1 X186.493 Y91.525 E7.74442
G1 X185.977 Y94.033 E7.82958
G1 X185.544 Y96.487 E7.91246
G1 X185.179 Y98.976 E7.99613
G1 X184.881 Y101.477 E8.0799
G1 X184.657 Y103.977 E8.16339
G1 X184.504 Y106.494 E8.24726
G1 X184.42 Y109 E8.33065
G1 X184.408 Y111.542 E8.4152
G1 X184.468 Y114.061 E8.49901
G1 X184.596 Y116.541 E8.5816
G1 X184.797 Y119.044 E8.66512
G1 X185.071 Y121.564 E8.74943
G1 X185.408 Y124.03 E8.83221
G1 X186.069 Y127.893 E8.96256
G1 X186.191 Y128.71 E8.99004
G1 X186.254 Y129.909 E9.02997
G1 X186.214 Y130.811 E9.06
G1 X186.074 Y131.846 E9.09474
G1 X185.858 Y132.795 E9.12711
G1 X185.573 Y133.683 E9.15813
G1 X185.295 Y134.367 E9.18269
G1 X185.083 Y134.814 E9.19914
G1 X184.854 Y135.253 E9.21561
G1 X184.557 Y135.768 E9.23538
G1 X184.017 Y136.568 E9.26749
G1 X183.36 Y137.456 E9.30423
G1 X181.855 Y139.546 E9.38989
G1 X180.434 Y141.647 E9.47425
G1 X179.086 Y143.765 E9.55775
G1 X177.781 Y145.95 E9.6424
G1 X177.335 Y146.742 E9.67263
G1 X176.937 Y147.413 E9.69858
G1 X176.563 Y148.006 E9.7219
G1 X175.991 Y148.826 E9.75515
G1 X175.435 Y149.51 E9.78447
G1 X174.778 Y150.228 E9.81684
G1 X174.085 Y150.862 E9.84808
G1 X173.282 Y151.475 E9.88168
G1 X172.458 Y151.995 E9.91409
G1 X171.624 Y152.423 E9.94527
G1 X170.688 Y152.804 E9.97888
G1 X169.759 Y153.088 E10.01119
G1 X168.83 Y153.286 E10.04278
G1 X168.434 Y153.347 E10.05611
G1 X167.775 Y153.416 E10.07814
G1 X164.631 Y153.572 E10.18284
G1 X162.143 Y153.761 E10.26583
G1 X159.618 Y154.026 E10.35028
G1 X157.142 Y154.359 E10.43337
G1 X154.373 Y154.807 E10.52666
G1 X153.738 Y154.896 E10.54799
G1 X153.293 Y154.944 E10.56288
G1 X152.231 Y155.006 E10.59826
G1 X151.607 Y155.012 E10.61902
G1 X150.639 Y154.966 E10.65125
G1 X149.819 Y154.859 E10.67875
G1 X148.836 Y154.647 E10.7122
G1 X147.893 Y154.354 E10.74504
G1 X147.006 Y153.975 E10.77712
G1 X146.922 Y153.952 E10.78002
G1 X145.923 Y153.481 E10.81676
G1 X143.566 Y152.416 E10.90278
G1 X141.229 Y151.437 E10.98705
G1 X138.917 Y150.545 E11.06948
G1 X136.536 Y149.705 E11.15345
G1 X134.126 Y148.929 E11.23766
G1 X131.718 Y148.227 E11.32109
G1 X129.292 Y147.595 E11.40447
G1 X126.799 Y147.021 E11.48956
G1 X124.374 Y146.533 E11.57183
G1 X121.862 Y146.101 E11.6566
G1 X119.379 Y145.747 E11.74002
G1 X116.919 Y145.468 E11.82237
G1 X114.349 Y145.246 E11.90817
G1 X111.899 Y145.107 E11.98978
G1 X109.308 Y145.033 E12.076
G1 X107.985 Y145.024 E12.12
G1 X30.672 Y145.022 E14.69144
G1 X29.945 Y145.012 E14.71562
G1 X29.232 Y144.977 E14.73937
G1 X28.274 Y144.856 E14.77148
G1 X27.66 Y144.734 E14.7923
G1 X26.758 Y144.5 E14.8233
G1 X25.805 Y144.171 E14.85683
G1 X24.917 Y143.773 E14.8892
G1 X24.071 Y143.299 E14.92145
G1 X23.362 Y142.821 E14.94989
G1 X22.759 Y142.357 E14.9752
G1 X22.009 Y141.697 E15.00842
G1 X21.338 Y140.99 E15.04084
G1 X20.732 Y140.228 E15.07323
G1 X20.213 Y139.443 E15.10453
G1 X19.659 Y138.4 E15.14381
G1 X19.486 Y138.024 E15.15757
G1 X19.119 Y137.122 E15.18996
G1 X18.833 Y136.192 E15.22232
G1 X18.63 Y135.24 E15.2547
G1 X18.518 Y134.344 E15.28473
G1 X18.485 Y133.785 E15.30336
G1 X18.465 Y132.94 E15.33147
G1 X18.502 Y130.325 E15.41845
G1 X18.469 Y127.118 E15.52512
G1 X18.526 Y126.092 E15.5593
G1 X18.656 Y125.199 E15.58932
G1 X18.886 Y124.221 E15.62273
G1 X19.199 Y123.26 E15.65635
G1 X19.593 Y122.323 E15.69015
G1 X20.208 Y121.191 E15.733
G1 X20.665 Y120.512 E15.76022
G1 X21.168 Y119.864 E15.78751
G1 X21.898 Y119.055 E15.82375
G1 X22.75 Y118.281 E15.86204
G1 X23.654 Y117.627 E15.89915
G1 X23.735 Y117.558 E15.90269
G1 X24.797 Y116.937 E15.9436
G1 X25.206 Y116.736 E15.95876
G1 X25.551 Y116.581 E15.97134
G1 X26.04 Y116.384 E15.98888
G1 X26.774 Y116.135 E16.01465
G1 X27.36 Y115.975 E16.03486
G0 F6000 X27.449 Y116.365
G1 F960 X27.888 Y116.265 E16.04983
G1 X28.393 Y116.171 E16.06692
G1 X29.062 Y116.063 E16.08946
G1 X31.64 Y115.611 E16.17651
G1 X34.154 Y115.098 E16.26185
G1 X36.578 Y114.531 E16.34465
G1 X39.047 Y113.879 E16.42958
G1 X41.45 Y113.171 E16.5129
G1 X43.872 Y112.383 E16.59762
G1 X46.262 Y111.529 E16.68203
G1 X48.591 Y110.623 E16.76515
G1 X50.932 Y109.635 E16.84966
G1 X53.236 Y108.584 E16.93389
G1 X55.505 Y107.47 E17.01796
G1 X57.761 Y106.283 E17.10275
G1 X59.952 Y105.05 E17.18637
G1 X62.076 Y103.774 E17.26878
G1 X65.162 Y101.775 E17.39107
G1 X65.835 Y101.32 E17.41809
G1 X66.526 Y100.887 E17.44521
G1 X67.181 Y100.519 E17.4702
G1 X67.944 Y100.139 E17.49855
G1 X68.631 Y99.837 E17.52351
G1 X69.138 Y99.638 E17.54163
G1 X69.795 Y99.402 E17.56485
G1 X71.178 Y98.937 E17.61338
G1 X73.553 Y98.082 E17.69733
G1 X75.916 Y97.157 E17.78173
G1 X78.224 Y96.175 E17.86516
G1 X80.536 Y95.114 E17.94977
G1 X82.804 Y93.995 E18.03388
G1 X85.033 Y92.815 E18.11777
G1 X87.268 Y91.551 E18.20317
G1 X89.408 Y90.259 E18.28631
G1 X91.521 Y88.899 E18.36989
G1 X93.607 Y87.472 E18.45395
G1 X95.675 Y85.97 E18.53896
G1 X97.682 Y84.423 E18.62324
G1 X99.625 Y82.836 E18.70668
G1 X101.542 Y81.179 E18.79096
G1 X103.411 Y79.468 E18.87524
G1 X104.819 Y78.117 E18.94014
G1 X105.31 Y77.67 E18.96222
G1 X105.735 Y77.308 E18.98079
G1 X106.54 Y76.686 E19.01463
G1 X106.929 Y76.415 E19.03039
G1 X107.781 Y75.881 E19.06384
G1 X108.287 Y75.597 E19.08314
G1 X109.08 Y75.196 E19.11269
G1 X109.705 Y74.927 E19.13532
G1 X110.064 Y74.785 E19.14816
G1 X110.615 Y74.584 E19.16767
G1 X111.393 Y74.326 E19.19493
G1 X113.871 Y73.466 E19.28218
G1 X116.24 Y72.566 E19.36646
G1 X118.551 Y71.614 E19.44959
G1 X120.862 Y70.584 E19.53375
G1 X123.163 Y69.479 E19.61865
G1 X125.408 Y68.323 E19.70263
G1 X127.618 Y67.104 E19.78658
G1 X129.806 Y65.814 E19.87106
G1 X131.937 Y64.476 E19.95475
G1 X134.052 Y63.063 E20.03935
G1 X136.079 Y61.624 E20.12203
G1 X138.124 Y60.084 E20.20717
G1 X140.116 Y58.495 E20.29192
G1 X142.019 Y56.883 E20.37487
G1 X143.906 Y55.193 E20.45913
G1 X145.751 Y53.445 E20.54366
G1 X147.527 Y51.663 E20.62734
G1 X149.274 Y49.809 E20.71207
G1 X151.335 Y47.512 E20.81471
G1 X151.924 Y46.909 E20.84275
G1 X152.567 Y46.312 E20.87193
G1 X152.971 Y45.967 E20.8896
G1 X153.635 Y45.441 E20.91777
G1 X154.344 Y44.933 E20.94678
G1 X155.102 Y44.444 E20.97678
G1 X155.76 Y44.063 E21.00207
G1 X156.587 Y43.633 E21.03308
G1 X157.329 Y43.294 E21.06021
G1 X158.202 Y42.945 E21.09148
G1 X158.555 Y42.819 E21.10395
G1 X159.307 Y42.577 E21.13022
G1 X159.819 Y42.432 E21.14792
G1 X160.606 Y42.243 E21.17484
G1 X161.501 Y42.072 E21.20515
G1 X162.372 Y41.95 E21.2344
G1 X163.17 Y41.877 E21.26105
G1 X163.86 Y41.84 E21.28403
G1 X164.944 Y41.824 E21.32009
G1 X176.687 Y41.825 E21.71066
G1 X177.349 Y41.832 E21.73268
G1 X177.991 Y41.854 E21.75405
G1 X178.89 Y41.921 E21.78403
G1 X179.487 Y41.989 E21.80402
G1 X180.303 Y42.119 E21.8315
G1 X181.118 Y42.288 E21.85918
G1 X181.503 Y42.382 E21.87237
G1 X182.309 Y42.606 E21.90019
G1 X182.837 Y42.777 E21.91865
G1 X183.354 Y42.962 E21.93691
G1 X183.989 Y43.216 E21.95966
G1 X184.462 Y43.423 E21.97683
G1 X185.245 Y43.801 E22.00575
G1 X185.783 Y44.09 E22.02606
G1 X186.342 Y44.418 E22.04762
G1 X186.802 Y44.708 E22.06571
G1 X187.455 Y45.155 E22.09203
G1 X187.758 Y45.377 E22.10452
G1 X188.448 Y45.923 E22.13378
G1 X189.169 Y46.558 E22.16574
G1 X189.762 Y47.136 E22.19328
G1 X190.35 Y47.765 E22.22192
G1 X190.941 Y48.463 E22.25234
G1 X191.458 Y49.141 E22.2807
G1 X191.968 Y49.883 E22.31064
G1 X192.259 Y50.346 E22.32883
G1 X192.668 Y51.056 E22.35609
G1 X193.077 Y51.856 E22.38597
G1 X193.447 Y52.68 E22.41601
G1 X193.757 Y53.471 E22.44427
G1 X193.877 Y53.809 E22.4562
G1 X194.142 Y54.658 E22.48578
G1 X194.361 Y55.496 E22.51459
G1 X194.476 Y56.027 E22.53266
G1 X194.627 Y56.884 E22.5616
G1 X194.716 Y57.55 E22.58395
G1 X194.772 Y58.161 E22.60436
G1 X194.809 Y58.802 E22.62571
G1 X194.817 Y59.444 E22.64707
G1 X194.802 Y60.282 E22.67494
G1 X194.777 Y60.834 E22.69332
G1 X194.7 Y61.634 E22.72005
G1 X194.585 Y62.435 E22.74697
G1 X194.4 Y63.376 E22.77886
G1 X194.274 Y63.902 E22.79685
G1 X194.037 Y64.75 E22.82614
G1 X193.495 Y66.431 E22.88488
G1 X193.431 Y66.658 E22.89273
G1 X193.017 Y67.917 E22.93681
G1 X192.292 Y70.349 E23.02121
G1 X191.874 Y71.87 E23.07368
G1 X191.742 Y72.304 E23.08877
G1 X191.034 Y74.406 E23.16254
G1 X190.306 Y76.738 E23.24379
G1 X189.935 Y77.98 E23.28691
G1 X189.499 Y79.311 E23.33349
G1 X188.685 Y81.895 E23.4236
G1 X188.14 Y83.798 E23.48944
G1 X187.324 Y86.554 E23.58503
G1 X186.684 Y88.969 E23.66813
G1 X186.101 Y91.444 E23.7527
G1 X185.585 Y93.952 E23.83787
G1 X185.15 Y96.418 E23.92115
G1 X184.783 Y98.918 E24.00519
G1 X184.484 Y101.43 E24.08933
G1 X184.259 Y103.941 E24.17318
G1 X184.104 Y106.481 E24.25782
G1 X184.02 Y108.987 E24.34122
G1 X184.008 Y111.54 E24.42613
G1 X184.068 Y114.07 E24.5103
G1 X184.197 Y116.573 E24.59366
G1 X184.399 Y119.087 E24.67755
G1 X184.673 Y121.607 E24.76186
G1 X185.014 Y124.097 E24.84545
G1 X185.507 Y127.016 E24.94391
G1 X185.674 Y127.953 E24.97557
G1 X185.792 Y128.731 E25.00174
G1 X185.854 Y129.891 E25.04038
G1 X185.814 Y130.793 E25.07041
G1 X185.684 Y131.758 E25.10279
G1 X185.477 Y132.673 E25.13399
G1 X185.202 Y133.533 E25.16402
G1 X184.933 Y134.196 E25.18782
G1 X184.728 Y134.629 E25.20376
G1 X184.507 Y135.053 E25.21966
G1 X184.21 Y135.568 E25.23943
G1 X183.695 Y136.33 E25.27002
G1 X183.038 Y137.218 E25.30676
G1 X181.531 Y139.312 E25.39257
G1 X180.103 Y141.423 E25.47734
G1 X178.749 Y143.55 E25.5612
G1 X177.438 Y145.745 E25.64624
G1 X176.991 Y146.538 E25.67651
G1 X176.599 Y147.2 E25.7021
G1 X176.235 Y147.778 E25.72482
G1 X175.681 Y148.574 E25.75708
G1 X175.14 Y149.24 E25.78562
G1 X174.507 Y149.933 E25.81683
G1 X173.842 Y150.544 E25.84687
G1 X173.068 Y151.137 E25.8793
G1 X172.275 Y151.639 E25.91052
G1 X171.441 Y152.067 E25.94169
G1 X170.571 Y152.422 E25.97295
G1 X169.675 Y152.697 E26.00412
G1 X168.769 Y152.891 E26.03494
G1 X168.392 Y152.949 E26.04762
G1 X167.755 Y153.016 E26.06893
G1 X164.611 Y153.172 E26.17363
G1 X162.104 Y153.363 E26.25725
G1 X159.576 Y153.629 E26.3418
G1 X157.078 Y153.964 E26.42562
G1 X154.318 Y154.411 E26.51862
G1 X153.695 Y154.498 E26.53954
G1 X153.25 Y154.546 E26.55443
G1 X152.227 Y154.606 E26.58851
G1 X151.625 Y154.612 E26.60853
G1 X150.69 Y154.569 E26.63966
G1 X149.903 Y154.468 E26.66605
G1 X148.954 Y154.265 E26.69833
G1 X148.05 Y153.986 E26.7298
G1 X147.132 Y153.594 E26.763
G1 X147.093 Y153.59 E26.7643
G1 X146.088 Y153.116 E26.80126
G1 X143.731 Y152.051 E26.88729
G1 X141.384 Y151.068 E26.97192
G1 X139.061 Y150.172 E27.05473
G1 X136.659 Y149.324 E27.13945
G1 X134.249 Y148.548 E27.22366
G1 X131.826 Y147.842 E27.3076
G1 X129.382 Y147.205 E27.39161
G1 X126.889 Y146.631 E27.47669
G1 X124.449 Y146.14 E27.55948
G1 X121.918 Y145.705 E27.64489
G1 X119.435 Y145.351 E27.72831
G1 X116.953 Y145.069 E27.81139
G1 X114.383 Y144.848 E27.89719
G1 X111.91 Y144.707 E27.97957
G1 X109.319 Y144.633 E28.06579
G1 X107.988 Y144.624 E28.11006
G1 X30.678 Y144.622 E30.6814
G1 X29.965 Y144.612 E30.70511
